pauljac7700/ASTGCN-robot-pose-deviation/data/measurements_grid_cleaned.csv
step_order,Timestamp,x_dif,y_dif,z_dif,rx_dif,ry_dif,rz_dif,joint_1,joint_2,joint_3,joint_4,joint_5,joint_6,measurement_temperature,x_set,y_set,z_set,rx_set,ry_set,rz_set
0,20200714163904,0.365141,-0.000212669,1.4273,1.57002,1.57007,1.57073,-1.5708,-1.5708,0.0,-1.5708,0.0,0.0,23.6800003051758,2361.6179589999997,-1368.547187331,117.96983,-91.979171,-61.455175000000004,-92.458168
1,20200714163924,0.8,0.6,0.9,1.7453299999999998,1.5708,1.5708,-2.14055,-2.08493,-0.837441,-0.218756,0.393594,-0.00187856,23.6800003051758,1684.4797,-1665.9456,-416.71103,-92.027993,-51.246157,-92.496809
2,20200714163933,0.8,0.6,0.9,1.5708,1.7453299999999998,1.5708,-2.16052,-2.0273,-0.925227,-0.18811,0.588775,-0.176423,23.6800003051758,1686.0735,-1663.6997,-416.83957,-92.157943,-61.510872000000006,-102.79188
3,20200714163940,0.8,0.6,0.9,1.5708,1.91986,1.5708,-2.16059,-2.02693,-0.925264,-0.190553,0.588919,-0.348344,23.6800003051758,1686.0477,-1663.6415,-416.81712,-92.304736,-61.657359,-112.92652000000001
4,20200714163947,0.8,0.6,0.9,1.5708,2.0944,1.5708,-2.16037,-2.02698,-0.925444,-0.189535,0.588486,-0.523894,23.6800003051758,1686.2031,-1663.666,-416.82874999999996,-92.249367,-61.799429,-122.86933
5,20200714163954,0.8,0.6,0.9,1.5708,2.26893,1.5708,-2.16037,-2.02695,-0.925456,-0.189558,0.588882,-0.697337,23.6800003051758,1686.2033000000001,-1663.6381,-416.80631999999997,-92.239242,-61.96729700000001,-132.82027
6,20200714164018,0.8,0.6,0.8,1.0472,1.5708,1.5708,-2.26145,-1.924,-1.24786,0.0305822,1.21317,-0.00123245,23.6800003051758,1689.2676000000001,-1654.2362999999998,-515.8218599999999,-149.32484,-90.89863700000001,-150.3198
7,20200714164027,0.8,0.6,0.8,1.22173,1.5708,1.5708,-2.22168,-1.93996,-1.22585,0.0250032,0.998889,-0.000358407,23.6800003051758,1689.0694,-1657.2984,-515.78708,-93.81910199999999,-81.254525,-94.60549900000001
8,20200714164037,0.8,0.6,0.8,1.39626,1.5708,1.5708,-2.18771,-1.9683,-1.18616,0.0140362,0.7912359999999999,-0.00233347,23.6800003051758,1688.3702,-1659.9879999999998,-516.0343599999998,-92.46422,-71.27345600000001,-93.21556000000001
9,20200714164046,0.8,0.6,0.8,1.5708,1.5708,1.5708,-2.16042,-2.00864,-1.1278700000000002,-0.0066765,0.588427,0.000203732,23.6800003051758,1686.7959,-1662.8289,-516.43782,-92.30444800000001,-61.284171,-92.882745
10,20200714164055,0.8,0.6,0.8,1.7453299999999998,1.5708,1.5708,-2.14096,-2.05932,-1.05289,-0.0315325999999999,0.394854,0.00181936,23.6800003051758,1685.1566,-1664.9496,-516.80057,-92.14226599999999,-51.273027,-92.54518
11,20200714164110,0.8,0.6,0.8,1.5708,0.8726649999999999,1.5708,-2.16058,-2.00835,-1.12844,-0.00581438,0.5897939999999999,0.6969479999999999,23.6800003051758,1686.7887,-1662.9381999999998,-516.2870400000002,-92.180154,-60.746682,-52.861785999999995
12,20200714164117,0.8,0.6,0.8,1.5708,1.0472,1.5708,-2.16039,-2.00867,-1.1278700000000002,-0.00567085,0.588151,0.522926,23.6800003051758,1686.8266,-1662.9080999999999,-516.28625,-92.18789600000001,-60.809461999999996,-62.807047
13,20200714164124,0.8,0.6,0.8,1.5708,1.22173,1.5708,-2.16061,-2.00843,-1.1284299999999998,-0.00565893,0.589518,0.34907,23.6800003051758,1686.8095,-1662.8093,-516.43089,-92.22695300000001,-61.038031000000004,-72.878352
14,20200714164130,0.8,0.6,0.8,1.5708,1.39626,1.5708,-2.16033,-2.00868,-1.1279,-0.0055153999999999,0.587719,0.173754,23.6800003051758,1686.9091,-1662.8213999999998,-516.3774700000001,-92.218102,-61.11291400000001,-82.90881800000001
15,20200714164144,0.8,0.6,0.8,1.5708,1.7453299999999998,1.5708,-2.16055,-2.00831,-1.12851,-0.00603038,0.589086,-0.174867,23.6800003051758,1686.9673,-1662.6410000000003,-516.44864,-92.29194100000001,-61.490968,-102.93570000000001
16,20200714164151,0.8,0.6,0.8,1.5708,1.91986,1.5708,-2.16033,-2.0091,-1.1279,-0.00246221,0.588654,-0.351264,23.6800003051758,1686.996,-1662.7215999999999,-516.4598,-92.076231,-61.627267,-112.75917000000001
17,20200714164158,0.8,0.6,0.8,1.5708,2.0944,1.5708,-2.16047,-2.0083900000000003,-1.12858,-0.00556308,0.589554,-0.5220640000000001,23.6800003051758,1686.9565,-1662.7294,-516.5564499999999,-92.28220200000001,-61.840613,-122.82785000000001
18,20200714164204,0.8,0.6,0.8,1.5708,2.26893,1.5708,-2.16047,-2.00888,-1.12789,-0.00452167,0.588534,-0.698511,23.6800003051758,1686.9431,-1662.5751,-516.4472099999999,-92.194305,-61.937422000000005,-132.80998999999997
19,20200714164220,0.8,0.6,0.8,1.5708,1.5708,1.39626,-2.14082,-2.05991,-1.05252,-0.0276416,0.394818,-0.00317079,23.6800003051758,1685.2812000000001,-1665.0289,-516.80035,-91.841668,-51.28848,-92.351494
20,20200714164224,0.8,0.6,0.8,1.5708,1.5708,1.43117,-2.14406,-2.04888,-1.0689,-0.0258454,0.431857,0.000323574,23.6800003051758,1685.4541000000002,-1664.5692999999999,-516.9149,-92.02057400000001,-53.231777,-92.525379
21,20200714164229,0.8,0.6,0.8,1.5708,1.5708,1.4660799999999998,-2.14766,-2.03803,-1.08494,-0.0203975,0.470298,0.0003591519999999,23.6800003051758,1685.8869,-1664.0979999999995,-516.8686299999999,-92.084056,-55.257931000000006,-92.60010000000001
22,20200714164233,0.8,0.6,0.8,1.5708,1.5708,1.50098,-2.15173,-2.02783,-1.10024,-0.0136207,0.510608,-0.00181896,23.6800003051758,1686.2185,-1663.7017999999998,-516.8539599999999,-92.08023800000001,-57.343651,-92.683477
23,20200714164237,0.8,0.6,0.8,1.5708,1.5708,1.53589,-2.15573,-2.0186900000000003,-1.11398,-0.00728685,0.548469,-0.00318271,23.6800003051758,1686.5570000000002,-1663.2963,-516.7194,-92.046698,-59.305304,-92.675967
24,20200714164246,0.8,0.6,0.8,1.5708,1.5708,1.6057,-2.16515,-2.00051,-1.14036,0.000722408,0.6273380000000001,-0.00260812,23.6800003051758,1687.1223,-1662.2422,-516.4134900000001,-92.18123200000001,-63.272217000000005,-92.828026
25,20200714164251,0.8,0.6,0.8,1.5708,1.5708,1.64061,-2.17016,-1.99147,-1.15312,0.00300956,0.667147,-0.000932995,23.6800003051758,1687.5988,-1661.7302,-516.3289799999998,-92.370727,-65.23613,-92.995954
26,20200714164255,0.8,0.6,0.8,1.5708,1.5708,1.67552,-2.17587,-1.98277,-1.16522,0.00523639,0.709329,-0.000406567,23.6800003051758,1687.9007000000001,-1661.0391,-516.20287,-92.591143,-67.28637900000001,-93.25483200000001
27,20200714164259,0.8,0.6,0.8,1.5708,1.5708,1.71042,-2.18132,-1.97562,-1.17542,0.00842118,0.748161,-0.000717942,23.6800003051758,1688.0524,-1660.5706,-516.20799,-92.727202,-69.206482,-93.436219
28,20200714164322,0.8,0.6,0.7,1.0472,1.5708,1.5708,-2.26169,-1.943,-1.3974,0.198122,1.21429,0.000191748,23.6800003051758,1689.9959000000001,-1653.2676999999999,-616.10567,-155.52589,-90.863915,-156.46401
29,20200714164332,0.8,0.6,0.7,1.22173,1.5708,1.5708,-2.22172,-1.95796,-1.37627,0.191706,0.998698,-0.00065786,23.6800003051758,1689.7421,-1656.2878999999998,-616.20734,-94.35596699999999,-81.23052700000001,-95.22234200000001
30,20200714164341,0.8,0.6,0.7,1.39626,1.5708,1.5708,-2.18773,-1.98477,-1.33811,0.180429,0.7904800000000001,0.000407089,23.6800003051758,1689.0415,-1658.9664,-616.1156500000001,-92.667846,-71.21310400000002,-93.321483
31,20200714164350,0.8,0.6,0.7,1.5708,1.5708,1.5708,-2.16049,-2.02266,-1.28291,0.163934,0.588594,-0.000262562,23.6800003051758,1687.6422,-1661.7554,-615.9904300000001,-92.150823,-61.278380000000006,-92.670001
32,20200714164359,0.8,0.6,0.7,1.7453299999999998,1.5708,1.5708,-2.14096,-2.06968,-1.21278,0.141009,0.39543,-0.00173504,23.6800003051758,1686.0889,-1663.9329,-616.15557,-92.02322,-51.287656,-92.477029
33,20200714164415,0.8,0.6,0.7,1.5708,0.8726649999999999,1.5708,-2.16049,-2.02213,-1.28351,0.162138,0.589158,0.697965,23.6800003051758,1687.5756000000001,-1661.9438,-615.9503000000001,-92.178735,-60.694629,-52.819942
34,20200714164421,0.8,0.6,0.7,1.5708,1.0472,1.5708,-2.16049,-2.02271,-1.28296,0.164065,0.5888220000000001,0.522185,23.6800003051758,1687.5224,-1661.8827999999999,-615.9583,-92.088667,-60.82654499999999,-62.695101
35,20200714164428,0.8,0.6,0.7,1.5708,1.22173,1.5708,-2.16054,-2.02209,-1.28378,0.163419,0.589746,0.349094,23.6800003051758,1687.6764,-1661.8632,-616.07018,-92.176208,-61.04511100000001,-72.79603900000001
36,20200714164435,0.8,0.6,0.7,1.5708,1.39626,1.5708,-2.16057,-2.0220700000000003,-1.28383,0.162593,0.589206,0.175417,23.6800003051758,1687.6908,-1661.7821,-616.1066400000001,-92.240829,-61.182590999999995,-82.84941999999998
37,20200714164448,0.8,0.6,0.7,1.5708,1.7453299999999998,1.5708,-2.16053,-2.0221,-1.28374,0.16312,0.589554,-0.174496,23.6800003051758,1687.7726,-1661.7243999999998,-616.0586700000002,-92.23591300000001,-61.509267,-102.82098
38,20200714164455,0.8,0.6,0.7,1.5708,1.91986,1.5708,-2.16052,-2.0230900000000003,-1.28304,0.166771,0.58923,-0.351815,23.6800003051758,1687.6627,-1661.7078,-616.25477,-92.03045900000001,-61.651708,-112.71434
39,20200714164502,0.8,0.6,0.7,1.5708,2.0944,1.5708,-2.16037,-2.02299,-1.28282,0.164364,0.587743,-0.5250560000000001,23.6800003051758,1687.7033000000001,-1661.6481999999999,-616.16673,-92.154605,-61.725762,-122.78856
40,20200714164509,0.8,0.6,0.7,1.5708,2.26893,1.5708,-2.16034,-2.02278,-1.283,0.164316,0.588546,-0.697864,23.6800003051758,1687.7629,-1661.6861,-616.0709,-92.14928300000001,-61.9306,-132.70423
41,20200714164524,0.8,0.6,0.7,1.5708,1.5708,1.39626,-2.14098,-2.0701400000000003,-1.2125,0.142649,0.395082,-0.00206978,23.6800003051758,1686.0517,-1663.9107999999999,-616.32581,-91.799467,-51.277153999999996,-92.185088
42,20200714164528,0.8,0.6,0.7,1.5708,1.5708,1.43117,-2.14406,-2.05932,-1.22844,0.144242,0.432961,0.000981583,23.6800003051758,1686.4942,-1663.5788,-616.22938,-91.972828,-53.30091,-92.38312699999999
43,20200714164533,0.8,0.6,0.7,1.5708,1.5708,1.4660799999999998,-2.14772,-2.05029,-1.24236,0.152992,0.471425,-0.00281221,23.6800003051758,1686.7577,-1663.1020999999998,-616.26198,-91.86740300000001,-55.302983999999995,-92.367472
44,20200714164537,0.8,0.6,0.7,1.5708,1.5708,1.50098,-2.15153,-2.04134,-1.25597,0.157601,0.5089520000000001,-0.00289566,23.6800003051758,1686.9942,-1662.7395,-616.38115,-91.91976000000001,-57.243699,-92.451156
45,20200714164542,0.8,0.6,0.7,1.5708,1.5708,1.53589,-2.15584,-2.03104,-1.27078,0.158559,0.549764,0.00126883,23.6800003051758,1687.3736000000001,-1662.3381,-616.2761200000002,-92.174885,-59.349986,-92.634889
46,20200714164550,0.8,0.6,0.7,1.5708,1.5708,1.6057,-2.16503,-2.01416,-1.29532,0.1664,0.627422,-0.000202958,23.6800003051758,1688.0544,-1661.3418,-616.04511,-92.337907,-63.267074,-92.938448
47,20200714164555,0.8,0.6,0.7,1.5708,1.5708,1.64061,-2.17056,-2.00605,-1.30736,0.170146,0.668899,0.00117296,23.6800003051758,1688.2629,-1660.6228999999998,-616.1376200000001,-92.460802,-65.308475,-93.006163
48,20200714164559,0.8,0.6,0.7,1.5708,1.5708,1.67552,-2.17577,-1.99942,-1.31777,0.176874,0.708357,-0.00266821,23.6800003051758,1688.5774000000001,-1660.0856999999999,-616.2299200000002,-92.31754500000001,-67.230985,-93.01972500000001
49,20200714164604,0.8,0.6,0.7,1.5708,1.5708,1.71042,-2.18142,-1.99145,-1.32838,0.17679,0.7485689999999999,-0.000466172,23.6800003051758,1688.8882,-1659.5145,-616.13165,-92.73543500000001,-69.20144900000001,-93.428571
50,20200714164626,0.8,0.6,0.6,1.0472,1.5708,1.5708,-2.2616400000000003,-1.98898,-1.5142799999999998,0.36232,1.21358,-0.00206978,23.6800003051758,1690.5348000000001,-1652.2545,-715.99994,-148.43385,-90.88993399999998,-149.48791
51,20200714164636,0.8,0.6,0.6,1.22173,1.5708,1.5708,-2.2216400000000003,-2.00243,-1.49355,0.353284,0.99835,-0.000191037,23.6800003051758,1690.367,-1655.3718999999999,-716.07132,-94.490056,-81.19814499999998,-95.349784
52,20200714164645,0.8,0.6,0.6,1.39626,1.5708,1.5708,-2.18758,-2.02768,-1.45622,0.34141,0.789941,4.79369e-05,23.6800003051758,1689.7128,-1658.0689,-716.4911900000001,-92.794594,-71.180122,-93.513616
53,20200714164654,0.8,0.6,0.6,1.5708,1.5708,1.5708,-2.16045,-2.06277,-1.40289,0.323098,0.589542,0.000826163,23.6800003051758,1688.404,-1660.9119999999998,-716.42611,-92.28259800000001,-61.319817,-92.825732
54,20200714164703,0.8,0.6,0.6,1.7453299999999998,1.5708,1.5708,-2.14107,-2.10611,-1.33544,0.297496,0.39597,0.00239385,23.6800003051758,1686.9505000000001,-1662.8357999999998,-716.0399,-92.124681,-51.304361,-92.49122700000001
55,20200714164719,0.8,0.6,0.6,1.5708,0.8726649999999999,1.5708,-2.16037,-2.06318,-1.40247,0.323194,0.58833,0.696661,23.6800003051758,1688.2536,-1661.0340999999999,-716.37546,-92.184747,-60.64587100000001,-52.909293
56,20200714164725,0.8,0.6,0.6,1.5708,1.0472,1.5708,-2.16063,-2.06268,-1.40298,0.321817,0.5895779999999999,0.525381,23.6800003051758,1688.2432000000001,-1660.9206,-716.38593,-92.301253,-60.853272999999994,-62.849833
57,20200714164732,0.8,0.6,0.6,1.5708,1.22173,1.5708,-2.1604,-2.06277,-1.40279,0.322045,0.58863,0.351212,23.6800003051758,1688.3268,-1660.9796999999999,-716.4198700000001,-92.306583,-60.974308,-72.88495
58,20200714164739,0.8,0.6,0.6,1.5708,1.39626,1.5708,-2.16041,-2.06365,-1.40215,0.325324,0.588342,0.172401,23.6800003051758,1688.2901,-1660.9336999999998,-716.5403200000001,-92.13426000000001,-61.11935,-82.865086
59,20200714164752,0.8,0.6,0.6,1.5708,1.7453299999999998,1.5708,-2.16026,-2.06333,-1.40241,0.324151,0.587671,-0.17537,23.6800003051758,1688.4674,-1660.8464999999999,-716.52614,-92.230091,-61.408170000000005,-102.87610000000001
60,20200714164759,0.8,0.6,0.6,1.5708,1.91986,1.5708,-2.16045,-2.0630900000000003,-1.40251,0.32305,0.588258,-0.349433,23.6800003051758,1688.4233000000002,-1660.6876,-716.46646,-92.29581800000001,-61.584711,-113.01553000000001
61,20200714164806,0.8,0.6,0.6,1.5708,2.0944,1.5708,-2.16048,-2.06297,-1.40277,0.323098,0.588642,-0.5232,23.6800003051758,1688.469,-1660.6707,-716.55762,-92.31070700000001,-61.76062,-122.94346
62,20200714164813,0.8,0.6,0.6,1.5708,2.26893,1.5708,-2.16047,-2.06286,-1.4029200000000002,0.323218,0.58887,-0.697326,23.6800003051758,1688.5593000000001,-1660.6242,-716.4708799999999,-92.286882,-61.9341,-132.91101999999998
63,20200714164828,0.8,0.6,0.6,1.5708,1.5708,1.39626,-2.14094,-2.10686,-1.33445,0.29752,0.393966,0.00134074,23.6800003051758,1686.8969,-1662.8687,-716.01719,-91.932203,-51.205194,-92.3188
64,20200714164832,0.8,0.6,0.6,1.5708,1.5708,1.43117,-2.14411,-2.09782,-1.3489,0.303863,0.432013,2.39685e-05,23.6800003051758,1687.2125,-1662.4532,-716.3639000000001,-91.969409,-53.226040999999995,-92.45944899999999
65,20200714164837,0.8,0.6,0.6,1.5708,1.5708,1.4660799999999998,-2.14776,-2.08948,-1.36238,0.312337,0.470274,-0.00264436,23.6800003051758,1687.5364,-1662.0078999999998,-716.42754,-91.89440300000001,-55.224561,-92.425191
66,20200714164841,0.8,0.6,0.6,1.5708,1.5708,1.50098,-2.15164,-2.0797,-1.37701,0.313977,0.510392,0.000407089,23.6800003051758,1687.8087,-1661.6981999999998,-716.3375599999998,-92.11252400000001,-57.312397,-92.623163
67,20200714164845,0.8,0.6,0.6,1.5708,1.5708,1.53589,-2.15576,-2.0720400000000003,-1.3895,0.321506,0.548132,-0.00308687,23.6800003051758,1688.1221,-1661.2784,-716.5491000000001,-92.04151300000001,-59.249553,-92.684788
68,20200714164854,0.8,0.6,0.6,1.5708,1.5708,1.6057,-2.16523,-2.05527,-1.41441,0.326485,0.627566,-0.0002268,23.6800003051758,1688.6729,-1660.2533999999998,-716.4966400000001,-92.425888,-63.253293000000006,-93.081337
69,20200714164859,0.8,0.6,0.6,1.5708,1.5708,1.64061,-2.17049,-2.04767,-1.4260700000000002,0.331081,0.669091,-0.000585858,23.6800003051758,1688.9558,-1659.7661999999998,-716.5126700000001,-92.510045,-65.306543,-93.190721
70,20200714164903,0.8,0.6,0.6,1.5708,1.5708,1.67552,-2.17577,-2.04067,-1.43664,0.334205,0.709113,8.38896e-05,23.6800003051758,1689.2406,-1659.2239,-716.56542,-92.690161,-67.252983,-93.37596900000001
71,20200714164907,0.8,0.6,0.6,1.5708,1.5708,1.71042,-2.18175,-2.03393,-1.44681,0.33788,0.75044,0.000107858,23.6800003051758,1689.4315000000001,-1658.5637,-716.4965900000002,-92.818448,-69.27197500000001,-93.52035599999999
72,20200714164938,0.8,0.6,0.5,1.22173,1.5708,1.5708,-2.22174,-2.07143,-1.5810799999999998,0.511061,0.998541,-0.00123245,23.6800003051758,1690.9799,-1654.4512,-815.65047,-93.95597199999999,-81.20401500000001,-94.830911
73,20200714164947,0.8,0.6,0.5,1.39626,1.5708,1.5708,-2.18743,-2.09452,-1.54391,0.496017,0.7896770000000001,-0.000131432,23.6800003051758,1690.4544,-1657.1956,-815.77872,-92.6491,-71.16895600000001,-93.349495
74,20200714164956,0.8,0.6,0.5,1.5708,1.5708,1.5708,-2.16058,-2.12707,-1.49116,0.475636,0.5897220000000001,-5.94298e-05,23.6800003051758,1689.2154,-1659.8204999999998,-815.6985,-92.208483,-61.318916,-92.774046
75,20200714165005,0.8,0.6,0.5,1.7453299999999998,1.5708,1.5708,-2.14087,-2.1680200000000003,-1.42379,0.448888,0.39429,0.000131826,23.6800003051758,1687.9125000000001,-1661.8487,-815.50584,-92.047263,-51.195293,-92.464482
76,20200714165020,0.8,0.6,0.5,1.5708,0.8726649999999999,1.5708,-2.16045,-2.12701,-1.49116,0.4748350000000001,0.58863,0.6976899999999999,23.6800003051758,1689.2026,-1659.9388,-815.57252,-92.164665,-60.639519,-52.831471
77,20200714165027,0.8,0.6,0.5,1.5708,1.0472,1.5708,-2.16048,-2.12775,-1.4905700000000002,0.477563,0.588414,0.521682,23.6800003051758,1689.1733000000002,-1659.8858,-815.65933,-92.02992,-60.787923,-62.655873
78,20200714165034,0.8,0.6,0.5,1.5708,1.22173,1.5708,-2.16071,-2.1266700000000003,-1.49157,0.4750140000000001,0.590167,0.349644,23.6800003051758,1689.2394,-1659.7847,-815.63162,-92.2232,-61.033951,-72.858394
79,20200714165041,0.8,0.6,0.5,1.5708,1.39626,1.5708,-2.16039,-2.12732,-1.49087,0.475541,0.588294,0.174113,23.6800003051758,1689.2189,-1659.8555,-815.71942,-92.196741,-61.10170200000001,-82.877763
80,20200714165054,0.8,0.6,0.5,1.5708,1.7453299999999998,1.5708,-2.16032,-2.12738,-1.49072,0.475505,0.587611,-0.173276,23.6800003051758,1689.3021,-1659.7811,-815.7285,-92.21888100000001,-61.388042000000006,-102.74544
81,20200714165101,0.8,0.6,0.5,1.5708,1.91986,1.5708,-2.16053,-2.12699,-1.49118,0.47499,0.589266,-0.348499,23.6800003051758,1689.3111000000001,-1659.7197999999999,-815.66519,-92.253112,-61.639086999999996,-112.89596
82,20200714165108,0.8,0.6,0.5,1.5708,2.0944,1.5708,-2.16055,-2.12695,-1.49141,0.475361,0.589446,-0.521824,23.6800003051758,1689.4141,-1659.6264999999999,-815.71461,-92.252189,-61.790325,-122.7793
83,20200714165115,0.8,0.6,0.5,1.5708,2.26893,1.5708,-2.16054,-2.1274900000000003,-1.49108,0.4783770000000001,0.590191,-0.699445,23.6800003051758,1689.4282,-1659.6671999999999,-815.71483,-92.06753900000001,-61.994893,-132.6839
84,20200714165130,0.8,0.6,0.5,1.5708,1.5708,1.39626,-2.14089,-2.16885,-1.42278,0.4522270000000001,0.393918,-0.00390083,23.6800003051758,1687.8889000000001,-1661.8309,-815.46302,-91.755161,-51.195419,-92.214037
85,20200714165134,0.8,0.6,0.5,1.5708,1.5708,1.43117,-2.14412,-2.15909,-1.43845,0.4536270000000001,0.432097,0.0002277,23.6800003051758,1688.3020000000001,-1661.3908,-815.54235,-91.968151,-53.226482,-92.450238
86,20200714165139,0.8,0.6,0.5,1.5708,1.5708,1.4660799999999998,-2.14776,-2.15147,-1.45141,0.462592,0.4704060000000001,-0.00269205,23.6800003051758,1688.4862,-1660.9380999999998,-815.64705,-91.88114300000001,-55.224451,-92.42045
87,20200714165143,0.8,0.6,0.5,1.5708,1.5708,1.50098,-2.1514900000000003,-2.14279,-1.46535,0.464925,0.508892,-0.00044233,23.6800003051758,1688.7891,-1660.6441,-815.6923,-92.085701,-57.216788,-92.636889
88,20200714165147,0.8,0.6,0.5,1.5708,1.5708,1.53589,-2.15578,-2.13462,-1.4789,0.470371,0.549309,0.00112502,23.6800003051758,1689.1052,-1660.2899,-815.7045400000002,-92.151289,-59.298998,-92.63397099999999
89,20200714165156,0.8,0.6,0.5,1.5708,1.5708,1.6057,-2.1650400000000003,-2.12039,-1.5024,0.4808310000000001,0.627158,-0.0013879,23.6800003051758,1689.6036000000001,-1659.3022999999998,-815.80611,-92.25270900000001,-63.227441,-92.895202
90,20200714165201,0.8,0.6,0.5,1.5708,1.5708,1.64061,-2.1704,-2.11332,-1.51401,0.4855100000000001,0.668071,-0.0013879,23.6800003051758,1689.8511,-1658.6755999999998,-815.8294,-92.337925,-65.24456,-93.001503
91,20200714165205,0.8,0.6,0.5,1.5708,1.5708,1.67552,-2.1758900000000003,-2.10627,-1.52501,0.488131,0.709677,0.000886084,23.6800003051758,1690.1055000000001,-1658.1518999999998,-815.76374,-92.575327,-67.26889100000001,-93.17903100000001
92,20200714165209,0.8,0.6,0.5,1.5708,1.5708,1.71042,-2.1814,-2.10085,-1.53432,0.494653,0.748641,-0.00226146,23.6800003051758,1690.3551,-1657.5965999999999,-815.81918,-92.45063400000001,-69.19145900000001,-93.18533
93,20200714165240,0.8,0.6,0.4,1.22173,1.5708,1.5708,-2.22182,-2.1617,-1.64073,0.660676,0.999393,-0.00180704,23.5550003051758,1691.9221,-1653.4544999999998,-914.9569799999999,-93.94268799999999,-81.224603,-94.857695
94,20200714165249,0.8,0.6,0.4,1.39626,1.5708,1.5708,-2.1876,-2.18255,-1.60333,0.642965,0.790289,0.0,23.5550003051758,1691.2628,-1656.1698,-914.69574,-92.626393,-71.18456300000001,-93.330628
95,20200714165258,0.8,0.6,0.4,1.5708,1.5708,1.5708,-2.16035,-2.21236,-1.5503,0.619581,0.588366,-1.17461e-05,23.5550003051758,1690.0711000000001,-1658.8729999999998,-914.61969,-92.19072700000001,-61.234598999999996,-92.758217
96,20200714165307,0.8,0.6,0.4,1.7453299999999998,1.5708,1.5708,-2.14096,-2.25045,-1.48275,0.5934689999999999,0.39513,-0.00342256,23.5550003051758,1688.5107,-1660.9882,-915.14731,-91.93927099999999,-51.237798,-92.43894900000001
97,20200714165323,0.8,0.6,0.4,1.5708,0.8726649999999999,1.5708,-2.16051,-2.21224,-1.55082,0.6191979999999999,0.589098,0.697905,23.5550003051758,1689.9867000000002,-1658.9566,-914.6816,-92.152871,-60.658718,-52.821404
98,20200714165329,0.8,0.6,0.4,1.5708,1.0472,1.5708,-2.1602900000000003,-2.21245,-1.55043,0.6193420000000001,0.588378,0.524997,23.5550003051758,1689.9834,-1659.0355,-914.67766,-92.159751,-60.77904000000001,-62.686509
99,20200714165336,0.8,0.6,0.4,1.5708,1.22173,1.5708,-2.16054,-2.21306,-1.54972,0.6225729999999999,0.589086,0.346772,23.5550003051758,1689.9551000000001,-1658.9241,-914.5699099999999,-91.974472,-60.975814,-72.644546
100,20200714165343,0.8,0.6,0.4,1.5708,1.39626,1.5708,-2.16033,-2.21259,-1.55006,0.619617,0.587923,0.174723,23.5550003051758,1690.0007,-1658.9412,-914.6654199999999,-92.17888900000001,-61.077732999999995,-82.816096
101,20200714165357,0.8,0.6,0.4,1.5708,1.7453299999999998,1.5708,-2.16036,-2.2127,-1.55019,0.620563,0.587779,-0.175119,23.5550003051758,1690.1586,-1658.7464,-914.79597,-92.15764300000001,-61.38568,-102.77558
102,20200714165403,0.8,0.6,0.4,1.5708,1.91986,1.5708,-2.16065,-2.21295,-1.55008,0.6229439999999999,0.590106,-0.349624,23.5550003051758,1690.0803,-1658.7226999999998,-914.72735,-92.02890400000001,-61.669986,-112.61868000000001
103,20200714165410,0.8,0.6,0.4,1.5708,2.0944,1.5708,-2.16006,-2.21307,-1.54977,0.621927,0.587707,-0.523727,23.5550003051758,1690.1725000000001,-1658.7431,-914.71155,-92.075021,-61.711482000000004,-122.62558
104,20200714165426,0.8,0.6,0.4,1.5708,1.5708,1.39626,-2.1408,-2.24948,-1.4836,0.589137,0.393918,0.00119692,23.5550003051758,1688.6067,-1660.9765,-915.06258,-91.905444,-51.188794,-92.30143699999999
105,20200714165430,0.8,0.6,0.4,1.5708,1.5708,1.43117,-2.1440900000000003,-2.24277,-1.49669,0.59956,0.431737,-0.00326664,23.5550003051758,1688.9142,-1660.4902,-915.0834199999999,-91.798021,-53.19281500000001,-92.325479
106,20200714165434,0.8,0.6,0.4,1.5708,1.5708,1.4660799999999998,-2.14758,-2.23432,-1.51149,0.602923,0.47037,-0.0007417839999999,23.5550003051758,1689.2540000000001,-1660.1544999999999,-914.9249199999999,-91.977765,-55.21965200000001,-92.499504
107,20200714165439,0.8,0.6,0.4,1.5708,1.5708,1.50098,-2.1516,-2.22684,-1.52468,0.609254,0.50894,-0.000298802,23.5550003051758,1689.555,-1659.6157999999998,-914.72669,-91.99961900000001,-57.205653,-92.49418299999999
108,20200714165443,0.8,0.6,0.4,1.5708,1.5708,1.53589,-2.15595,-2.21958,-1.53783,0.6150220000000001,0.549285,0.000395105,23.5550003051758,1689.7496,-1659.1929,-914.77595,-92.07274600000001,-59.282986,-92.557867
109,20200714165452,0.8,0.6,0.4,1.5708,1.5708,1.6057,-2.16511,-2.20623,-1.56179,0.62584,0.627794,-0.00124437,23.5550003051758,1690.3486,-1658.3443,-914.78496,-92.220353,-63.240314,-92.857378
110,20200714165456,0.8,0.6,0.4,1.5708,1.5708,1.64061,-2.17037,-2.19976,-1.57307,0.630088,0.667987,0.000610446,23.5550003051758,1690.5802,-1657.7658999999999,-914.73768,-92.3614,-65.222508,-92.935931
111,20200714165501,0.8,0.6,0.4,1.5708,1.5708,1.67552,-2.17571,-2.19429,-1.58339,0.636347,0.707637,-0.00173504,23.5550003051758,1690.9074,-1657.1341,-914.85687,-92.344199,-67.164527,-93.03700900000001
112,20200714165505,0.8,0.6,0.4,1.5708,1.5708,1.71042,-2.1814400000000003,-2.18875,-1.5931,0.641254,0.748317,-0.00216562,23.5550003051758,1691.044,-1656.6517,-914.77097,-92.39996500000001,-69.15772600000001,-93.124354
113,20200714165529,0.8,0.5,0.9,1.0472,1.5708,1.5708,-2.35056,-1.82767,-1.20024,-0.112799,1.30219,-0.00120813,23.5550003051758,1739.1815000000001,-1568.4713,-414.63412999999997,-149.91733000000005,-90.944207,-150.89239999999998
114,20200714165538,0.8,0.5,0.9,1.22173,1.5708,1.5708,-2.3057,-1.83739,-1.18742,-0.117122,1.08313,-0.00147134,23.5550003051758,1738.835,-1571.4187,-414.64480999999995,-94.107148,-81.272209,-94.97392400000001
115,20200714165548,0.8,0.5,0.9,1.39626,1.5708,1.5708,-2.2662400000000003,-1.86036,-1.1574799999999998,-0.124451,0.8696290000000001,0.000167779,23.5550003051758,1738.2530000000002,-1574.1611,-414.63243,-92.652802,-71.286921,-93.296581
116,20200714165557,0.8,0.5,0.9,1.5708,1.5708,1.5708,-2.23389,-1.89637,-1.10986,-0.135587,0.661676,-0.00133974,23.5550003051758,1736.8443,-1576.8067,-415.14191,-92.218208,-61.238191,-92.81707200000001
117,20200714165606,0.8,0.5,0.9,1.7453299999999998,1.5708,1.5708,-2.21003,-1.94281,-1.04615,-0.154459,0.465305,0.00120891,23.5550003051758,1735.0992,-1579.2812,-415.42949,-92.138331,-51.342495,-92.52469500000001
118,20200714165621,0.8,0.5,0.9,1.5708,0.8726649999999999,1.5708,-2.23412,-1.896,-1.11053,-0.135467,0.663044,0.697103,23.5550003051758,1736.7648000000002,-1576.8509,-415.17686,-92.15108000000001,-60.673364,-52.793575
119,20200714165628,0.8,0.5,0.9,1.5708,1.0472,1.5708,-2.23389,-1.89603,-1.10996,-0.137239,0.662084,0.5237649999999999,23.5550003051758,1736.7744,-1576.9441,-415.03303,-92.268444,-60.793319999999994,-62.859471
120,20200714165635,0.8,0.5,0.9,1.5708,1.22173,1.5708,-2.23374,-1.89667,-1.10965,-0.135072,0.661209,0.347741,23.5550003051758,1736.7108,-1576.9884,-415.17051,-92.15030200000001,-60.917465,-72.795139
121,20200714165642,0.8,0.5,0.9,1.5708,1.39626,1.5708,-2.23398,-1.89651,-1.1101,-0.13391,0.66242,0.173299,23.5550003051758,1736.7817,-1576.8606,-415.22941,-92.113179,-61.135557,-82.750669
122,20200714165655,0.8,0.5,0.9,1.5708,1.7453299999999998,1.5708,-2.23378,-1.8962900000000005,-1.10973,-0.136689,0.6610159999999999,-0.174042,23.5550003051758,1736.8702,-1576.8085,-415.14248,-92.290068,-61.391573000000015,-102.86074
123,20200714165702,0.8,0.5,0.9,1.5708,1.91986,1.5708,-2.23407,-1.89655,-1.1101299999999998,-0.133659,0.662744,-0.351312,23.5550003051758,1736.8407,-1576.6741,-415.27000999999996,-92.133729,-61.61767999999999,-112.83838999999999
124,20200714165709,0.8,0.5,0.9,1.5708,2.0944,1.5708,-2.23406,-1.89594,-1.11032,-0.136677,0.662732,-0.5229010000000001,23.5550003051758,1736.9564,-1576.5977,-415.17931,-92.312489,-61.775098,-122.87372
125,20200714165715,0.8,0.5,0.9,1.5708,2.26893,1.5708,-2.23405,-1.89621,-1.10999,-0.136126,0.66296,-0.697086,23.5550003051758,1736.8719,-1576.5955,-415.12134999999995,-92.266135,-61.944706,-132.82273
126,20200714165731,0.8,0.5,0.9,1.5708,1.5708,1.39626,-2.20973,-1.94339,-1.04519,-0.154962,0.4628930000000001,0.00114899,23.5550003051758,1735.1223,-1579.3266,-415.29377,-91.95892900000001,-51.246423,-92.334192
127,20200714165735,0.8,0.5,0.9,1.5708,1.5708,1.43117,-2.21394,-1.93336,-1.05918,-0.151106,0.501356,0.0003591519999999,23.5550003051758,1735.3873,-1578.7525,-415.32047,-92.024557,-53.257252,-92.489398
128,20200714165740,0.8,0.5,0.9,1.5708,1.5708,1.4660799999999998,-2.21863,-1.92301,-1.0738299999999998,-0.145981,0.5426479999999999,0.000826163,23.5550003051758,1735.8170000000005,-1578.2854,-415.39029999999997,-92.054243,-55.371386,-92.47967200000001
129,20200714165744,0.8,0.5,0.9,1.5708,1.5708,1.50098,-2.22346,-1.91399,-1.0864200000000002,-0.140018,0.582475,-0.00185424,23.5550003051758,1736.1394,-1577.845,-415.3155,-91.993081,-57.381648,-92.51672599999999
130,20200714165748,0.8,0.5,0.9,1.5708,1.5708,1.53589,-2.22844,-1.90487,-1.09812,-0.140233,0.621471,-0.000155274,23.5550003051758,1736.4132,-1577.3727,-415.16746,-92.23170400000001,-59.318296,-92.785253
131,20200714165757,0.8,0.5,0.9,1.5708,1.5708,1.6057,-2.23966,-1.88859,-1.12099,-0.130797,0.702299,-0.00119621,23.5550003051758,1737.1643000000001,-1576.1724,-415.23445999999996,-92.17964400000001,-63.235182,-92.741009
132,20200714165802,0.8,0.5,0.9,1.5708,1.5708,1.64061,-2.24576,-1.88059,-1.13079,-0.131431,0.7432310000000001,0.000347543,23.5550003051758,1737.5465000000002,-1575.5737,-414.88106,-92.47058700000001,-65.204311,-93.04549999999999
133,20200714165806,0.8,0.5,0.9,1.5708,1.5708,1.67552,-2.25227,-1.87374,-1.14031,-0.127552,0.784483,-0.00122053,23.5550003051758,1737.6989,-1575.0124,-414.92859,-92.458471,-67.20721300000001,-93.11003600000001
134,20200714165811,0.8,0.5,0.9,1.5708,1.5708,1.71042,-2.2589200000000003,-1.86698,-1.14921,-0.125492,0.825924,-0.00124437,23.5550003051758,1738.0071,-1574.644,-414.81224999999995,-92.59582300000001,-69.24849900000001,-93.274256
135,20200714165834,0.8,0.5,0.8,1.0472,1.5708,1.5708,-2.35069,-1.82318,-1.38046,0.0610757,1.30296,0.000119842,23.5550003051758,1739.7440000000001,-1567.5756,-514.8815299999998,-155.79289,-90.86064900000001,-156.72258
136,20200714165844,0.8,0.5,0.8,1.22173,1.5708,1.5708,-2.30609,-1.83278,-1.36878,0.0610996,1.08467,-0.00122053,23.5550003051758,1739.4744,-1570.3404,-514.9299199999999,-93.747002,-81.322198,-94.571656
137,20200714165853,0.8,0.5,0.8,1.39626,1.5708,1.5708,-2.26616,-1.85439,-1.34039,0.0523479,0.8685620000000001,-0.000538174,23.5550003051758,1738.9517,-1573.1302,-514.74037,-92.661626,-71.21574100000001,-93.349187
138,20200714165902,0.8,0.5,0.8,1.5708,1.5708,1.5708,-2.2339900000000004,-1.88791,-1.29622,0.0409861,0.662288,-1.17461e-05,23.5550003051758,1737.6559,-1575.7338,-514.7186099999999,-92.26952800000001,-61.242342,-92.817526
139,20200714165911,0.8,0.5,0.8,1.7453299999999998,1.5708,1.5708,-2.20991,-1.93242,-1.23652,0.0295048,0.464549,-0.00209362,23.5550003051758,1736.0130000000001,-1578.2588,-514.8507999999999,-91.947857,-51.31008400000001,-92.326659
140,20200714165927,0.8,0.5,0.8,1.5708,0.8726649999999999,1.5708,-2.23412,-1.88836,-1.2961,0.0434406,0.662984,0.696062,23.5550003051758,1737.5188,-1575.8719,-514.61582,-92.025469,-60.65700600000001,-52.671928
141,20200714165934,0.8,0.5,0.8,1.5708,1.0472,1.5708,-2.23407,-1.88832,-1.29613,0.0438836,0.66242,0.5219090000000001,23.5550003051758,1737.6572,-1575.7654,-514.58373,-92.016316,-60.789092000000004,-62.591079
142,20200714165940,0.8,0.5,0.8,1.5708,1.22173,1.5708,-2.23396,-1.8883,-1.29576,0.0428421,0.661868,0.347813,23.5550003051758,1737.6399000000001,-1575.8432,-514.4990099999998,-92.093843,-60.937225,-72.72624900000001
143,20200714165947,0.8,0.5,0.8,1.5708,1.39626,1.5708,-2.23424,-1.88783,-1.2965799999999998,0.0421354,0.663728,0.174795,23.5550003051758,1737.6531,-1575.6989,-514.7565099999999,-92.18961200000001,-61.178384,-82.78404900000001
144,20200714170001,0.8,0.5,0.8,1.5708,1.7453299999999998,1.5708,-2.23393,-1.88793,-1.29633,0.0416085,0.66242,-0.174042,23.5550003051758,1737.7248,-1575.7645,-514.7799299999999,-92.243036,-61.436096000000006,-102.78565
145,20200714170007,0.8,0.5,0.8,1.5708,1.91986,1.5708,-2.23398,-1.88793,-1.29619,0.0419201,0.662312,-0.349661,23.5550003051758,1737.8324,-1575.6175,-514.59845,-92.20382000000001,-61.581996,-112.85518
146,20200714170014,0.8,0.5,0.8,1.5708,2.0944,1.5708,-2.23401,-1.88794,-1.29642,0.0419201,0.662672,-0.523069,23.5550003051758,1737.7991,-1575.631,-514.7648499999999,-92.22961400000001,-61.758924,-122.77513
147,20200714170021,0.8,0.5,0.8,1.5708,2.26893,1.5708,-2.2341900000000003,-1.88794,-1.29642,0.0415965,0.662876,-0.697349,23.5550003051758,1737.7593,-1575.4505,-514.7819,-92.246083,-61.91951000000001,-132.81095
148,20200714170036,0.8,0.5,0.8,1.5708,1.5708,1.39626,-2.21,-1.93206,-1.23652,0.0272657,0.4649930000000001,-0.0018428,23.5550003051758,1735.9352000000001,-1578.2374,-514.7305299999999,-91.85093300000001,-51.336625,-92.272757
149,20200714170041,0.8,0.5,0.8,1.5708,1.5708,1.43117,-2.2138400000000003,-1.92323,-1.24908,0.0317676,0.501548,-0.00247652,23.5550003051758,1736.2915,-1577.8276,-514.9581099999999,-91.86046400000001,-53.246199,-92.347662
150,20200714170045,0.8,0.5,0.8,1.5708,1.5708,1.4660799999999998,-2.2183900000000003,-1.91399,-1.26158,0.0349281,0.541184,-0.0025366,23.5550003051758,1736.6229999999998,-1577.3514,-514.81364,-91.917595,-55.284116000000004,-92.435681
151,20200714170049,0.8,0.5,0.8,1.5708,1.5708,1.50098,-2.22312,-1.90459,-1.27373,0.0351436999999999,0.580555,-0.000429932,23.5550003051758,1737.0047,-1576.9393,-514.74798,-92.11475,-57.272014,-92.63377799999999
152,20200714170054,0.8,0.5,0.8,1.5708,1.5708,1.53589,-2.2282900000000003,-1.89674,-1.28467,0.039849,0.6205470000000001,-0.00142366,23.5550003051758,1737.2293,-1576.3784,-514.6714,-92.077734,-59.249929,-92.62207599999999
153,20200714170103,0.8,0.5,0.8,1.5708,1.5708,1.6057,-2.2397400000000003,-1.88075,-1.30621,0.0464337,0.703367,-0.00217754,23.5550003051758,1738.0565000000001,-1575.1848,-514.65302,-92.144947,-63.279143000000005,-92.748837
154,20200714170107,0.8,0.5,0.8,1.5708,1.5708,1.64061,-2.2460400000000003,-1.87348,-1.31572,0.0473077,0.7446699999999999,-0.00155527,23.5550003051758,1738.2712000000001,-1574.5423,-514.68738,-92.345274,-65.26357300000001,-92.98368099999999
155,20200714170112,0.8,0.5,0.8,1.5708,1.5708,1.67552,-2.25208,-1.86696,-1.32421,0.0494863,0.784003,-0.00160295,23.5550003051758,1738.5766,-1574.1094,-514.6407900000002,-92.43303900000001,-67.189994,-93.09966200000001
156,20200714170116,0.8,0.5,0.8,1.5708,1.5708,1.71042,-2.25907,-1.8604,-1.33261,0.0505041,0.825973,0.000275637,23.5550003051758,1738.7661,-1573.5293,-514.62916,-92.650895,-69.22157600000001,-93.257681
157,20200714170139,0.8,0.5,0.7,1.0472,1.5708,1.5708,-2.35077,-1.84703,-1.52668,0.231315,1.30298,-0.00122053,23.5550003051758,1740.6388,-1566.5259,-614.3950400000002,-153.82263,-90.875574,-154.82811999999998
158,20200714170149,0.8,0.5,0.7,1.22173,1.5708,1.5708,-2.30559,-1.85642,-1.51474,0.229591,1.0826,-0.000298802,23.5550003051758,1740.2736,-1569.5031,-614.5375300000001,-93.96158899999999,-81.22435500000003,-94.753691
159,20200714170158,0.8,0.5,0.7,1.39626,1.5708,1.5708,-2.26663,-1.87723,-1.48743,0.223978,0.870769,-0.00196201,23.5550003051758,1739.6724000000002,-1572.0704,-614.7306400000002,-92.464662,-71.304455,-93.19214500000001
160,20200714170207,0.8,0.5,0.7,1.5708,1.5708,1.5708,-2.234,-1.90922,-1.44376,0.210056,0.661557,0.000574494,23.5550003051758,1738.3761,-1574.7318,-614.94448,-92.270902,-61.20370600000001,-92.793605
161,20200714170216,0.8,0.5,0.7,1.7453299999999998,1.5708,1.5708,-2.20995,-1.95027,-1.38696,0.193585,0.465077,0.00186729,23.5550003051758,1736.7041000000002,-1577.3619,-615.06858,-92.126466,-51.309773,-92.47074400000001
162,20200714170232,0.8,0.5,0.7,1.5708,0.8726649999999999,1.5708,-2.23398,-1.90931,-1.44405,0.211169,0.662684,0.696277,23.5550003051758,1738.2656,-1575.0344,-614.96515,-92.132603,-60.637913,-52.817375999999996
163,20200714170238,0.8,0.5,0.7,1.5708,1.0472,1.5708,-2.23423,-1.90894,-1.44408,0.210033,0.663416,0.523645,23.5550003051758,1738.3097,-1574.8627,-614.78278,-92.22016500000001,-60.820293,-62.79915799999999
164,20200714170245,0.8,0.5,0.7,1.5708,1.22173,1.5708,-2.23401,-1.90908,-1.4439799999999998,0.209445,0.662216,0.349584,23.5550003051758,1738.2805,-1574.8599,-614.9828,-92.28779300000001,-60.920728000000004,-72.923
165,20200714170252,0.8,0.5,0.7,1.5708,1.39626,1.5708,-2.23386,-1.90909,-1.44396,0.209745,0.66164,0.175178,23.5550003051758,1738.3775,-1574.9034,-614.97499,-92.28151600000001,-61.065548,-82.91127700000001
166,20200714170305,0.8,0.5,0.7,1.5708,1.7453299999999998,1.5708,-2.23389,-1.90967,-1.44348,0.21166,0.661281,-0.17482,23.5550003051758,1738.3593,-1574.7589,-614.9556900000002,-92.17955500000001,-61.361230000000006,-102.74828000000001
167,20200714170312,0.8,0.5,0.7,1.5708,1.91986,1.5708,-2.23401,-1.91,-1.44367,0.213982,0.662276,-0.350965,23.5550003051758,1738.3877,-1574.6937,-615.10285,-92.05879800000001,-61.565677,-112.71687
168,20200714170319,0.8,0.5,0.7,1.5708,2.0944,1.5708,-2.23403,-1.90886,-1.44422,0.210224,0.662768,-0.523045,23.5550003051758,1738.546,-1574.6534,-614.94212,-92.289804,-61.749985,-122.85954000000001
169,20200714170326,0.8,0.5,0.7,1.5708,2.26893,1.5708,-2.23403,-1.90923,-1.4441,0.211182,0.662696,-0.697709,23.5550003051758,1738.4809,-1574.6358,-615.0618700000002,-92.231621,-61.902418999999995,-132.81792
170,20200714170341,0.8,0.5,0.7,1.5708,1.5708,1.39626,-2.20992,-1.95056,-1.38651,0.193932,0.464009,0.000730289,23.5550003051758,1736.7032000000002,-1577.2439,-614.9942400000002,-91.93119300000001,-51.271417,-92.300476
171,20200714170346,0.8,0.5,0.7,1.5708,1.5708,1.43117,-2.21392,-1.94173,-1.39886,0.197128,0.501967,0.0015557,23.5550003051758,1737.0897,-1576.8289,-615.0838900000002,-92.007478,-53.267811,-92.392088
172,20200714170350,0.8,0.5,0.7,1.5708,1.5708,1.4660799999999998,-2.21838,-1.93326,-1.41069,0.200779,0.541017,0.00156769,23.5550003051758,1737.3633,-1576.3809,-614.9968,-92.05381600000001,-55.254650999999996,-92.452326
173,20200714170354,0.8,0.5,0.7,1.5708,1.5708,1.50098,-2.22328,-1.92514,-1.42213,0.204478,0.581071,0.000766241,23.5550003051758,1737.5939,-1575.9253,-615.0461,-92.098893,-57.277237,-92.553673
174,20200714170359,0.8,0.5,0.7,1.5708,1.5708,1.53589,-2.2282900000000003,-1.91688,-1.4333,0.20686,0.620847,0.000658383,23.5550003051758,1738.0230000000001,-1575.4101,-614.9803700000002,-92.20989200000001,-59.261794,-92.71523099999999
175,20200714170407,0.8,0.5,0.7,1.5708,1.5708,1.6057,-2.23951,-1.90197,-1.45366,0.212905,0.701711,-0.0008133089999999,23.5550003051758,1738.7627,-1574.2469,-615.0038700000002,-92.359859,-63.19416,-92.987199
176,20200714170412,0.8,0.5,0.7,1.5708,1.5708,1.64061,-2.24579,-1.89574,-1.46271,0.218028,0.743483,-0.00258428,23.5550003051758,1738.9513,-1573.677,-615.0379300000001,-92.265393,-65.19799499999999,-92.94666
177,20200714170416,0.8,0.5,0.7,1.5708,1.5708,1.67552,-2.25224,-1.88884,-1.47145,0.217346,0.7849149999999999,-0.0006097,23.5550003051758,1739.141,-1573.2191,-614.89052,-92.599165,-67.21480400000002,-93.262049
178,20200714170421,0.8,0.5,0.7,1.5708,1.5708,1.71042,-2.25898,-1.88281,-1.47936,0.219202,0.825781,0.000981583,23.5550003051758,1739.3664,-1572.6855,-614.7646500000001,-92.747425,-69.200916,-93.344725
179,20200714170444,0.8,0.5,0.6,1.0472,1.5708,1.5708,-2.35045,-1.89795,-1.6428,0.398573,1.30194,-0.000286881,23.5550003051758,1741.1802,-1565.6964,-714.26044,-149.23726000000005,-90.85464300000001,-150.18921999999998
180,20200714170454,0.8,0.5,0.6,1.22173,1.5708,1.5708,-2.30557,-1.90646,-1.63111,0.395845,1.08248,5.99211e-05,23.5550003051758,1740.9489,-1568.576,-714.2182299999998,-93.97323399999999,-81.20810200000001,-94.759417
181,20200714170503,0.8,0.5,0.6,1.39626,1.5708,1.5708,-2.26622,-1.92617,-1.60335,0.386748,0.868898,0.000933646,23.5550003051758,1740.1854,-1571.2608,-714.30776,-92.682709,-71.198987,-93.306224
182,20200714170512,0.8,0.5,0.6,1.5708,1.5708,1.5708,-2.23394,-1.95668,-1.56029,0.37454,0.661832,-0.000358407,23.5550003051758,1738.9194,-1573.9458,-714.64995,-92.227407,-61.195819,-92.79119
183,20200714170521,0.8,0.5,0.6,1.7453299999999998,1.5708,1.5708,-2.20991,-1.99565,-1.50363,0.355749,0.463073,0.00134074,23.5550003051758,1737.3394,-1576.3104,-714.93235,-92.121258,-51.201394,-92.51128200000001
184,20200714170537,0.8,0.5,0.6,1.5708,0.8726649999999999,1.5708,-2.23382,-1.95662,-1.5603200000000002,0.37393,0.661497,0.697965,23.5550003051758,1738.8989999999997,-1574.0762,-714.46068,-92.16556700000001,-60.55948200000001,-52.786479
185,20200714170544,0.8,0.5,0.6,1.5708,1.0472,1.5708,-2.23388,-1.9568,-1.56043,0.37515,0.661497,0.522651,23.5550003051758,1738.9333000000001,-1574.0431,-714.65101,-92.13886500000001,-60.724219,-62.749300999999996
186,20200714170550,0.8,0.5,0.6,1.5708,1.22173,1.5708,-2.23387,-1.95687,-1.56014,0.375007,0.661328,0.348375,23.5550003051758,1738.8897,-1574.0185,-714.54372,-92.15466500000001,-60.877114,-72.80600100000001
187,20200714170557,0.8,0.5,0.6,1.5708,1.39626,1.5708,-2.23387,-1.95671,-1.56031,0.374193,0.6613399999999999,0.175226,23.5550003051758,1738.9208,-1573.9737,-714.62795,-92.23316000000001,-61.03556600000001,-82.83821700000003
188,20200714170611,0.8,0.5,0.6,1.5708,1.7453299999999998,1.5708,-2.2338,-1.95677,-1.56016,0.374468,0.661148,-0.1736589999999999,23.5550003051758,1738.9984,-1573.8885,-714.55917,-92.23102,-61.344898000000015,-102.76694
189,20200714170617,0.8,0.5,0.6,1.5708,1.91986,1.5708,-2.23382,-1.95696,-1.56027,0.37539,0.661172,-0.349577,23.5550003051758,1739.0525,-1573.8292,-714.71505,-92.19460400000001,-61.504075,-112.85629
190,20200714170624,0.8,0.5,0.6,1.5708,2.0944,1.5708,-2.23383,-1.95708,-1.56007,0.375605,0.661185,-0.524529,23.5550003051758,1739.0152,-1573.8084,-714.66328,-92.175182,-61.65941,-122.79712
191,20200714170631,0.8,0.5,0.6,1.5708,2.26893,1.5708,-2.23414,-1.95714,-1.56021,0.377126,0.662912,-0.700462,23.5550003051758,1739.0115,-1573.6815,-714.6155,-92.08045600000001,-61.898733,-132.74165
192,20200714170646,0.8,0.5,0.6,1.5708,1.5708,1.39626,-2.20994,-1.99643,-1.50306,0.358801,0.463217,-0.00203354,23.5550003051758,1737.2733,-1576.3165,-715.0130200000002,-91.834941,-51.21398400000001,-92.276869
193,20200714170650,0.8,0.5,0.6,1.5708,1.5708,1.43117,-2.21386,-1.98754,-1.5156,0.359627,0.501235,0.00128081,23.5550003051758,1737.6246,-1575.9552,-714.82651,-92.001271,-53.213674,-92.411362
194,20200714170655,0.8,0.5,0.6,1.5708,1.5708,1.4660799999999998,-2.21845,-1.97993,-1.52742,0.367227,0.541557,-0.00223762,23.5550003051758,1737.9964,-1575.4231,-714.8786200000001,-91.884134,-55.273765,-92.38445700000001
195,20200714170659,0.8,0.5,0.6,1.5708,1.5708,1.50098,-2.22322,-1.97169,-1.53888,0.368532,0.580507,-0.0010646,23.5550003051758,1738.3170000000005,-1574.9683,-714.74973,-92.05237100000001,-57.23529,-92.590929
196,20200714170703,0.8,0.5,0.6,1.5708,1.5708,1.53589,-2.22843,-1.96378,-1.5504,0.371979,0.621975,-0.00112468,23.5550003051758,1738.6965,-1574.5405,-714.8223700000002,-92.13894900000001,-59.309776,-92.71215
197,20200714170712,0.8,0.5,0.6,1.5708,1.5708,1.6057,-2.23993,-1.95036,-1.57005,0.379806,0.703271,-0.00228531,23.5550003051758,1739.2649000000001,-1573.2023,-714.68155,-92.158364,-63.247324,-92.7935
198,20200714170717,0.8,0.5,0.6,1.5708,1.5708,1.64061,-2.2457700000000003,-1.94352,-1.57932,0.37995,0.743302,-0.000717942,23.5550003051758,1739.6054000000001,-1572.7392,-714.62091,-92.440352,-65.169014,-93.084426
199,20200714170721,0.8,0.5,0.6,1.5708,1.5708,1.67552,-2.25238,-1.9372,-1.58818,0.382416,0.785575,0.00100555,23.5550003051758,1739.8198,-1572.2703,-714.5506,-92.57558300000001,-67.233626,-93.149274
200,20200714170726,0.8,0.5,0.6,1.5708,1.5708,1.71042,-2.25922,-1.93135,-1.59626,0.384773,0.827484,0.00102915,23.5550003051758,1740.0432,-1571.7824,-714.48217,-92.713048,-69.27153100000001,-93.310755
201,20200714170749,0.8,0.5,0.5,1.0472,1.5708,1.5708,-2.35074,-1.97422,-1.73102,0.562821,1.3026799999999998,-0.0002268,23.5550003051758,1741.6821,-1564.7156,-814.46234,-151.88324,-90.835057,-152.85082
202,20200714170758,0.8,0.5,0.5,1.22173,1.5708,1.5708,-2.30588,-1.98198,-1.7193200000000002,0.5590510000000001,1.08351,-0.00148327,23.5550003051758,1741.4299,-1567.6013,-814.40427,-94.21699299999999,-81.23191100000001,-95.12001000000001
203,20200714170808,0.8,0.5,0.5,1.39626,1.5708,1.5708,-2.26617,-2.00083,-1.6910900000000002,0.551248,0.868526,-0.00148327,23.5550003051758,1740.8,-1570.4093,-814.45031,-92.451582,-71.17184900000001,-93.17642000000001
204,20200714170817,0.8,0.5,0.5,1.5708,1.5708,1.5708,-2.23408,-2.02898,-1.64823,0.537211,0.66332,-0.00288374,23.5550003051758,1739.5857,-1573.0933,-814.7441200000002,-92.050235,-61.27505,-92.683812
205,20200714170826,0.8,0.5,0.5,1.7453299999999998,1.5708,1.5708,-2.20983,-2.06488,-1.59136,0.513646,0.463457,-0.000429932,23.5550003051758,1738.0378,-1575.4903,-814.6492400000002,-92.052998,-51.214622,-92.491371
206,20200714170841,0.8,0.5,0.5,1.5708,0.8726649999999999,1.5708,-2.23388,-2.02872,-1.6479099999999998,0.534254,0.661412,0.6969350000000001,23.5550003051758,1739.4279999999997,-1573.1673,-814.51464,-92.124426,-60.543153,-52.804939999999995
207,20200714170848,0.8,0.5,0.5,1.5708,1.0472,1.5708,-2.23394,-2.02885,-1.6479,0.5346850000000001,0.6612210000000001,0.5240520000000001,23.5550003051758,1739.4579,-1573.1108,-814.61577,-92.129373,-60.695387999999994,-62.669477
208,20200714170855,0.8,0.5,0.5,1.5708,1.22173,1.5708,-2.23392,-2.02828,-1.64832,0.53295,0.661964,0.350111,23.5550003051758,1739.5042,-1573.1599,-814.62068,-92.26619500000001,-60.89827200000001,-72.87604100000003
209,20200714170902,0.8,0.5,0.5,1.5708,1.39626,1.5708,-2.23392,-2.02917,-1.64779,0.536301,0.661136,0.1728559999999999,23.5550003051758,1739.5186,-1573.0464,-814.76914,-92.083461,-61.022538999999995,-82.768997
210,20200714170915,0.8,0.5,0.5,1.5708,1.7453299999999998,1.5708,-2.23394,-2.02869,-1.64799,0.5344939999999999,0.6613640000000001,-0.174688,23.5550003051758,1739.5929,-1572.9119,-814.65702,-92.21148600000001,-61.336654,-102.80996
211,20200714170922,0.8,0.5,0.5,1.5708,1.91986,1.5708,-2.23415,-2.02869,-1.64812,0.535331,0.6626,-0.350103,23.5550003051758,1739.6157,-1572.9693,-814.64526,-92.171198,-61.562371,-112.85991
212,20200714170929,0.8,0.5,0.5,1.5708,2.0944,1.5708,-2.23401,-2.02854,-1.64831,0.5344810000000001,0.662072,-0.5236430000000001,23.5550003051758,1739.6986,-1572.8270000000002,-814.6814400000002,-92.22318,-61.687932,-122.82953
213,20200714170936,0.8,0.5,0.5,1.5708,2.26893,1.5708,-2.23406,-2.02868,-1.64823,0.535176,0.662864,-0.697589,23.5550003051758,1739.6673,-1572.7708,-814.66058,-92.163306,-61.881941999999995,-132.73188
214,20200714170951,0.8,0.5,0.5,1.5708,1.5708,1.39626,-2.20992,-2.06489,-1.59146,0.514436,0.464765,-0.00160295,23.5550003051758,1737.9619,-1575.5546,-814.7164,-91.85600000000001,-51.296715999999996,-92.324406
215,20200714170955,0.8,0.5,0.5,1.5708,1.5708,1.43117,-2.21403,-2.05771,-1.60301,0.51945,0.50162,-0.000777547,23.5550003051758,1738.2126,-1575.0168,-814.7329,-91.87477100000001,-53.219259,-92.30600299999999
216,20200714171000,0.8,0.5,0.5,1.5708,1.5708,1.4660799999999998,-2.21853,-2.04907,-1.61618,0.521736,0.542373,0.00094563,23.5550003051758,1738.6718,-1574.5909,-814.77525,-92.04946000000001,-55.302268999999995,-92.500815
217,20200714171004,0.8,0.5,0.5,1.5708,1.5708,1.50098,-2.2231400000000003,-2.04236,-1.62694,0.52632,0.580819,-0.000262562,23.5550003051758,1738.904,-1574.2026,-814.8092,-92.079648,-57.244124,-92.609815
218,20200714171008,0.8,0.5,0.5,1.5708,1.5708,1.53589,-2.22832,-2.03551,-1.63772,0.530903,0.6208229999999999,-0.000909154,23.5550003051758,1739.2335,-1573.6268,-814.81537,-92.12063,-59.240321,-92.693631
219,20200714171017,0.8,0.5,0.5,1.5708,1.5708,1.6057,-2.23982,-2.02264,-1.65798,0.54037,0.7033550000000001,-0.00195009,23.5550003051758,1739.9732000000001,-1572.3742,-814.6623099999998,-92.131693,-63.240276,-92.744479
220,20200714171022,0.8,0.5,0.5,1.5708,1.5708,1.64061,-2.24603,-2.01615,-1.66727,0.5408,0.7439979999999999,0.00079021,23.5550003051758,1740.1725000000001,-1571.7279999999996,-814.58888,-92.425289,-65.17891700000001,-92.98863399999999
221,20200714171026,0.8,0.5,0.5,1.5708,1.5708,1.67552,-2.25236,-2.01064,-1.67606,0.544247,0.785431,0.000646399,23.5550003051758,1740.4220000000003,-1571.3324,-814.6377200000002,-92.525456,-67.21497900000001,-93.120293
222,20200714171031,0.8,0.5,0.5,1.5708,1.5708,1.71042,-2.25891,-2.00541,-1.68383,0.546473,0.8257690000000001,-0.000501935,23.5550003051758,1740.5879,-1570.9249,-814.58481,-92.70215200000001,-69.170833,-93.406605
223,20200714171054,0.8,0.5,0.4,1.0472,1.5708,1.5708,-2.35083,-2.07407,-1.79139,0.72282,1.30301,-0.0013879,23.5550003051758,1742.3189,-1563.8097,-914.5847299999999,-153.34228000000002,-90.800081,-154.40467999999998
224,20200714171103,0.8,0.5,0.4,1.22173,1.5708,1.5708,-2.30565,-2.08161,-1.77928,0.7204149999999999,1.08236,-0.0021537,23.5550003051758,1742.1714,-1566.6629999999998,-914.52644,-93.838653,-81.17331099999998,-94.76636900000001
225,20200714171113,0.8,0.5,0.4,1.39626,1.5708,1.5708,-2.26671,-2.09742,-1.75167,0.706581,0.8707809999999999,-0.000837151,23.5550003051758,1741.5194000000001,-1569.3282,-914.48908,-92.725912,-71.2714,-93.489261
226,20200714171122,0.8,0.5,0.4,1.5708,1.5708,1.5708,-2.23398,-2.12348,-1.7075599999999995,0.689816,0.66206,-0.000944916,23.5550003051758,1740.3345,-1572.0602,-914.31105,-92.11792600000001,-61.18815899999999,-92.689459
227,20200714171131,0.8,0.5,0.4,1.7453299999999998,1.5708,1.5708,-2.21002,-2.15577,-1.6506599999999998,0.663357,0.464092,0.000778226,23.5550003051758,1738.7621000000001,-1574.4093,-913.90462,-92.049759,-51.215436,-92.433102
228,20200714171146,0.8,0.5,0.4,1.5708,0.8726649999999999,1.5708,-2.23403,-2.12281,-1.70787,0.687602,0.662792,0.697199,23.5550003051758,1740.2001,-1572.2763,-914.05788,-92.166262,-60.607682999999994,-52.85842800000001
229,20200714171153,0.8,0.5,0.4,1.5708,1.0472,1.5708,-2.23401,-2.12279,-1.7078099999999998,0.687757,0.661928,0.524339,23.5550003051758,1740.2863,-1572.1435,-914.03197,-92.17587400000001,-60.717498,-62.73766600000001
230,20200714171200,0.8,0.5,0.4,1.5708,1.22173,1.5708,-2.234,-2.1226700000000003,-1.70792,0.686956,0.6625880000000001,0.35047,23.5550003051758,1740.2088,-1572.2296,-914.13877,-92.262748,-60.91504500000001,-72.866695
231,20200714171206,0.8,0.5,0.4,1.5708,1.39626,1.5708,-2.23388,-2.12292,-1.7078099999999998,0.687841,0.661688,0.1749869999999999,23.5550003051758,1740.2806,-1572.2194,-914.24615,-92.239838,-61.048548,-82.891424
232,20200714171220,0.8,0.5,0.4,1.5708,1.7453299999999998,1.5708,-2.2339,-2.12378,-1.70714,0.691048,0.661664,-0.175848,23.5550003051758,1740.3546000000001,-1572.0583,-914.23986,-92.03686800000001,-61.344434,-102.63198
233,20200714171227,0.8,0.5,0.4,1.5708,1.91986,1.5708,-2.23406,-2.1228700000000003,-1.7079,0.688224,0.662756,-0.348272,23.5550003051758,1740.4038,-1571.9569,-914.17575,-92.2334,-61.547537,-112.85051
234,20200714171233,0.8,0.5,0.4,1.5708,2.0944,1.5708,-2.23376,-2.12324,-1.70754,0.689062,0.6611600000000001,-0.5242060000000001,23.5550003051758,1740.4708,-1572.0075,-914.19192,-92.173046,-61.641701,-122.80557
235,20200714171240,0.8,0.5,0.4,1.5708,2.26893,1.5708,-2.23409,-2.12269,-1.70809,0.687937,0.66278,-0.696906,23.5550003051758,1740.5184000000002,-1571.8206,-914.09267,-92.24226700000001,-61.864773,-132.81816999999998
236,20200714171255,0.8,0.5,0.4,1.5708,1.5708,1.39626,-2.20995,-2.15607,-1.65041,0.665283,0.463901,-0.00248844,23.5550003051758,1738.864,-1574.5155,-913.87922,-91.80450300000001,-51.24132,-92.273988
237,20200714171300,0.8,0.5,0.4,1.5708,1.5708,1.43117,-2.21404,-2.14865,-1.66343,0.669041,0.503156,0.000730289,23.5550003051758,1739.1752000000001,-1574.047,-914.0878,-91.93534700000001,-53.27607,-92.34971499999999
238,20200714171304,0.8,0.5,0.4,1.5708,1.5708,1.4660799999999998,-2.21861,-2.14231,-1.67462,0.675862,0.542505,-0.0022257,23.5550003051758,1739.3558,-1573.5897,-914.03738,-91.90142200000001,-55.302642000000006,-92.444665
239,20200714171309,0.8,0.5,0.4,1.5708,1.5708,1.50098,-2.22326,-2.13534,-1.6864400000000002,0.678723,0.581155,0.000922036,23.5550003051758,1739.7437,-1573.1557,-914.1338499999999,-92.077178,-57.241721999999996,-92.548966
240,20200714171313,0.8,0.5,0.4,1.5708,1.5708,1.53589,-2.22867,-2.12947,-1.6970299999999998,0.685663,0.622527,-0.00224954,23.5550003051758,1739.9653,-1572.5902,-914.15235,-92.01876200000001,-59.300948999999996,-92.624772
241,20200714171322,0.8,0.5,0.4,1.5708,1.5708,1.6057,-2.23972,-2.11805,-1.7171900000000002,0.6947939999999999,0.7023229999999999,-0.00211746,23.5550003051758,1740.6734000000001,-1571.4543,-914.3976,-92.14332800000001,-63.18436,-92.788917
242,20200714171327,0.8,0.5,0.4,1.5708,1.5708,1.64061,-2.24599,-2.11213,-1.72701,0.697534,0.744358,-0.000860993,23.5550003051758,1740.9795000000001,-1570.8291,-914.4263,-92.348042,-65.208132,-92.98910599999999
243,20200714171331,0.8,0.5,0.4,1.5708,1.5708,1.67552,-2.2522900000000003,-2.10663,-1.7356900000000002,0.699425,0.785347,2.39685e-05,23.5550003051758,1741.1181000000001,-1570.4825,-914.41806,-92.605857,-67.20069600000001,-93.271336
244,20200714171335,0.8,0.5,0.4,1.5708,1.5708,1.71042,-2.25889,-2.10218,-1.74355,0.70335,0.8256370000000001,0.00056251,23.5550003051758,1741.3147000000001,-1569.9845,-914.52041,-92.70996600000001,-69.157946,-93.362089
245,20200714171359,0.8,0.4,0.9,1.0472,1.5708,1.5708,-2.45648,-1.74207,-1.30487,-0.0951608,1.40801,-0.00124437,23.5550003051758,1789.6638,-1482.1566,-413.21643,-152.73278000000005,-90.89993700000001,-153.71017
246,20200714171409,0.8,0.4,0.9,1.22173,1.5708,1.5708,-2.40641,-1.7441799999999998,-1.3023,-0.0961188,1.18393,-0.000429932,23.5550003051758,1789.425,-1484.7457000000002,-413.37474,-94.23589299999999,-81.227807,-95.037501
247,20200714171418,0.8,0.4,0.9,1.39626,1.5708,1.5708,-2.36104,-1.7598,-1.28362,-0.0989688,0.96378,-0.000478093,23.5550003051758,1788.8059,-1487.3822,-413.27218999999997,-92.623995,-71.245675,-93.28703800000001
248,20200714171428,0.8,0.4,0.9,1.5708,1.5708,1.5708,-2.32274,-1.7884400000000005,-1.24897,-0.104956,0.750644,-0.0007417839999999,23.5550003051758,1787.5312000000001,-1489.8333,-413.54148,-92.212221,-61.180534,-92.75727400000001
249,20200714171437,0.8,0.4,0.9,1.7453299999999998,1.5708,1.5708,-2.29307,-1.82786,-1.1993,-0.116355,0.546729,0.0003591519999999,23.5550003051758,1785.6954,-1492.4244,-413.71995,-92.13444899999999,-51.280862,-92.533291
250,20200714171452,0.8,0.4,0.9,1.5708,0.8726649999999999,1.5708,-2.32281,-1.78853,-1.2492,-0.1031,0.751184,0.695751,23.5550003051758,1787.4454,-1489.9554,-413.50066,-92.01755100000001,-60.583841,-52.66644500000001
251,20200714171459,0.8,0.4,0.9,1.5708,1.0472,1.5708,-2.32285,-1.7882900000000002,-1.24926,-0.103806,0.750944,0.52222,23.5550003051758,1787.6186,-1489.8159,-413.41871,-92.081147,-60.724191,-62.658087
252,20200714171506,0.8,0.4,0.9,1.5708,1.22173,1.5708,-2.32287,-1.78821,-1.24937,-0.103172,0.7520720000000001,0.347981,23.5550003051758,1787.6166,-1489.8986,-413.42584,-92.06257500000001,-60.95111900000001,-72.66301700000001
253,20200714171513,0.8,0.4,0.9,1.5708,1.39626,1.5708,-2.32269,-1.7885400000000002,-1.24928,-0.102897,0.7508,0.1725809999999999,23.5550003051758,1787.5509,-1489.8849,-413.63367,-92.08171,-61.050332,-82.74237399999998
254,20200714171526,0.8,0.4,0.9,1.5708,1.7453299999999998,1.5708,-2.32273,-1.7888099999999998,-1.24895,-0.102226,0.749768,-0.1764349999999999,23.5550003051758,1787.5854,-1489.729,-413.55208999999996,-92.048404,-61.332781000000004,-102.63561
255,20200714171533,0.8,0.4,0.9,1.5708,1.91986,1.5708,-2.32272,-1.78823,-1.24913,-0.104944,0.7509319999999999,-0.348691,23.5550003051758,1787.6442,-1489.7594000000001,-413.55494,-92.23345400000001,-61.53126200000001,-112.81962
256,20200714171540,0.8,0.4,0.9,1.5708,2.0944,1.5708,-2.32273,-1.7886400000000002,-1.24868,-0.10401,0.750224,-0.524637,23.5550003051758,1787.6043,-1489.6232,-413.46691,-92.148672,-61.64480200000001,-122.73554
257,20200714171546,0.8,0.4,0.9,1.5708,2.26893,1.5708,-2.32257,-1.7887099999999998,-1.24912,-0.102885,0.7500319999999999,-0.6993729999999999,23.5550003051758,1787.6554,-1489.68,-413.65126,-92.097609,-61.80437399999999,-132.69933
258,20200714171602,0.8,0.4,0.9,1.5708,1.5708,1.39626,-2.29299,-1.82815,-1.19912,-0.1159,0.5460079999999999,-0.00044233,23.5550003051758,1785.6255,-1492.4476000000002,-413.81791,-91.942608,-51.255241,-92.356546
259,20200714171606,0.8,0.4,0.9,1.5708,1.5708,1.43117,-2.29815,-1.81938,-1.2104,-0.113134,0.585907,0.000299606,23.5550003051758,1786.0801000000001,-1491.9473,-413.80902,-91.983479,-53.264165999999996,-92.38427899999999
260,20200714171611,0.8,0.4,0.9,1.5708,1.5708,1.4660799999999998,-2.3040700000000003,-1.81119,-1.22109,-0.108345,0.6284420000000001,-0.00189048,23.5550003051758,1786.3082,-1491.4225000000001,-413.74946,-91.91203900000001,-55.34661899999999,-92.38875900000001
261,20200714171615,0.8,0.4,0.9,1.5708,1.5708,1.50098,-2.30965,-1.80344,-1.2306700000000002,-0.107027,0.667039,-0.00147134,23.5550003051758,1786.8148,-1490.8731,-413.66445999999996,-92.000242,-57.219468000000006,-92.49072699999999
262,20200714171620,0.8,0.4,0.9,1.5708,1.5708,1.53589,-2.31596,-1.79555,-1.24025,-0.106572,0.708765,-0.000119511,23.5550003051758,1787.2599,-1490.3225,-413.60211,-92.135317,-59.201806999999995,-92.614083
263,20200714171629,0.8,0.4,0.9,1.5708,1.5708,1.6057,-2.3296900000000003,-1.7819999999999998,-1.2572,-0.101567,0.792519,-0.00173504,23.5550003051758,1787.8236,-1489.3459,-413.54521,-92.168906,-63.242609,-92.751393
264,20200714171633,0.8,0.4,0.9,1.5708,1.5708,1.64061,-2.33694,-1.7757,-1.2644799999999998,-0.102465,0.8340920000000001,-0.000119511,23.5550003051758,1788.0173,-1488.8789000000002,-413.47655,-92.42926800000001,-65.218628,-92.99458899999999
265,20200714171637,0.8,0.4,0.9,1.5708,1.5708,1.67552,-2.34462,-1.7699599999999998,-1.27145,-0.10128,0.8770049999999999,-0.000981156,23.5550003051758,1788.2845,-1488.3984,-413.41688,-92.54925100000001,-67.244836,-93.19449200000001
266,20200714171642,0.8,0.4,0.9,1.5708,1.5708,1.71042,-2.35292,-1.7645400000000002,-1.2783799999999998,-0.0988372,0.921654,-0.00139982,23.5550003051758,1788.5996,-1487.9013,-413.44588999999996,-92.568346,-69.328128,-93.23851499999999
267,20200714171706,0.8,0.4,0.8,1.0472,1.5708,1.5708,-2.4565200000000003,-1.74087,-1.4815200000000002,0.0812123,1.4088200000000002,-0.00174696,23.5550003051758,1790.5358,-1481.2827000000002,-513.3390499999999,-152.6844,-90.96152900000003,-153.68723999999995
268,20200714171715,0.8,0.4,0.8,1.22173,1.5708,1.5708,-2.40647,-1.74299,-1.47872,0.0794641,1.18363,-0.00142366,23.5550003051758,1790.1728,-1483.6614000000002,-513.4674699999999,-94.066921,-81.199144,-94.917879
269,20200714171725,0.8,0.4,0.8,1.39626,1.5708,1.5708,-2.361,-1.75815,-1.46081,0.0765313,0.963601,-0.000394646,23.5550003051758,1789.4592,-1486.4732000000001,-513.7108,-92.640243,-71.217512,-93.30130000000001
270,20200714171734,0.8,0.4,0.8,1.5708,1.5708,1.5708,-2.32296,-1.78547,-1.42784,0.072305,0.7521800000000001,-0.00148327,23.5550003051758,1788.365,-1488.8601,-513.76247,-92.111877,-61.240069999999996,-92.659941
271,20200714171743,0.8,0.4,0.8,1.7453299999999998,1.5708,1.5708,-2.29324,-1.82414,-1.37971,0.063434,0.5469689999999999,-0.00275213,23.5550003051758,1786.3602,-1491.3804,-513.9859299999999,-91.98950099999999,-51.271544,-92.456742
272,20200714171759,0.8,0.4,0.8,1.5708,0.8726649999999999,1.5708,-2.32268,-1.78552,-1.42743,0.0704856,0.7501399999999999,0.697534,23.5550003051758,1788.2879,-1488.9279000000001,-513.6718299999998,-92.14027,-60.514866,-52.74170200000001
273,20200714171806,0.8,0.4,0.8,1.5708,1.0472,1.5708,-2.32293,-1.78565,-1.42739,0.0707848,0.7510640000000001,0.522795,23.5550003051758,1788.1736,-1488.8658,-513.71818,-92.14308700000001,-60.71328999999999,-62.713679
274,20200714171812,0.8,0.4,0.8,1.5708,1.22173,1.5708,-2.32272,-1.78583,-1.4272,0.0715507,0.750212,0.348555,23.5550003051758,1788.2391,-1488.8707000000002,-513.6882099999999,-92.11219600000001,-60.828625,-72.704389
275,20200714171819,0.8,0.4,0.8,1.5708,1.39626,1.5708,-2.32301,-1.78517,-1.42791,0.0707729,0.7522399999999999,0.17385,23.5550003051758,1788.3815,-1488.8176,-513.7531400000001,-92.202438,-61.098977999999995,-82.84095300000003
276,20200714171833,0.8,0.4,0.8,1.5708,1.7453299999999998,1.5708,-2.32267,-1.7855,-1.42759,0.0710721,0.750596,-0.174736,23.5550003051758,1788.4024,-1488.8251,-513.7840799999999,-92.203146,-61.342858,-102.75715000000001
277,20200714171839,0.8,0.4,0.8,1.5708,1.91986,1.5708,-2.32265,-1.7856900000000002,-1.42732,0.0710481,0.750308,-0.348535,23.5550003051758,1788.3577,-1488.7543,-513.7568699999999,-92.198559,-61.479694,-112.76516000000001
278,20200714171846,0.8,0.4,0.8,1.5708,2.0944,1.5708,-2.32278,-1.78593,-1.42725,0.0717184999999999,0.75068,-0.52393,23.5550003051758,1788.3114,-1488.7043,-513.76947,-92.15275000000001,-61.65489300000001,-122.70411
279,20200714171853,0.8,0.4,0.8,1.5708,2.26893,1.5708,-2.32274,-1.7858900000000002,-1.42739,0.072221,0.749816,-0.697996,23.5550003051758,1788.4103,-1488.6026000000002,-513.7678299999998,-92.120305,-61.800140999999996,-132.65278
280,20200714171908,0.8,0.4,0.8,1.5708,1.5708,1.39626,-2.29316,-1.82341,-1.38,0.0606563,0.5469689999999999,-0.000885312,23.5550003051758,1786.4828,-1491.4262,-513.8551,-91.92249000000001,-51.289152,-92.35281499999999
281,20200714171913,0.8,0.4,0.8,1.5708,1.5708,1.43117,-2.29819,-1.81535,-1.39022,0.0622966,0.586266,0.000251669,23.5550003051758,1786.7198,-1491.0547000000001,-513.9164999999999,-92.007795,-53.282702,-92.43058599999999
282,20200714171917,0.8,0.4,0.8,1.5708,1.5708,1.4660799999999998,-2.30387,-1.80716,-1.40055,0.0644516,0.6269060000000001,0.000766241,23.5550003051758,1787.1724000000002,-1490.4451000000001,-513.9561199999999,-92.06703300000001,-55.26019399999999,-92.48229500000001
283,20200714171922,0.8,0.4,0.8,1.5708,1.5708,1.50098,-2.3098400000000003,-1.79938,-1.41001,0.0663072,0.6679149999999999,-7.13507e-05,23.5550003051758,1787.6074,-1489.8586,-513.82418,-92.12859900000001,-57.240196999999995,-92.61889599999999
284,20200714171926,0.8,0.4,0.8,1.5708,1.5708,1.53589,-2.31615,-1.79227,-1.41931,0.0691804999999999,0.709713,-0.000944916,23.5550003051758,1788.0470000000003,-1489.3378,-513.87538,-92.137482,-59.23841999999999,-92.669349
285,20200714171935,0.8,0.4,0.8,1.5708,1.5708,1.6057,-2.3297,-1.77927,-1.43508,0.0716466,0.792376,-0.000179116,23.5550003051758,1788.531,-1488.3621,-513.70538,-92.32486700000001,-63.227775,-92.876601
286,20200714171939,0.8,0.4,0.8,1.5708,1.5708,1.64061,-2.33705,-1.7734,-1.4423700000000002,0.073203,0.834368,-0.000765626,23.5550003051758,1788.7746,-1487.8711,-513.7844099999998,-92.42516400000001,-65.217136,-93.03725
287,20200714171944,0.8,0.4,0.8,1.5708,1.5708,1.67552,-2.34457,-1.768,-1.44886,0.0751902,0.876706,-0.00135166,23.5550003051758,1789.0243,-1487.4574,-513.67274,-92.45537900000001,-67.222346,-93.10144600000001
288,20200714171948,0.8,0.4,0.8,1.5708,1.5708,1.71042,-2.35245,-1.76276,-1.45508,0.0751902,0.91928,-0.000107114,23.5550003051758,1789.2729,-1486.986,-513.68872,-92.686689,-69.21505300000001,-93.308442
289,20200714172012,0.8,0.4,0.7,1.0472,1.5708,1.5708,-2.4565200000000003,-1.76794,-1.62622,0.251951,1.40818,-0.00171072,23.5550003051758,1791.0523,-1480.2719000000002,-612.94397,-151.01901,-90.894793,-152.03456999999995
290,20200714172021,0.8,0.4,0.7,1.22173,1.5708,1.5708,-2.40637,-1.77017,-1.62383,0.252789,1.18365,-0.00148327,23.5550003051758,1790.8989999999997,-1482.8365000000001,-613.0017300000001,-93.723198,-81.19587,-94.564265
291,20200714172031,0.8,0.4,0.7,1.39626,1.5708,1.5708,-2.36104,-1.7848700000000002,-1.60575,0.24945,0.963852,-0.00137598,23.5550003051758,1790.1162,-1485.5552,-613.1792300000001,-92.45804,-71.21589,-93.146124
292,20200714172040,0.8,0.4,0.7,1.5708,1.5708,1.5708,-2.32283,-1.81092,-1.5729,0.241238,0.751304,0.000838147,23.5550003051758,1788.97,-1487.9595000000002,-613.4015400000001,-92.229571,-61.178067000000006,-92.69575900000001
293,20200714172049,0.8,0.4,0.7,1.7453299999999998,1.5708,1.5708,-2.29295,-1.84775,-1.52574,0.230944,0.546621,-0.000513856,23.5550003051758,1787.2231000000002,-1490.5768,-613.4455,-92.070996,-51.249773,-92.483208
294,20200714172105,0.8,0.4,0.7,1.5708,0.8726649999999999,1.5708,-2.3228,-1.81064,-1.57299,0.239934,0.7511,0.698444,23.5550003051758,1788.8963,-1488.0756000000001,-613.3162000000001,-92.22892,-60.547039,-52.821228999999995
295,20200714172112,0.8,0.4,0.7,1.5708,1.0472,1.5708,-2.32289,-1.81087,-1.57289,0.240915,0.751472,0.524004,23.5550003051758,1788.8634,-1488.0459,-613.33014,-92.190117,-60.729896999999994,-62.720335
296,20200714172119,0.8,0.4,0.7,1.5708,1.22173,1.5708,-2.32289,-1.81093,-1.57272,0.240209,0.751184,0.350266,23.5550003051758,1788.8218,-1487.9768000000001,-613.3548700000002,-92.255784,-60.870154,-72.80124
297,20200714172125,0.8,0.4,0.7,1.5708,1.39626,1.5708,-2.32284,-1.81137,-1.57252,0.241968,0.750368,0.175202,23.5550003051758,1788.8436000000002,-1487.875,-613.41947,-92.156671,-60.987352,-82.710475
298,20200714172139,0.8,0.4,0.7,1.5708,1.7453299999999998,1.5708,-2.32277,-1.81095,-1.5728799999999998,0.241526,0.7511359999999999,-0.174173,23.5550003051758,1789.0203000000001,-1487.8983,-613.3945900000002,-92.219136,-61.351281,-102.74909000000001
299,20200714172146,0.8,0.4,0.7,1.5708,1.91986,1.5708,-2.32324,-1.8115,-1.57277,0.244398,0.7518560000000001,-0.351384,23.5550003051758,1788.9948,-1487.6638,-613.4306700000001,-92.032976,-61.527998,-112.71207000000001
300,20200714172152,0.8,0.4,0.7,1.5708,2.0944,1.5708,-2.32275,-1.81142,-1.57274,0.242758,0.750908,-0.5240859999999999,23.5550003051758,1788.9884,-1487.8066000000001,-613.49265,-92.15011700000001,-61.65419,-122.70805
301,20200714172159,0.8,0.4,0.7,1.5708,2.26893,1.5708,-2.32289,-1.81088,-1.57302,0.241202,0.751568,-0.6987979999999999,23.5550003051758,1789.0922,-1487.7365,-613.4253400000002,-92.236056,-61.841727,-132.86775
302,20200714172214,0.8,0.4,0.7,1.5708,1.5708,1.39626,-2.29312,-1.84798,-1.52568,0.231842,0.546416,-0.00137598,23.5550003051758,1787.2119,-1490.4787000000001,-613.4581400000001,-91.858631,-51.243477,-92.266348
303,20200714172219,0.8,0.4,0.7,1.5708,1.5708,1.43117,-2.29826,-1.8399,-1.53599,0.23311,0.585979,-0.000693623,23.5550003051758,1787.5286,-1490.0129999999997,-613.57001,-91.961703,-53.247462,-92.415416
304,20200714172223,0.8,0.4,0.7,1.5708,1.5708,1.4660799999999998,-2.30386,-1.83185,-1.54637,0.234858,0.62717,-8.32717e-05,23.5550003051758,1787.9124,-1489.5192000000002,-613.6133600000001,-92.06174100000001,-55.256634999999996,-92.523286
305,20200714172228,0.8,0.4,0.7,1.5708,1.5708,1.50098,-2.30986,-1.82483,-1.55566,0.238785,0.667987,-0.000897233,23.5550003051758,1788.3075000000001,-1488.9373,-613.6241599999998,-92.02512300000001,-57.241394,-92.513684
306,20200714172232,0.8,0.4,0.7,1.5708,1.5708,1.53589,-2.31608,-1.81773,-1.56445,0.239359,0.7093649999999999,0.00070632,23.5550003051758,1788.5753,-1488.4683,-613.55884,-92.162817,-59.207851999999995,-92.61608299999999
307,20200714172241,0.8,0.4,0.7,1.5708,1.5708,1.6057,-2.32948,-1.80504,-1.58049,0.242734,0.791608,-0.000525777,23.5550003051758,1789.1944,-1487.5142,-613.5072200000001,-92.33446400000001,-63.174634999999995,-92.917469
308,20200714172246,0.8,0.4,0.7,1.5708,1.5708,1.64061,-2.33682,-1.7992099999999998,-1.58769,0.244099,0.834116,-4.75089e-05,23.5550003051758,1789.469,-1487.0673000000002,-613.40128,-92.43742400000001,-65.195366,-93.00854199999999
309,20200714172250,0.8,0.4,0.7,1.5708,1.5708,1.67552,-2.34463,-1.7940599999999998,-1.59418,0.245224,0.877077,-0.000406567,23.5550003051758,1789.6033,-1486.5342,-613.3412500000001,-92.55542100000001,-67.21957400000001,-93.18366900000001
310,20200714172254,0.8,0.4,0.7,1.5708,1.5708,1.71042,-2.35245,-1.7892099999999995,-1.60014,0.246708,0.919339,0.000419073,23.5550003051758,1789.8723,-1486.0636000000002,-613.2591,-92.66329800000001,-69.20631700000001,-93.255661
311,20200714172317,0.8,0.4,0.6,1.0472,1.5708,1.5708,-2.45644,-1.82255,-1.74343,0.423515,1.40776,-0.00119621,23.5550003051758,1791.6388,-1479.3066000000001,-713.3169200000002,-150.10211,-90.84528900000001,-151.10268
312,20200714172326,0.8,0.4,0.6,1.22173,1.5708,1.5708,-2.4062900000000003,-1.82477,-1.74088,0.42458,1.18344,-0.00183088,23.5550003051758,1791.5111,-1481.9228,-713.30948,-93.80371299999999,-81.1641,-94.67904700000001
313,20200714172336,0.8,0.4,0.6,1.39626,1.5708,1.5708,-2.36106,-1.83846,-1.72235,0.418166,0.963469,-0.000298802,23.5550003051758,1790.6975,-1484.6156,-713.09853,-92.660976,-71.18566200000001,-93.337176
314,20200714172345,0.8,0.4,0.6,1.5708,1.5708,1.5708,-2.32315,-1.86335,-1.68955,0.410039,0.752372,-0.000418011,23.5550003051758,1789.6642,-1486.9315000000001,-713.1284400000001,-92.232191,-61.220234999999995,-92.78450000000001
315,20200714172354,0.8,0.4,0.6,1.7453299999999998,1.5708,1.5708,-2.29314,-1.89845,-1.64215,0.398753,0.5468,-0.00111229,23.5550003051758,1787.8897,-1489.5767,-713.31239,-92.03421499999999,-51.238622,-92.461189
316,20200714172410,0.8,0.4,0.6,1.5708,0.8726649999999999,1.5708,-2.32277,-1.86358,-1.6891200000000002,0.409512,0.750476,0.697438,23.5550003051758,1789.5789,-1487.0919000000001,-712.9532,-92.15428800000001,-60.50077000000001,-52.795474999999996
317,20200714172416,0.8,0.4,0.6,1.5708,1.0472,1.5708,-2.32277,-1.86367,-1.68923,0.41029,0.750848,0.523046,23.5550003051758,1789.5983,-1487.1167,-713.06147,-92.13795900000001,-60.690799,-62.713132
318,20200714172423,0.8,0.4,0.6,1.5708,1.22173,1.5708,-2.32301,-1.86342,-1.68947,0.409859,0.752252,0.3489739999999999,23.5550003051758,1789.5964000000001,-1487.0675,-713.05863,-92.200604,-60.913891,-72.824746
319,20200714172430,0.8,0.4,0.6,1.5708,1.39626,1.5708,-2.32268,-1.86354,-1.68938,0.409919,0.750189,0.175453,23.5550003051758,1789.7279999999998,-1487.0166000000002,-713.16115,-92.220067,-60.97378900000001,-82.79442300000001
320,20200714172443,0.8,0.4,0.6,1.5708,1.7453299999999998,1.5708,-2.32302,-1.86354,-1.6895099999999998,0.4106260000000001,0.7520720000000001,-0.174832,23.5550003051758,1789.7264,-1486.8515,-713.18165,-92.207734,-61.378539,-102.78469000000001
321,20200714172450,0.8,0.4,0.6,1.5708,1.91986,1.5708,-2.3228,-1.8633,-1.68955,0.410099,0.752024,-0.347745,23.5550003051758,1789.8076,-1486.8643000000002,-713.06035,-92.23043700000001,-61.53386,-112.77288
322,20200714172457,0.8,0.4,0.6,1.5708,2.0944,1.5708,-2.32296,-1.86352,-1.6893599999999998,0.410542,0.751772,-0.522171,23.5550003051758,1789.7643,-1486.7884000000001,-713.0801200000001,-92.218231,-61.679471,-122.7149
323,20200714172504,0.8,0.4,0.6,1.5708,2.26893,1.5708,-2.32266,-1.86391,-1.6892,0.411798,0.7508239999999999,-0.6982109999999999,23.5550003051758,1789.8317,-1486.8626000000002,-713.10514,-92.10845300000001,-61.797836999999994,-132.67006999999998
324,20200714172519,0.8,0.4,0.6,1.5708,1.5708,1.39626,-2.29321,-1.89894,-1.64183,0.400225,0.5471239999999999,-0.00290805,23.5550003051758,1787.7724,-1489.5545000000002,-713.4013,-91.802474,-51.262617,-92.263482
325,20200714172523,0.8,0.4,0.6,1.5708,1.5708,1.43117,-2.29836,-1.89157,-1.6523,0.403756,0.587118,-0.00173504,23.5550003051758,1788.1260000000004,-1489.1560000000002,-713.44516,-91.818037,-53.29137,-92.237541
326,20200714172528,0.8,0.4,0.6,1.5708,1.5708,1.4660799999999998,-2.30377,-1.88353,-1.66237,0.40287,0.62639,0.000910052,23.5550003051758,1788.5421000000001,-1488.6013,-713.28043,-92.031124,-55.21005500000001,-92.43544700000001
327,20200714172532,0.8,0.4,0.6,1.5708,1.5708,1.50098,-2.30987,-1.87664,-1.67186,0.406173,0.668143,-0.000909154,23.5550003051758,1788.9379999999996,-1488.0571,-713.2522700000001,-92.04902,-57.235129,-92.560318
328,20200714172537,0.8,0.4,0.6,1.5708,1.5708,1.53589,-2.31606,-1.86993,-1.68092,0.40792,0.709221,-0.000179116,23.5550003051758,1789.3703,-1487.5477,-713.1956200000001,-92.144648,-59.18691,-92.653888
329,20200714172546,0.8,0.4,0.6,1.5708,1.5708,1.6057,-2.3296,-1.85811,-1.69681,0.413342,0.791956,-0.00150711,23.5550003051758,1789.9262,-1486.5322,-713.14373,-92.21272300000001,-63.175478999999996,-92.81711299999999
330,20200714172550,0.8,0.4,0.6,1.5708,1.5708,1.64061,-2.33707,-1.85274,-1.70429,0.4164060000000001,0.8353879999999999,-0.000669781,23.5550003051758,1790.2036,-1486.0826000000002,-713.1715700000002,-92.203967,-65.241237,-92.75133
331,20200714172555,0.8,0.4,0.6,1.5708,1.5708,1.67552,-2.3447,-1.84756,-1.71083,0.415784,0.8768370000000001,-0.00112468,23.5550003051758,1790.29,-1485.5279,-713.2696,-92.529633,-67.192662,-93.20058200000001
332,20200714172559,0.8,0.4,0.6,1.5708,1.5708,1.71042,-2.35299,-1.8425,-1.71718,0.416957,0.921642,0.000670368,23.5550003051758,1790.5652,-1485.0556000000001,-713.1240200000002,-92.67150000000001,-69.27878100000001,-93.260545
333,20200714172622,0.8,0.4,0.5,1.0472,1.5708,1.5708,-2.4566,-1.90484,-1.83297,0.5968680000000001,1.40876,-0.000717942,23.5550003051758,1792.1559,-1478.5066000000002,-813.0528099999998,-149.90534,-90.92670400000003,-150.87394999999998
334,20200714172632,0.8,0.4,0.5,1.22173,1.5708,1.5708,-2.40666,-1.9059,-1.8306,0.5939479999999999,1.1845,-0.000238721,23.5550003051758,1792.0174,-1480.9681,-812.98371,-94.303817,-81.20138199999998,-95.124515
335,20200714172641,0.8,0.4,0.5,1.39626,1.5708,1.5708,-2.3609400000000003,-1.91894,-1.81195,0.588407,0.963229,0.000383121,23.5550003051758,1791.3694,-1483.7128,-813.12915,-92.694463,-71.16510600000001,-93.349649
336,20200714172651,0.8,0.4,0.5,1.5708,1.5708,1.5708,-2.32315,-1.94285,-1.77811,0.5807720000000001,0.751976,-0.00120813,23.5550003051758,1790.2569,-1485.9706,-813.32228,-92.05654600000001,-61.190692000000006,-92.596524
337,20200714172700,0.8,0.4,0.5,1.7453299999999998,1.5708,1.5708,-2.2930900000000003,-1.97508,-1.72997,0.564077,0.546404,-0.00156719,23.5550003051758,1788.3984,-1488.6924000000001,-813.42905,-92.002602,-51.200189,-92.444433
338,20200714172715,0.8,0.4,0.5,1.5708,0.8726649999999999,1.5708,-2.32278,-1.94221,-1.77828,0.577038,0.750836,0.697331,23.5550003051758,1790.1557,-1486.2427,-813.21413,-92.208833,-60.512099,-52.878076
339,20200714172722,0.8,0.4,0.5,1.5708,1.0472,1.5708,-2.32283,-1.94176,-1.77852,0.576308,0.750992,0.5258109999999999,23.5550003051758,1790.2581,-1486.1823000000002,-813.1408799999998,-92.282871,-60.676838,-62.766321999999995
340,20200714172729,0.8,0.4,0.5,1.5708,1.22173,1.5708,-2.32283,-1.94192,-1.7784400000000002,0.576667,0.7506079999999999,0.350637,23.5550003051758,1790.2954,-1486.0853000000002,-813.2191799999998,-92.286062,-60.816619,-72.851133
341,20200714172736,0.8,0.4,0.5,1.5708,1.39626,1.5708,-2.32254,-1.94298,-1.7777900000000002,0.57991,0.74984,0.1744119999999999,23.5550003051758,1790.2197,-1486.2313000000001,-813.32055,-92.087266,-60.95167700000001,-82.683947
342,20200714172749,0.8,0.4,0.5,1.5708,1.7453299999999998,1.5708,-2.32241,-1.94299,-1.7780200000000002,0.580221,0.750368,-0.17628,23.5550003051758,1790.3045,-1486.1069,-813.45651,-92.116695,-61.289643000000005,-102.75582
343,20200714172756,0.8,0.4,0.5,1.5708,1.91986,1.5708,-2.32265,-1.94233,-1.7782,0.578019,0.750944,-0.348583,23.5550003051758,1790.3270000000005,-1486.0979,-813.2646599999998,-92.24738500000001,-61.479346,-112.85555000000001
344,20200714172803,0.8,0.4,0.5,1.5708,2.0944,1.5708,-2.32265,-1.94225,-1.77826,0.578079,0.750896,-0.522626,23.5550003051758,1790.3918,-1486.034,-813.27497,-92.24504400000001,-61.633312000000004,-122.79491
345,20200714172810,0.8,0.4,0.5,1.5708,2.26893,1.5708,-2.32283,-1.94232,-1.77835,0.578546,0.75146,-0.6973020000000001,23.5550003051758,1790.4015,-1485.9273,-813.2971200000002,-92.214094,-61.81507599999999,-132.77916
346,20200714172825,0.8,0.4,0.5,1.5708,1.5708,1.39626,-2.29315,-1.97482,-1.73066,0.564855,0.548072,-0.00265628,23.5550003051758,1788.5123,-1488.7621000000001,-813.4849,-91.80819500000001,-51.313117999999996,-92.279765
347,20200714172829,0.8,0.4,0.5,1.5708,1.5708,1.43117,-2.29822,-1.96745,-1.74095,0.56519,0.586759,0.000407089,23.5550003051758,1788.7844,-1488.3221,-813.4078400000002,-91.99231900000001,-53.276285,-92.427466
348,20200714172834,0.8,0.4,0.5,1.5708,1.5708,1.4660799999999998,-2.30401,-1.96127,-1.75087,0.571605,0.6283340000000001,-0.00245268,23.5550003051758,1789.1483,-1487.6885000000002,-813.45699,-91.89964,-55.29591899999999,-92.43668600000001
349,20200714172838,0.8,0.4,0.5,1.5708,1.5708,1.50098,-2.30971,-1.95439,-1.7604799999999998,0.571988,0.667171,0.000215716,23.5550003051758,1789.585,-1487.1518,-813.4619,-92.103457,-57.174174,-92.590514
350,20200714172843,0.8,0.4,0.5,1.5708,1.5708,1.53589,-2.31632,-1.94813,-1.76995,0.576224,0.710541,-0.0009926,23.5550003051758,1790.0141,-1486.5533,-813.39527,-92.111265,-59.228923,-92.66547899999999
351,20200714172851,0.8,0.4,0.5,1.5708,1.5708,1.6057,-2.32956,-1.93742,-1.7857900000000002,0.581226,0.79186,-0.000573937,23.5550003051758,1790.4463,-1485.6859000000002,-813.41831,-92.285781,-63.154976999999995,-92.879054
352,20200714172856,0.8,0.4,0.5,1.5708,1.5708,1.64061,-2.33706,-1.93231,-1.79332,0.584494,0.8347760000000001,-0.00189048,23.5550003051758,1790.7753,-1485.1559000000002,-813.33916,-92.30707600000001,-65.199357,-92.974745
353,20200714172900,0.8,0.4,0.5,1.5708,1.5708,1.67552,-2.34452,-1.92797,-1.79975,0.587246,0.8766700000000001,-0.00190241,23.5550003051758,1790.8903,-1484.7673,-813.3048200000002,-92.3451,-67.18502,-93.024252
354,20200714172905,0.8,0.4,0.5,1.5708,1.5708,1.71042,-2.35269,-1.92308,-1.80627,0.5867319999999999,0.919819,0.000419073,23.5550003051758,1791.111,-1484.1579999999997,-813.26619,-92.72036,-69.193672,-93.344341
355,20200714172928,0.8,0.4,0.4,1.0472,1.5708,1.5708,-2.45688,-2.0118400000000003,-1.89497,0.765099,1.40999,-0.00044233,23.5550003051758,1792.6719,-1477.6229,-912.77284,-154.18682,-90.93186600000003,-155.15355
356,20200714172937,0.8,0.4,0.4,1.22173,1.5708,1.5708,-2.4064400000000004,-2.0133400000000004,-1.89223,0.763388,1.1836,-0.00148327,23.5550003051758,1792.4056,-1480.1153000000002,-912.88684,-94.057632,-81.14350600000003,-94.955681
357,20200714172947,0.8,0.4,0.4,1.39626,1.5708,1.5708,-2.36087,-2.0248,-1.87339,0.755633,0.963145,0.00031159,23.5550003051758,1791.7521000000002,-1482.9807,-913.06659,-92.654563,-71.16035300000001,-93.31746600000001
358,20200714172956,0.8,0.4,0.4,1.5708,1.5708,1.5708,-2.32267,-2.04581,-1.83887,0.7429,0.75056,-0.00104076,23.5550003051758,1790.7284,-1485.3352,-913.40206,-92.18966900000001,-61.118387,-92.78932400000001
359,20200714173006,0.8,0.4,0.4,1.7453299999999998,1.5708,1.5708,-2.29327,-2.0741,-1.79103,0.721923,0.547629,0.00125685,23.5550003051758,1789.0713,-1487.7617,-913.36474,-92.113863,-51.26398,-92.504374
360,20200714173021,0.8,0.4,0.4,1.5708,0.8726649999999999,1.5708,-2.32275,-2.04537,-1.83908,0.7411409999999999,0.7508,0.697343,23.5550003051758,1790.633,-1485.3993,-913.23342,-92.21797600000001,-60.495573,-52.913464999999995
361,20200714173028,0.8,0.4,0.4,1.5708,1.0472,1.5708,-2.32261,-2.04588,-1.83869,0.742458,0.749949,0.522579,23.5550003051758,1790.6258,-1485.4028,-913.26971,-92.146935,-60.618336,-62.781253
362,20200714173034,0.8,0.4,0.4,1.5708,1.22173,1.5708,-2.32286,-2.04532,-1.83923,0.741117,0.750572,0.35035,23.5550003051758,1790.7238,-1485.2412000000002,-913.3737199999999,-92.283392,-60.812743,-72.879512
363,20200714173041,0.8,0.4,0.4,1.5708,1.39626,1.5708,-2.32285,-2.04538,-1.83913,0.7417159999999999,0.75098,0.174759,23.5550003051758,1790.7609,-1485.2097,-913.2795699999999,-92.252402,-60.982513999999995,-82.90836600000003
364,20200714173055,0.8,0.4,0.4,1.5708,1.7453299999999998,1.5708,-2.32262,-2.04576,-1.83887,0.742422,0.750464,-0.17531,23.5550003051758,1790.7609,-1485.2797,-913.40942,-92.23652,-61.286572,-102.88212
365,20200714173101,0.8,0.4,0.4,1.5708,1.91986,1.5708,-2.32287,-2.04624,-1.83868,0.744157,0.7511,-0.350403,23.5550003051758,1790.7539000000002,-1485.1017000000002,-913.46305,-92.117807,-61.467863,-112.81309
366,20200714173108,0.8,0.4,0.4,1.5708,2.0944,1.5708,-2.32278,-2.04585,-1.8388400000000005,0.743056,0.75074,-0.522913,23.5550003051758,1790.8329,-1485.0875,-913.3463899999999,-92.19027700000001,-61.608414,-122.74664
367,20200714173115,0.8,0.4,0.4,1.5708,2.26893,1.5708,-2.32274,-2.0460700000000003,-1.83851,0.743606,0.749768,-0.698164,23.5550003051758,1790.8373000000001,-1484.9638,-913.28798,-92.128607,-61.72710099999999,-132.72355
368,20200714173130,0.8,0.4,0.4,1.5708,1.5708,1.39626,-2.29306,-2.07451,-1.79052,0.722676,0.546056,-0.0011366,23.5550003051758,1789.0816,-1487.7761,-913.38275,-91.90135500000001,-51.193857,-92.379853
369,20200714173134,0.8,0.4,0.4,1.5708,1.5708,1.43117,-2.29814,-2.06815,-1.80147,0.7266020000000001,0.586447,0.000922036,23.5550003051758,1789.444,-1487.4406000000001,-913.4812,-91.99003400000001,-53.239992,-92.414097
370,20200714173139,0.8,0.4,0.4,1.5708,1.5708,1.4660799999999998,-2.3037400000000003,-2.0622700000000003,-1.81142,0.731664,0.62669,-0.000370804,23.5550003051758,1789.8036,-1486.8883,-913.41338,-91.99346800000001,-55.210505999999995,-92.48572700000001
371,20200714173143,0.8,0.4,0.4,1.5708,1.5708,1.50098,-2.31009,-2.05619,-1.82154,0.735158,0.668971,-0.000155274,23.5550003051758,1790.141,-1486.2295000000001,-913.49133,-92.098605,-57.25502,-92.622176
372,20200714173148,0.8,0.4,0.4,1.5708,1.5708,1.53589,-2.31587,-2.0511,-1.83011,0.7388680000000001,0.708249,0.000395105,23.5550003051758,1790.4244,-1485.8059,-913.47708,-92.15178800000001,-59.120799999999996,-92.65863399999999
373,20200714173156,0.8,0.4,0.4,1.5708,1.5708,1.6057,-2.32954,-2.04133,-1.84667,0.746765,0.791764,-0.00192625,23.5550003051758,1790.9404,-1484.8332,-913.42908,-92.223707,-63.13105699999999,-92.886655
374,20200714173201,0.8,0.4,0.4,1.5708,1.5708,1.64061,-2.33707,-2.03622,-1.85465,0.748405,0.834944,-0.00114853,23.5550003051758,1791.2254,-1484.3129000000001,-913.25896,-92.420439,-65.186086,-93.086761
375,20200714173206,0.8,0.4,0.4,1.5708,1.5708,1.67552,-2.34458,-2.03243,-1.86102,0.751768,0.8766459999999999,-0.0009926,23.5550003051758,1791.3341,-1483.8889000000001,-913.1412,-92.44068800000001,-67.167213,-93.106232
376,20200714173210,0.8,0.4,0.4,1.5708,1.5708,1.71042,-2.3528,-2.02826,-1.86774,0.7531439999999999,0.920682,0.000634415,23.5550003051758,1791.5285000000001,-1483.3438,-913.17183,-92.716723,-69.206946,-93.341827
377,20200714173234,0.8,0.3,0.9,1.0472,1.5708,1.5708,-2.58051,-1.67825,-1.37808,-0.0860007,1.53247,4.79369e-05,23.5550003051758,1839.8624,-1395.642,-412.72164,-155.4947,-90.86007000000001,-156.38483
378,20200714173244,0.8,0.3,0.9,1.22173,1.5708,1.5708,-2.52583,-1.67222,-1.3849,-0.0853422,1.30269,-0.00124437,23.5550003051758,1839.5961,-1398.5104,-412.92697999999996,-94.418341,-81.243019,-95.25784900000001
379,20200714173254,0.8,0.3,0.9,1.39626,1.5708,1.5708,-2.4745,-1.67986,-1.37639,-0.0858572,1.077,0.000107858,23.5550003051758,1838.8721,-1401.3299,-412.91026,-92.719921,-71.287017,-93.34385200000001
380,20200714173303,0.8,0.3,0.9,1.5708,1.5708,1.5708,-2.42967,-1.7010900000000002,-1.35287,-0.0872338,0.857492,-0.0020817,23.5550003051758,1837.7287000000001,-1403.5264,-412.94784999999996,-92.173885,-61.229213,-92.765859
381,20200714173312,0.8,0.3,0.9,1.7453299999999998,1.5708,1.5708,-2.39319,-1.7334599999999998,-1.31485,-0.0944665,0.6464270000000001,0.000107858,23.5550003051758,1836.4583,-1405.7756,-412.40256,-92.098171,-51.244569,-92.455663
382,20200714173328,0.8,0.3,0.9,1.5708,0.8726649999999999,1.5708,-2.4296,-1.7010599999999998,-1.35289,-0.0872577,0.8576959999999999,0.696481,23.5550003051758,1837.702,-1403.7336,-412.73159999999996,-92.08025400000001,-60.62740800000001,-52.693408
383,20200714173334,0.8,0.3,0.9,1.5708,1.0472,1.5708,-2.42963,-1.7007900000000002,-1.35304,-0.0882881,0.857241,0.522795,23.5550003051758,1837.7742,-1403.6006,-412.89122999999995,-92.19709200000001,-60.75654299999999,-62.763625
384,20200714173341,0.8,0.3,0.9,1.5708,1.22173,1.5708,-2.42944,-1.7007599999999998,-1.35282,-0.0883477,0.8572770000000001,0.348878,23.5550003051758,1837.814,-1403.7228,-412.75525,-92.203474,-60.934202,-72.78895200000001
385,20200714173348,0.8,0.3,0.9,1.5708,1.39626,1.5708,-2.42946,-1.70072,-1.35286,-0.089557,0.8573129999999999,0.175788,23.5550003051758,1837.7689,-1403.6988,-412.88014999999996,-92.316534,-61.089723,-82.855625
386,20200714173401,0.8,0.3,0.9,1.5708,1.7453299999999998,1.5708,-2.42968,-1.70071,-1.35288,-0.0887669,0.8575879999999999,-0.175346,23.5550003051758,1837.9187,-1403.4211,-412.82696999999996,-92.279404,-61.411069000000005,-102.87166
387,20200714173408,0.8,0.3,0.9,1.5708,1.91986,1.5708,-2.42942,-1.70102,-1.35281,-0.0875095,0.857049,-0.349888,23.5550003051758,1837.8639,-1403.5384999999999,-412.84573,-92.18976900000001,-61.556003,-112.81899
388,20200714173415,0.8,0.3,0.9,1.5708,2.0944,1.5708,-2.42938,-1.7010299999999998,-1.35287,-0.0876286999999999,0.856749,-0.5244449999999999,23.5550003051758,1837.8683,-1403.4514,-412.93616,-92.217162,-61.69411899999999,-122.80163
389,20200714173422,0.8,0.3,0.9,1.5708,2.26893,1.5708,-2.42971,-1.7006599999999998,-1.35289,-0.0884913,0.858176,-0.69723,23.5550003051758,1837.9914,-1403.3392999999999,-412.75291999999996,-92.255358,-61.915205,-132.77844
390,20200714173437,0.8,0.3,0.9,1.5708,1.5708,1.39626,-2.39323,-1.7340099999999998,-1.3149,-0.0909818,0.646991,-0.0024646,23.5550003051758,1836.3837,-1405.7992,-412.43154999999996,-91.76967300000001,-51.279077,-92.150507
391,20200714173441,0.8,0.3,0.9,1.5708,1.5708,1.43117,-2.3995900000000003,-1.72617,-1.32362,-0.0929096,0.687351,-0.000860993,23.5550003051758,1836.8718000000001,-1405.2694999999999,-412.51095999999995,-91.972406,-53.212609,-92.40751399999999
392,20200714173446,0.8,0.3,0.9,1.5708,1.5708,1.4660799999999998,-2.40639,-1.71922,-1.33163,-0.0918325,0.728907,0.000514947,23.5550003051758,1837.2428,-1404.7686999999999,-412.52295,-92.035604,-55.179612999999996,-92.41748100000001
393,20200714173450,0.8,0.3,0.9,1.5708,1.5708,1.50098,-2.41377,-1.71294,-1.33902,-0.0902155,0.771624,-0.000860993,23.5550003051758,1837.2988,-1404.3958,-412.66432,-92.075316,-57.212219999999995,-92.561935
394,20200714173455,0.8,0.3,0.9,1.5708,1.5708,1.53589,-2.42133,-1.70674,-1.3461,-0.0892575,0.813487,-2.3667e-05,23.5550003051758,1837.5504,-1404.0095,-412.79499,-92.16008400000001,-59.21473199999999,-92.624337
395,20200714173504,0.8,0.3,0.9,1.5708,1.5708,1.6057,-2.43801,-1.69585,-1.35916,-0.0855697,0.901531,-0.00139982,23.5550003051758,1838.0518,-1403.1547,-413.04332,-92.193656,-63.327636,-92.755299
396,20200714173508,0.8,0.3,0.9,1.5708,1.5708,1.64061,-2.4464900000000003,-1.69128,-1.36394,-0.0857971,0.944043,-0.00166303,23.5550003051758,1838.2775000000001,-1402.6597,-412.88102,-92.346047,-65.26,-92.96753299999999
397,20200714173513,0.8,0.3,0.9,1.5708,1.5708,1.67552,-2.45536,-1.6868299999999998,-1.36873,-0.0869349,0.987378,-0.00122053,23.5550003051758,1838.4764,-1402.2553,-413.02374,-92.62679700000001,-67.25093600000001,-93.279544
398,20200714173517,0.8,0.3,0.9,1.5708,1.5708,1.71042,-2.46478,-1.68308,-1.37306,-0.0860246,1.03213,-0.000107114,23.5550003051758,1838.6932,-1401.8751,-413.06593999999996,-92.725925,-69.295687,-93.333102
399,20200714173541,0.8,0.3,0.8,1.0472,1.5708,1.5708,-2.58038,-1.67884,-1.55283,0.0904902,1.53185,-0.00156719,23.5550003051758,1840.7006000000001,-1394.6916999999999,-512.26032,-147.38363999999996,-90.94182900000003,-148.36786999999998
400,20200714173551,0.8,0.3,0.8,1.22173,1.5708,1.5708,-2.52627,-1.673,-1.55944,0.0915438,1.30496,-0.00120813,23.5550003051758,1840.444,-1397.5512999999999,-512.39779,-93.670256,-81.326525,-94.48204100000001
401,20200714173600,0.8,0.3,0.8,1.39626,1.5708,1.5708,-2.47466,-1.68055,-1.55091,0.0907655,1.07758,-0.00216562,23.5550003051758,1839.7099,-1400.3553,-512.37826,-92.382409,-71.30170400000002,-93.095668
402,20200714173610,0.8,0.3,0.8,1.5708,1.5708,1.5708,-2.42986,-1.70045,-1.52809,0.0858812,0.859267,-0.000932995,23.5550003051758,1838.6259,-1402.6579,-512.4395,-92.22576000000001,-61.310097,-92.768079
403,20200714173619,0.8,0.3,0.8,1.7453299999999998,1.5708,1.5708,-2.39319,-1.73269,-1.49096,0.0812362,0.646307,7.190529999999999e-05,23.5550003051758,1837.1965,-1404.8277,-512.53786,-92.066617,-51.222015,-92.409852
404,20200714173634,0.8,0.3,0.8,1.5708,0.8726649999999999,1.5708,-2.42981,-1.70048,-1.52799,0.0857613,0.858284,0.6970189999999999,23.5550003051758,1838.6375,-1402.639,-512.29256,-92.14006400000001,-60.628152,-52.749504
405,20200714173641,0.8,0.3,0.8,1.5708,1.0472,1.5708,-2.42968,-1.70061,-1.52796,0.0863359,0.857504,0.5230100000000001,23.5550003051758,1838.6578,-1402.629,-512.33811,-92.131015,-60.751555999999994,-62.666807999999996
406,20200714173648,0.8,0.3,0.8,1.5708,1.22173,1.5708,-2.4295400000000003,-1.7009999999999998,-1.52766,0.0869586,0.8568690000000001,0.347957,23.5550003051758,1838.5488,-1402.6444,-512.37693,-92.10296000000001,-60.886967,-72.716335
407,20200714173655,0.8,0.3,0.8,1.5708,1.39626,1.5708,-2.42952,-1.70082,-1.52786,0.0867909,0.857132,0.174448,23.5550003051758,1838.6362000000001,-1402.645,-512.45745,-92.14631200000001,-61.062764,-82.71843100000001
408,20200714173708,0.8,0.3,0.8,1.5708,1.7453299999999998,1.5708,-2.42932,-1.7007900000000002,-1.52773,0.0861565,0.856772,-0.175334,23.5550003051758,1838.6852000000001,-1402.6388,-512.37465,-92.201181,-61.371078000000004,-102.76183
409,20200714173715,0.8,0.3,0.8,1.5708,1.91986,1.5708,-2.42961,-1.70048,-1.52807,0.0859292,0.858068,-0.349409,23.5550003051758,1838.7920000000001,-1402.5435,-512.4327999999999,-92.238229,-61.586317,-112.85487
410,20200714173722,0.8,0.3,0.8,1.5708,2.0944,1.5708,-2.42962,-1.7005099999999995,-1.52816,0.0862404,0.8582,-0.522985,23.5550003051758,1838.7992000000002,-1402.5020000000002,-512.47141,-92.216684,-61.74975799999999,-122.72272000000001
411,20200714173729,0.8,0.3,0.8,1.5708,2.26893,1.5708,-2.42963,-1.70118,-1.52813,0.0893528,0.858224,-0.700175,23.5550003051758,1838.7489,-1402.4594,-512.50675,-91.994144,-61.907818,-132.60232
412,20200714173744,0.8,0.3,0.8,1.5708,1.5708,1.39626,-2.39319,-1.7327099999999998,-1.49085,0.0810448,0.6467510000000001,0.000622431,23.5550003051758,1837.0972000000002,-1404.8834,-512.53566,-91.90268,-51.252666,-92.196035
413,20200714173748,0.8,0.3,0.8,1.5708,1.5708,1.43117,-2.39972,-1.7255599999999998,-1.49932,0.0819304999999999,0.687519,-0.000765626,23.5550003051758,1837.5939,-1404.2078999999999,-512.55056,-91.973048,-53.205377,-92.41186099999999
414,20200714173753,0.8,0.3,0.8,1.5708,1.5708,1.4660799999999998,-2.40662,-1.7184,-1.50742,0.0828042,0.730107,-0.00044233,23.5550003051758,1838.0067000000001,-1403.7839999999999,-512.4087900000001,-92.028864,-55.219122999999996,-92.465877
415,20200714173757,0.8,0.3,0.8,1.5708,1.5708,1.50098,-2.41385,-1.71246,-1.51457,0.085091,0.771636,-0.00155527,23.5550003051758,1838.1985,-1403.37,-512.42119,-92.015309,-57.195229000000005,-92.513682
416,20200714173802,0.8,0.3,0.8,1.5708,1.5708,1.53589,-2.42132,-1.7065099999999995,-1.52152,0.0858333,0.813462,8.38896e-05,23.5550003051758,1838.4218,-1403.0398,-512.53799,-92.10547700000001,-59.195914,-92.54269599999999
417,20200714173811,0.8,0.3,0.8,1.5708,1.5708,1.6057,-2.43779,-1.69585,-1.5335,0.0869707,0.9002709999999999,-0.000358407,23.5550003051758,1838.8441,-1402.1639,-512.51072,-92.286535,-63.24079499999999,-92.812007
418,20200714173815,0.8,0.3,0.8,1.5708,1.5708,1.64061,-2.4462900000000003,-1.69133,-1.53885,0.0883952,0.943383,-0.00160295,23.5550003051758,1839.1303,-1401.7808,-512.53928,-92.316592,-65.220857,-92.936521
419,20200714173820,0.8,0.3,0.8,1.5708,1.5708,1.67552,-2.45569,-1.68694,-1.5435,0.0879641999999999,0.989021,-0.00082523,23.5550003051758,1839.3027,-1401.3020999999999,-512.55115,-92.523943,-67.32043800000001,-93.13507800000001
420,20200714173824,0.8,0.3,0.8,1.5708,1.5708,1.71042,-2.4648,-1.6836799999999998,-1.54764,0.0905023,1.03275,-0.00174696,23.5550003051758,1839.5262,-1400.9628,-512.49751,-92.43795300000001,-69.320226,-93.101697
421,20200714173848,0.8,0.3,0.7,1.0472,1.5708,1.5708,-2.58038,-1.70751,-1.6980000000000002,0.263574,1.53189,-0.00181896,23.5550003051758,1841.4816,-1393.7679999999996,-612.0567400000002,-148.90302,-90.896263,-149.91015
422,20200714173857,0.8,0.3,0.7,1.22173,1.5708,1.5708,-2.52566,-1.70162,-1.70446,0.263766,1.3025,0.000239685,23.5550003051758,1841.2228,-1396.7054,-612.1101000000001,-94.12645499999999,-81.212338,-94.87720900000001
423,20200714173907,0.8,0.3,0.7,1.39626,1.5708,1.5708,-2.47437,-1.7093,-1.69595,0.263789,1.07677,-0.00157911,23.5550003051758,1840.4411,-1399.5122,-612.1410400000001,-92.499938,-71.252645,-93.200946
424,20200714173917,0.8,0.3,0.7,1.5708,1.5708,1.5708,-2.42972,-1.72891,-1.67277,0.258858,0.857684,0.000431058,23.5550003051758,1839.3769,-1401.6012,-612.0489400000002,-92.23055000000001,-61.215697,-92.70199500000001
425,20200714173926,0.8,0.3,0.7,1.7453299999999998,1.5708,1.5708,-2.39326,-1.76033,-1.63583,0.254944,0.646775,-0.000585858,23.5550003051758,1837.832,-1403.9599,-612.16668,-91.993783,-51.224396,-92.338125
426,20200714173941,0.8,0.3,0.7,1.5708,0.8726649999999999,1.5708,-2.42993,-1.72845,-1.67328,0.258966,0.859507,0.697426,23.5550003051758,1839.4554,-1401.8088,-611.90984,-92.142611,-60.681155999999994,-52.733194999999995
427,20200714173948,0.8,0.3,0.7,1.5708,1.0472,1.5708,-2.42953,-1.72882,-1.67284,0.258894,0.8575280000000001,0.52386,23.5550003051758,1839.3632,-1401.8387,-611.9350900000001,-92.164123,-60.747417,-62.658975
428,20200714173955,0.8,0.3,0.7,1.5708,1.22173,1.5708,-2.42974,-1.72872,-1.67284,0.258535,0.858391,0.350111,23.5550003051758,1839.3589,-1401.7606,-611.96095,-92.19800500000001,-60.948777,-72.710052
429,20200714174001,0.8,0.3,0.7,1.5708,1.39626,1.5708,-2.42944,-1.7291900000000002,-1.67268,0.259863,0.85682,0.174927,23.5550003051758,1839.3423,-1401.7507,-612.0680400000002,-92.143043,-61.042445,-82.69480300000001
430,20200714174015,0.8,0.3,0.7,1.5708,1.7453299999999998,1.5708,-2.4296900000000003,-1.72888,-1.67293,0.259026,0.858475,-0.174424,23.5550003051758,1839.405,-1401.6911,-612.1141200000001,-92.23348200000001,-61.434379,-102.76562000000001
431,20200714174022,0.8,0.3,0.7,1.5708,1.91986,1.5708,-2.42947,-1.72895,-1.67277,0.259624,0.857289,-0.349816,23.5550003051758,1839.4950000000001,-1401.5933,-612.0377400000001,-92.188276,-61.537643,-112.82052
432,20200714174028,0.8,0.3,0.7,1.5708,2.0944,1.5708,-2.42953,-1.72943,-1.67268,0.261156,0.856713,-0.524781,23.5550003051758,1839.4698,-1401.5077999999999,-612.1145900000002,-92.088127,-61.666030000000006,-122.66241000000001
433,20200714174035,0.8,0.3,0.7,1.5708,2.26893,1.5708,-2.42981,-1.72948,-1.67311,0.262904,0.858524,-0.7007140000000001,23.5550003051758,1839.5652,-1401.4477,-612.18078,-91.973909,-61.904692,-132.60585
434,20200714174050,0.8,0.3,0.7,1.5708,1.5708,1.39626,-2.39325,-1.76007,-1.63584,0.252789,0.646403,-1.17461e-05,23.5550003051758,1837.761,-1403.8823,-612.1987,-91.920147,-51.216968,-92.270392
435,20200714174055,0.8,0.3,0.7,1.5708,1.5708,1.43117,-2.39968,-1.7531599999999998,-1.64421,0.254561,0.6879149999999999,-0.000501935,23.5550003051758,1838.1586,-1403.418,-612.2223599999999,-91.96237,-53.215790999999996,-92.383631
436,20200714174059,0.8,0.3,0.7,1.5708,1.5708,1.4660799999999998,-2.40657,-1.7465400000000002,-1.65222,0.256619,0.729495,-0.000909154,23.5550003051758,1838.6307,-1402.8628999999999,-612.2178599999999,-91.97785,-55.172042999999995,-92.43083
437,20200714174104,0.8,0.3,0.7,1.5708,1.5708,1.50098,-2.41375,-1.74029,-1.65949,0.256931,0.771288,0.00101754,23.5550003051758,1838.8727000000001,-1402.5004,-612.16871,-92.082373,-57.166725,-92.468886
438,20200714174108,0.8,0.3,0.7,1.5708,1.5708,1.53589,-2.42138,-1.73435,-1.6663599999999998,0.258343,0.813714,-0.00065786,23.5550003051758,1839.1995,-1402.105,-612.0469200000002,-92.121594,-59.196104000000005,-92.625326
439,20200714174117,0.8,0.3,0.7,1.5708,1.5708,1.6057,-2.4377,-1.72419,-1.6785900000000002,0.260402,0.8999,-0.000310723,23.5550003051758,1839.6721,-1401.2402,-612.18138,-92.28576500000001,-63.20849,-92.813744
440,20200714174122,0.8,0.3,0.7,1.5708,1.5708,1.64061,-2.44643,-1.72005,-1.68393,0.263454,0.944031,-0.00147134,23.5550003051758,1839.9777000000001,-1400.7831999999999,-612.16552,-92.178972,-65.229155,-92.764518
441,20200714174126,0.8,0.3,0.7,1.5708,1.5708,1.67552,-2.45566,-1.7154200000000002,-1.6884,0.26118,0.988577,0.000526931,23.5550003051758,1840.1328,-1400.3130999999998,-612.0793500000001,-92.545803,-67.26566,-93.09258600000001
442,20200714174131,0.8,0.3,0.7,1.5708,1.5708,1.71042,-2.46484,-1.71217,-1.6924,0.262317,1.03243,0.000407089,23.5550003051758,1840.2352,-1399.9524999999999,-612.14705,-92.63149700000001,-69.27744700000001,-93.206458
443,20200714174155,0.8,0.3,0.6,1.0472,1.5708,1.5708,-2.58045,-1.76465,-1.81616,0.438236,1.53218,-0.00127966,23.5550003051758,1842.1379,-1392.8186,-711.7869900000001,-149.37036,-90.864952,-150.35518
444,20200714174204,0.8,0.3,0.6,1.22173,1.5708,1.5708,-2.52606,-1.75911,-1.82299,0.439756,1.30406,-0.00126821,23.5550003051758,1842.0004000000001,-1395.7146,-711.78174,-94.037043,-81.258221,-94.88001100000001
445,20200714174214,0.8,0.3,0.6,1.39626,1.5708,1.5708,-2.47471,-1.76612,-1.81431,0.437793,1.07779,0.000371136,23.5550003051758,1841.1706000000001,-1398.4862,-711.9095,-92.637443,-71.27740800000001,-93.252516
446,20200714174223,0.8,0.3,0.6,1.5708,1.5708,1.5708,-2.42963,-1.78532,-1.7907099999999998,0.433605,0.857648,0.00079021,23.5550003051758,1840.0581,-1400.7491,-712.16809,-92.206029,-61.19923,-92.662542
447,20200714174233,0.8,0.3,0.6,1.7453299999999998,1.5708,1.5708,-2.39342,-1.81457,-1.75328,0.424784,0.6476029999999999,0.000526931,23.5550003051758,1838.4385,-1403.0079,-712.2478599999998,-92.11292999999999,-51.255039,-92.47743600000001
448,20200714174248,0.8,0.3,0.6,1.5708,0.8726649999999999,1.5708,-2.42962,-1.78485,-1.79092,0.431869,0.858116,0.699318,23.5550003051758,1840.002,-1400.9358,-712.06728,-92.251479,-60.599599999999995,-52.785689999999995
449,20200714174255,0.8,0.3,0.6,1.5708,1.0472,1.5708,-2.42972,-1.78538,-1.79066,0.43382,0.857408,0.52307,23.5550003051758,1840.0249000000001,-1400.786,-712.04858,-92.12189000000001,-60.719117000000004,-62.669334
450,20200714174301,0.8,0.3,0.6,1.5708,1.22173,1.5708,-2.4299,-1.78503,-1.7909400000000002,0.433557,0.858884,0.348387,23.5550003051758,1840.0965,-1400.7766,-712.05052,-92.179044,-60.957424,-72.79282900000001
451,20200714174308,0.8,0.3,0.6,1.5708,1.39626,1.5708,-2.42956,-1.7850099999999998,-1.7906,0.432695,0.857132,0.174699,23.5550003051758,1840.0842,-1400.7776999999999,-711.9911400000002,-92.24130500000001,-61.034465000000004,-82.84246700000003
452,20200714174322,0.8,0.3,0.6,1.5708,1.7453299999999998,1.5708,-2.42938,-1.7856299999999998,-1.79059,0.434335,0.857108,-0.175203,23.5550003051758,1840.046,-1400.8411999999998,-712.2127299999999,-92.168925,-61.362627,-102.74243
453,20200714174328,0.8,0.3,0.6,1.5708,1.91986,1.5708,-2.4296900000000003,-1.78567,-1.79038,0.434909,0.856701,-0.349816,23.5550003051758,1840.1489000000001,-1400.5881,-712.05971,-92.11654,-61.500305,-112.73721
454,20200714174335,0.8,0.3,0.6,1.5708,2.0944,1.5708,-2.42999,-1.78533,-1.7909400000000002,0.435148,0.8591469999999999,-0.524613,23.5550003051758,1840.2866000000001,-1400.5394999999999,-712.10605,-92.118802,-61.758098,-122.68585
455,20200714174342,0.8,0.3,0.6,1.5708,2.26893,1.5708,-2.42936,-1.7857599999999998,-1.79043,0.434921,0.8567610000000001,-0.69808,23.5550003051758,1840.1402,-1400.6535,-712.1162400000001,-92.11823000000001,-61.814377,-132.66237999999998
456,20200714174357,0.8,0.3,0.6,1.5708,1.5708,1.39626,-2.39357,-1.81484,-1.75317,0.425059,0.648179,0.000490979,23.5550003051758,1838.3251,-1402.9746,-712.2856,-91.928318,-51.287227,-92.26773
457,20200714174402,0.8,0.3,0.6,1.5708,1.5708,1.43117,-2.39994,-1.80809,-1.76187,0.426831,0.68915,0.0008021939999999,23.5550003051758,1838.8516,-1402.4313,-712.32493,-91.991326,-53.253437,-92.361958
458,20200714174406,0.8,0.3,0.6,1.5708,1.5708,1.4660799999999998,-2.40686,-1.80179,-1.76985,0.428674,0.7309220000000001,0.00110105,23.5550003051758,1839.1886,-1401.9507999999998,-712.24991,-92.036214,-55.230533,-92.407385
459,20200714174410,0.8,0.3,0.6,1.5708,1.5708,1.50098,-2.41367,-1.7961,-1.7770099999999998,0.431055,0.7713479999999999,3.59527e-05,23.5550003051758,1839.5919000000001,-1401.6279,-712.0802900000002,-92.035435,-57.162262,-92.475574
460,20200714174415,0.8,0.3,0.6,1.5708,1.5708,1.53589,-2.42188,-1.79062,-1.7843099999999998,0.433557,0.815909,-0.00145942,23.5550003051758,1839.8263,-1401.1112,-712.1712599999998,-92.051816,-59.270849999999996,-92.583406
461,20200714174424,0.8,0.3,0.6,1.5708,1.5708,1.6057,-2.43813,-1.78056,-1.79655,0.434921,0.901747,-0.00105268,23.5550003051758,1840.3208,-1400.2857999999999,-712.1039900000001,-92.279176,-63.283197,-92.864012
462,20200714174428,0.8,0.3,0.6,1.5708,1.5708,1.64061,-2.44634,-1.77637,-1.80189,0.435663,0.943719,0.000371136,23.5550003051758,1840.6243,-1399.9041,-712.1549200000001,-92.404032,-65.206739,-92.937676
463,20200714174433,0.8,0.3,0.6,1.5708,1.5708,1.67552,-2.45546,-1.77242,-1.80671,0.436429,0.987786,-0.0008133089999999,23.5550003051758,1840.8704,-1399.3988,-712.0605700000002,-92.52777900000001,-67.21578000000001,-93.161607
464,20200714174438,0.8,0.3,0.6,1.5708,1.5708,1.71042,-2.4648,-1.76903,-1.81094,0.437674,1.03238,-0.00130397,23.5550003051758,1841.1119,-1399.0420000000004,-711.98003,-92.603032,-69.266332,-93.280756
