pauljac7700/ASTGCN-robot-pose-deviation/data/measurements_random_poses_cleaned.csv
step_order,x_dif,y_dif,z_dif,rx_dif,ry_dif,rz_dif,joint_1,joint_2,joint_3,joint_4,joint_5,joint_6,x_set,y_set,z_set,rx_set,ry_set,rz_set
0,-0.000181978,-0.365141,1.4273,1.57005,1.56969,-0.000186977,-3.14159,-1.5708,0.0,-1.5708,0.0,0.0,383.971411978,-3240.3910589999996,200.29891,-91.749613,-21.682665,-90.157201023
1,0.0103459,-0.480444,1.00632,3.10253,1.66683,1.57927,-4.08444,-2.6946,1.69873,-2.031,0.99275,-0.0673035,335.1374341,-3133.887256,-222.16719999999998,-87.30605,-24.393665000000002,-89.824879
2,-0.0051336,-0.413612,0.846258,3.60029,1.58947,1.66501,-3.65442,-2.82442,2.02635,-2.23002,0.148482,-0.104726,366.9935136,-3193.509388,-380.78619799999996,-92.666075,-0.79107294,-91.414451
3,-0.0798171,-0.454235,0.841657,3.16162,1.78563,1.71706,-4.46788,-2.96612,2.05675,-2.016,1.45392,-0.0218881,430.9520971,-3126.274965,-388.703087,-79.55622,-28.424122,-85.513892
4,-0.209376,-0.414683,1.1511,3.68361,1.4079,1.58468,-4.46573,-2.37409,1.26161,-2.22417,0.799081,0.0512681,555.5297360000001,-3120.965917,-73.143056,-101.859378,9.090933,-95.14610900000001
5,-0.0998344,-0.519876,0.956268,3.49177,1.59286,1.40997,-4.22032,-2.80117,1.72054,-2.02247,0.567164,-0.0255259,416.68961440000004,-3060.0843240000004,-270.606828,-92.325246,7.546503700000001,-91.378483
6,-0.0498899,-0.434082,1.1654,3.54751,1.4202,1.65406,-3.92454,-2.31708,1.23204,-2.36275,0.474402,0.213438,401.7909199,-3158.439218,-59.127562999999995,-101.533991,-2.6747341000000002,-95.56745000000001
7,0.111983,-0.722976,1.04393,2.96633,1.52898,1.70347,-4.30413,-2.73828,1.27206,-1.71689,1.46989,0.010603,160.497467,-2938.297024,-183.21642,-96.216076,-39.169477,-93.456544
8,0.263361,-0.734831,0.814484,3.72806,1.46633,1.63596,-3.88985,-3.1012,1.53969,-1.95444,0.239649,0.305638,2.2196091,-2982.4109689999996,-411.977204,-98.829587,8.539219000000001,-94.37308999999999
9,0.365175,-0.60568,1.02865,3.69173,1.5286,1.71879,-3.62882,-2.75575,1.22555,-2.01729,0.0913943,0.381348,-49.030634,-3139.89342,-199.47278,-95.832469,1.4420229999999998,-93.14843499999999
10,-0.0812507,-0.492617,1.04211,3.74649,1.55857,1.4716,-4.07007,-2.65821,1.53151,-2.06028,0.223647,0.0365245,405.6186307,-3091.2976830000002,-184.40947,-94.36864,18.796944,-91.842653
11,0.0956772,-0.75947,1.093,3.1145,1.53382,1.47519,-4.22677,-2.65682,1.08783,-1.61629,1.01612,0.0231213,157.16425279999999,-2901.41013,-134.18802,-95.487802,-17.714755999999998,-92.266154
12,-0.249974,-0.761883,0.978222,3.22869,1.34014,1.7128,-4.87664,-2.78795,1.21706,-1.80567,1.78114,-0.0711454,485.242854,-2779.274717,-244.638952,-107.64916,-23.724424000000003,-98.688821
13,-0.317463,-0.836962,0.947722,3.58889,1.90922,1.72264,-4.85147,-2.9955,1.22475,-1.06232,1.39903,0.0959539,517.6278629999999,-2685.870038,-284.076822,-76.287637,-3.6636986,-82.684944
14,0.147556,-0.708406,1.07489,3.17859,1.42709,1.47734,-4.07617,-2.64343,1.15337,-1.84973,0.812959,0.130922,125.438024,-2967.185794,-150.70873,-101.766477,-13.797997,-93.910693
15,0.0675908,-0.777794,0.776195,3.55923,1.30933,1.67324,-4.22169,-3.11057,1.65542,-2.02861,0.781137,0.138606,174.69785919999998,-2875.029406,-447.080965,-107.29032,-2.4941704,-98.396726
16,-0.268718,-0.527464,0.737265,3.78747,1.2584,1.57832,-4.67094,-3.06,1.99863,-2.40088,0.891888,0.0126857,572.4665180000001,-2993.640436,-484.827525,-108.68066,16.141098,-98.21529500000001
17,-0.259031,-0.779969,1.0989,3.55976,1.6801,1.73395,-4.78656,-2.68953,1.01099,-1.36198,1.38755,0.0251912,482.308211,-2760.191331,-129.76147999999998,-87.998729,-6.9914703,-88.82738
18,0.111567,-0.520133,0.74674,2.9338,1.58491,1.42357,-3.898,-3.10065,2.11847,-2.14033,0.816293,-0.0167416,227.970823,-3131.462867,-480.43047,-92.19108800000001,-25.09115,-91.512169
19,-0.344075,-0.797672,0.93071,3.65089,1.62198,1.66001,-4.86719,-2.96305,1.30401,-1.4365,1.30444,0.0119554,554.368825,-2714.3884279999997,-296.95524,-91.198719,2.4133049,-90.564599
20,-0.358449,-0.821096,1.2,3.0065,1.84304,1.44006,-5.0049,-2.40731,0.320373,-0.773185,1.8607,0.044327,566.122049,-2686.034304,-31.020963,-76.77765600000001,-21.680494,-88.031423
21,-0.112724,-0.623757,0.989715,3.26646,1.70162,1.43104,-4.46518,-2.85279,1.57629,-1.71649,1.06152,-0.0571912,397.857904,-2957.915843,-238.905805,-85.87849299999999,-6.5567998,-90.082533
22,0.0246464,-0.521353,0.852148,3.83159,1.62453,1.70261,-3.90152,-3.00022,1.87246,-1.80843,0.204463,-0.167615,298.6619336,-3101.158147,-375.770148,-91.450744,10.369286,-90.47837000000001
23,0.298617,-0.484481,1.18972,3.57144,1.8524,1.7396,-3.47919,-2.38049,0.633888,-0.0509771,0.262013,-1.217,57.475309,-3229.992619,-42.941866000000005,-79.07786,-6.0156236000000005,-84.07604599999999
24,0.133504,-0.651371,0.781984,3.66171,1.84233,1.42314,-3.94096,-3.16359,1.54,-0.393291,0.260825,-0.974388,150.85235600000001,-3014.835929,-449.58137400000004,-79.569439,16.686903,-88.399735
25,0.119766,-0.775978,1.01474,3.03248,1.71086,1.50687,-4.23988,-2.85539,1.29384,-1.42742,1.1481,-0.0791753,131.557264,-2893.749522,-214.93857,-84.55544300000001,-24.25115,-89.32675900000001
26,-0.136978,-0.784286,0.73708,3.45548,1.37787,1.62355,-4.57704,-3.20102,1.73028,-1.86958,1.17515,0.0162881,366.811628,-2797.630514,-487.28117,-104.16957,-5.9787713,-96.17070899999999
27,0.0085488,-0.414267,0.840021,3.36441,1.72387,1.43581,-3.63314,-2.91051,1.95636,-1.32922,0.198004,-0.815241,353.5590312,-3197.156633,-389.309711,-84.904747,-1.2173409400000001,-89.847644
28,-0.0228133,-0.60373,1.17216,3.26473,1.45655,1.69216,-4.34961,-2.44658,1.07682,-1.89338,1.20723,0.028303,323.6177333,-3006.7958700000004,-53.155584999999995,-100.37064,-21.185012,-95.117705
29,-0.0523894,-0.898384,0.872471,3.41925,1.80344,1.47791,-4.45336,-3.09379,1.31633,-1.08822,0.951633,-0.098491,245.8555594,-2720.157616,-358.065401,-80.689604,-0.31022229999999995,-88.284386
30,0.140381,-0.658525,0.940968,3.11188,1.71886,1.45999,-4.04051,-2.95887,1.60095,-1.58198,0.827676,-0.142567,150.346259,-3011.0539750000003,-289.387428,-84.474195,-16.98054,-89.669685
31,0.0974583,-0.879568,0.906992,3.52136,1.69223,1.61884,-4.24722,-3.0109,1.26024,-1.22999,0.777346,-0.0709418,111.0209317,-2789.1821320000004,-323.153062,-87.225332,-2.61745127,-89.17663
32,-0.122307,-0.807689,1.00455,3.44929,1.73188,1.51089,-4.52677,-2.87502,1.24647,-1.33286,1.02029,-0.0465882,342.853117,-2781.412411,-224.8251,-84.78003000000001,-0.5500707,-89.087894
33,0.192351,-0.798894,1.16046,3.5096,1.6777,1.48607,-4.04364,-2.51056,0.598355,-1.00199,0.456844,-0.167017,48.036634,-2897.877306,-69.127926,-87.864947,4.3071949,-90.033326
34,0.0259528,-0.856178,0.830248,3.71132,1.70074,1.42898,-4.26411,-3.12424,1.33724,-1.08388,0.420059,-0.178494,181.2900372,-2786.013622,-398.777478,-87.070695,19.053884,-89.91779
35,-0.310979,-0.7192,0.988345,3.41374,1.68707,1.49707,-4.85632,-2.89129,1.35387,-1.48993,1.36751,0.00751598,551.233519,-2800.1731,-239.610535,-87.04125400000001,-1.8329811900000001,-89.833531
36,0.220614,-0.75581,0.864821,2.99123,1.90895,1.39751,-4.06341,-3.15175,1.5453,-1.11978,0.949607,-0.304169,43.004115000000006,-2946.19529,-368.334061,-72.97072800000001,-20.13468,-88.194034
37,0.211897,-0.550462,0.760572,3.51068,1.4897,1.66654,-3.69534,-3.12201,1.96102,-2.24984,0.288086,0.22811,117.572483,-3138.9942379999998,-465.566752,-97.906583,-5.7688251,-93.980432
38,0.354441,-0.441864,1.13096,3.00568,1.77581,1.58757,-3.37925,-2.63165,1.24725,-1.26326,0.439118,-0.482277,25.726319999999998,-3288.213036,-100.69690800000001,-79.97612699999999,-30.185854,-87.199752
39,-0.162169,-0.447534,1.15482,3.70776,1.5695,1.59739,-4.30011,-2.44434,1.30834,-2.00724,0.618075,1.2e-05,499.840599,-3106.9655660000003,-71.589721,-93.80037499999999,9.264029,-91.80001800000001
40,-0.269795,-0.763044,1.13229,3.30817,1.54543,1.6926,-4.87868,-2.57735,0.870743,-1.46026,1.69141,-0.00802976,501.781415,-2771.8777560000003,-94.14448399999999,-94.986686,-19.022395,-92.59381499999999
41,-0.00321808,-0.754473,0.790211,3.509,1.72966,1.4448,-4.2722,-3.22491,1.6856,-1.35491,0.646943,-0.142028,246.43759808000001,-2871.864227,-439.894871,-85.04819,6.5583558,-89.649394
42,0.082487,-0.653789,1.11907,3.55096,1.34614,1.47374,-4.03185,-2.50577,1.04291,-2.19829,0.424187,0.388864,199.61400300000003,-2996.410711,-105.07334999999999,-105.56320000000001,8.0488254,-94.947187
43,-0.00117964,-0.839371,0.769119,3.16998,1.44849,1.72156,-4.49339,-3.17541,1.61424,-1.7034,1.47405,0.0075995,225.86716964000001,-2791.448929,-456.177849,-101.21099,-28.236100999999998,-95.746693
44,-0.0845383,-0.570584,1.00444,3.06365,1.32731,1.42159,-4.45592,-2.65354,1.48539,-2.22923,1.25451,0.0994005,392.07777830000003,-3016.305916,-218.52255,-107.68947999999999,-16.893976,-94.57466799999999
45,-0.313721,-0.576396,0.881799,3.0944,1.45308,1.42808,-5.02554,-2.95203,1.67384,-1.98402,1.78631,-0.0211814,606.678131,-2932.263904,-342.934019,-100.23397299999999,-15.954558,-93.101254
46,-0.0581378,-0.432753,0.991785,3.07052,1.68162,1.66217,-4.37135,-2.6843,1.75927,-2.10443,1.39304,-0.0284217,417.8458478,-3153.984247,-236.59929499999998,-86.016805,-30.914907,-88.901908
47,-0.0100585,-0.821364,1.14152,3.44772,1.58316,1.46881,-4.34423,-2.56393,0.802359,-1.36364,0.794079,-0.00867588,230.3802685,-2806.583736,-86.724751,-92.966402,1.7674961000000002,-91.542311
48,0.0460485,-0.6869,1.11497,3.20553,1.3923,1.51006,-4.23151,-2.54923,1.09186,-1.90014,0.97414,0.10998,227.7339015,-2952.5641,-109.79207,-103.865,-14.032002,-94.798422
49,0.183488,-0.580673,1.19242,3.14673,1.84835,1.44376,-3.83867,-2.55762,1.06744,-1.16181,0.621795,-0.408032,134.41434199999998,-3099.601827,-39.960482,-77.027557,-13.95499,-88.19936299999999
50,-0.0713696,-0.897296,1.09164,3.60346,1.42676,1.43629,-4.43034,-2.56603,0.677195,-1.45426,0.697632,0.0895274,259.5266796,-2714.183204,-133.88801,-101.31351,12.84549,-93.395909
51,-0.231294,-0.663053,1.13259,2.89088,1.29124,1.52992,-4.93122,-2.4797,0.899721,-1.85881,1.99113,-0.0541876,503.440784,-2877.5828469999997,-89.587408,-111.34017,-32.528293,-97.46551600000001
52,-0.15859,-0.57144,1.10455,2.93044,1.25769,1.41491,-4.73113,-2.48813,1.16011,-2.12084,1.65058,0.0413471,463.69561,-2989.5494599999997,-117.09343,-112.13913000000001,-23.858512,-95.34962800000001
53,-0.0338275,-0.509566,1.04604,3.25597,1.30489,1.60209,-4.22089,-2.5256,1.43483,-2.36344,1.01365,0.13699,364.4867875,-3091.8107339999997,-176.46754,-109.02575,-15.818461000000001,-97.709722
54,0.0629079,-0.63505,0.997523,3.17153,1.43416,1.70649,-4.23347,-2.74233,1.48006,-2.02585,1.19987,0.0485515,233.3584721,-3005.82445,-227.770743,-102.101135,-27.257987,-96.078013
55,-0.0187323,-0.81509,1.00486,3.34309,1.65382,1.60438,-4.41927,-2.85326,1.2489,-1.44636,1.11005,-0.0244368,245.4162523,-2810.24521,-223.44576,-88.713037,-12.062636,-89.994589
56,-0.0146133,-0.787255,1.11338,3.09708,1.4711,1.70284,-4.5158,-2.59188,0.958561,-1.60791,1.55038,0.00566067,256.2622433,-2835.261345,-112.47397000000001,-99.90900900000001,-31.432911,-95.031742
57,-0.124599,-0.492546,1.02957,2.83057,1.40148,1.66793,-4.83669,-2.63963,1.47192,-2.16065,2.09879,-0.0436085,463.91312899999997,-3072.336954,-194.55618,-105.83292999999999,-44.327434,-97.806234
58,0.100771,-0.481948,0.854078,3.02397,1.35997,1.61005,-3.88764,-2.79001,1.89594,-2.51127,0.921666,0.185877,251.55642899999998,-3162.692552,-369.467468,-106.88148000000001,-29.77467,-97.208624
59,-0.312214,-0.562697,1.09113,3.54595,1.3616,1.5363,-4.86885,-2.57232,1.21834,-1.98808,1.28523,-0.0270813,603.916954,-2946.232403,-132.32559,-104.71067000000001,4.1259213,-95.436861
60,-0.147474,-0.682996,0.815498,3.19648,1.59373,1.45027,-4.60429,-3.12053,1.79539,-1.79259,1.28636,-0.00627071,412.735134,-2889.952004,-411.222458,-91.953508,-11.5895256,-91.358883
61,0.0443182,-0.89271,0.890107,3.19273,1.43495,1.65367,-4.41906,-2.96779,1.2991,-1.61363,1.31027,0.0284228,162.4365018,-2757.31189,-335.751497,-101.76111999999999,-23.074079,-95.40851
62,-0.191644,-0.575171,0.976158,3.75552,1.70064,1.67893,-4.53266,-2.85286,1.6267,-1.77858,0.88546,-0.0126846,485.558514,-2976.520629,-251.844528,-87.619563,7.4072792,-88.50880799999999
63,0.158279,-0.744025,1.02294,2.79882,1.59381,1.69084,-4.29862,-2.8016,1.28419,-1.60249,1.61883,-0.00744373,112.004641,-2933.1463750000003,-204.93244,-91.27318700000001,-48.167767999999995,-91.19255899999999
64,0.0947574,-0.578654,0.959257,3.21215,1.47456,1.6472,-4.0355,-2.78438,1.63426,-2.11386,0.90249,0.0682618,222.2102126,-3070.7112460000003,-266.498727,-99.21443099999999,-21.694637,-94.334249
65,-0.249907,-0.590521,1.05015,3.38716,1.22252,1.39826,-4.72691,-2.5796,1.25346,-2.18221,1.17661,0.0573955,535.674427,-2940.830779,-171.17045,-112.88512,3.3525539999999996,-95.05610399999999
66,-0.155809,-0.769215,1.02768,3.69056,1.3482,1.51542,-4.50843,-2.7125,1.14344,-1.84662,0.769453,0.0807314,383.374709,-2805.1590850000002,-196.4459,-105.01389,13.691365,-95.484379
67,0.133872,-0.460495,1.02665,3.12054,1.83959,1.46128,-3.63481,-2.75314,1.61613,-1.3943,0.481854,-0.561313,223.208708,-3195.951305,-205.20617,-77.327279,-16.457986000000002,-88.010097
68,-0.274289,-0.64827,1.11448,3.50007,1.85296,1.46297,-4.75515,-2.71549,1.21591,-1.35237,1.149,-0.0206669,537.9804489999999,-2878.1596299999997,-116.57038,-78.402442,5.2537415,-87.77063
69,-0.084383,-0.546967,1.13446,3.36576,1.73762,1.72176,-4.42916,-2.59243,1.35302,-1.72867,1.21534,-0.0241378,399.656753,-3038.9455329999996,-95.05018100000001,-83.832882,-17.259235,-87.220747
70,-0.213505,-0.436712,0.975721,3.77,1.56689,1.58915,-4.45554,-2.70752,1.72528,-2.16423,0.703415,0.000622431,551.004675,-3098.408188,-250.487891,-94.002256,13.360710000000001,-91.873727
71,0.351303,-0.500177,1.10707,3.41508,1.68054,1.74369,-3.47269,-2.66053,1.16659,-1.20918,0.250789,-0.397427,5.4502411,-3233.439823,-123.16534999999999,-87.351032,-15.772686,-88.862094
72,0.348681,-0.737729,1.13715,3.40949,1.66698,1.66132,-3.84446,-2.58437,0.758064,-1.13173,0.530697,-0.134297,-75.530865,-3009.035571,-93.325783,-88.20931900000001,-11.519723800000001,-89.601862
73,0.220337,-0.502545,0.831392,3.42543,1.55025,1.45454,-3.57154,-2.96925,1.8786,-2.65144,0.0350962,0.593524,123.020813,-3186.933555,-396.013822,-94.587327,1.328486,-91.999658
74,0.236392,-0.467457,1.13651,3.4883,1.5097,1.60988,-3.47402,-2.36042,1.09206,-3.05875,0.0619667,1.163,120.72471800000001,-3225.772043,-90.395673,-96.835967,-3.8499896000000002,-93.241995
75,0.0775192,-0.577199,0.969278,2.94787,1.62596,1.40777,-4.08258,-2.82481,1.66324,-1.91457,0.972354,-0.0483597,239.14845079999998,-3066.242701,-258.81375799999995,-89.78017299999999,-23.454525999999998,-91.098402
76,0.160728,-0.640925,1.1163,3.33188,1.30037,1.56724,-3.95648,-2.49364,1.04975,-2.1388,0.661412,0.303053,135.305902,-3035.272075,-107.02418,-108.80799,-9.4426597,-97.114432
77,0.00827923,-0.87575,1.10718,3.19534,1.6669,1.55408,-4.43402,-2.65228,0.856355,-1.24342,1.22264,-0.0304201,200.07184077,-2761.46265,-122.17129,-87.700636,-17.627437999999998,-89.947503
78,-0.284814,-0.693461,0.823516,3.21849,1.23392,1.64675,-4.93766,-2.99644,1.58424,-2.07273,1.77708,-0.100992,540.687744,-2830.867839,-398.004056,-113.75524,-19.769744000000003,-100.206187
79,0.0589769,-0.493526,0.991341,3.26035,1.55499,1.74364,-3.96336,-2.68911,1.68154,-2.15466,0.875062,0.0105195,285.43619309999997,-3138.323774,-235.53848100000002,-94.398466,-24.664175,-92.532992
80,-0.353021,-0.86287,1.02038,3.418,1.37714,1.47298,-4.87776,-2.6992,0.879261,-1.51213,1.36002,-0.0140732,541.014541,-2649.94683,-203.35101,-104.18365,0.3120391,-94.37210200000001
81,0.104195,-0.438244,1.06897,3.27722,1.5279,1.69317,-3.60721,-2.5264,1.52553,-2.23783,0.453256,0.0806359,260.028825,-3207.124556,-157.34077000000002,-95.992572,-20.802989999999998,-93.17057799999999
82,-0.224691,-0.661224,1.17491,3.2807,1.8391,1.73391,-4.84582,-2.60872,1.04327,-1.30768,1.7169,0.077572,494.823111,-2882.282876,-56.153040999999995,-77.233127,-22.267270999999997,-83.97867699999999
83,-0.252988,-0.670981,1.09011,3.59515,1.85339,1.48618,-4.68539,-2.7555,1.2398,-1.3255,1.00985,-0.0374215,509.114098,-2863.983119,-140.79680000000002,-78.914732,9.399297999999998,-87.397354
84,0.20929,-0.418248,0.865923,3.2139,1.61323,1.5898,-3.36281,-2.92019,1.91344,-1.88531,0.172505,-0.243754,168.22186,-3262.158652,-362.154713,-90.806854,-18.595806000000003,-91.025911
85,0.0977333,-0.804486,0.93898,3.16963,1.67822,1.71619,-4.31793,-2.97278,1.40637,-1.46355,1.29425,-0.0283139,143.3535567,-2857.901414,-290.85488000000004,-86.52515,-28.34062,-88.766216
86,-0.231447,-0.596729,1.13272,2.90749,1.48252,1.46573,-4.93293,-2.55262,1.1128,-1.79323,1.91905,-0.0115956,525.246647,-2940.428171,-92.48119000000001,-98.64950999999999,-28.831012,-93.11434799999999
87,0.117216,-0.603654,1.03828,3.41701,1.26282,1.59204,-3.9578,-2.59069,1.30357,-2.38373,0.615831,0.358201,187.782974,-3055.285846,-184.56154999999998,-110.52016,-5.7257709000000006,-98.18602899999999
88,0.0508939,-0.778687,0.709455,3.1526,1.22806,1.71869,-4.38865,-3.18277,1.75706,-2.06441,1.39357,0.059047,196.9703661,-2865.531513,-512.524645,-115.33606,-27.270947,-102.31406
89,0.0811414,-0.514657,1.1436,3.76985,1.34255,1.55264,-3.78874,-2.19454,0.79142,-3.37792,0.184487,1.50384,245.9253086,-3126.997743,-80.322415,-104.75096,16.096153,-96.27588899999999
90,-0.00982344,-0.502384,1.0195,3.80379,1.33018,1.4985,-3.92906,-2.45128,1.32058,-3.38549,0.192602,1.22019,334.93527344,-3106.478116,-204.01399,-105.41826,21.179962,-95.78802999999999
91,0.305763,-0.716986,1.14972,3.57545,1.55391,1.49155,-3.82607,-2.51747,0.682947,-1.39718,0.171017,0.0810789,-32.433368,-3014.1826140000003,-78.435867,-94.56141000000001,7.8187801,-91.964703
92,0.357312,-0.838837,1.13284,3.44513,1.72345,1.71899,-3.94776,-2.52314,0.477758,-0.857711,0.660381,-0.144625,-116.955772,-2916.059963,-98.469003,-85.194748,-12.589851,-87.82432100000001
93,-0.252747,-0.758858,0.783583,3.00508,1.65885,1.45778,-4.87433,-3.22124,1.66296,-1.49457,1.75517,0.00353048,489.000057,-2781.340342,-444.560903,-87.77225700000001,-23.038703,-90.408721
94,-0.298665,-0.786224,1.17346,2.80705,1.33401,1.43815,-4.9895,-2.31191,0.341881,-1.42337,2.04471,-0.0386899,524.576305,-2738.430576,-49.734215999999996,-108.08714,-32.54111,-95.087111
95,-0.0305218,-0.575727,1.15761,2.89814,1.65054,1.42089,-4.39574,-2.53723,1.2359,-1.76102,1.3485,-0.0374091,341.82434179999996,-3029.849073,-70.619634,-88.157333,-27.060541999999998,-90.707416
96,-0.0850031,-0.651785,0.918292,3.09954,1.39212,1.71475,-4.61834,-2.86815,1.59188,-2.04447,1.66109,-0.00965721,369.5722531,-2938.717615,-305.39482200000003,-105.14282,-31.5519,-97.60440799999999
97,-0.114894,-0.401015,0.717833,3.34079,1.36202,1.62727,-4.28293,-2.84314,2.20887,-2.74998,1.00716,0.0885342,478.31530399999997,-3166.048785,-504.75136299999997,-105.38137,-12.695518999999999,-96.681345
98,0.15983,-0.736192,1.14467,3.46976,1.46013,1.41378,-4.01661,-2.5163,0.831831,-1.72889,0.400495,0.214204,98.853154,-2945.407708,-81.548029,-99.621034,6.426561100000001,-92.927435
99,0.213361,-0.498335,1.04936,3.50663,1.85297,1.5055,-3.58614,-2.6336,1.08368,-0.0194514,0.262913,-1.46998,130.130939,-3187.7055649999998,-182.99972,-78.49325,3.1969081,-87.246361
100,0.201983,-0.751033,1.10469,2.99051,1.6344,1.41492,-4.07546,-2.67064,1.05301,-1.44551,0.930108,-0.0574544,61.410399,-2945.208667,-124.54858,-89.3643,-21.406768,-90.971296
101,-0.318837,-0.821362,0.822074,2.93512,1.63301,1.41653,-4.96442,-3.14123,1.43259,-1.36914,1.87409,0.00551761,530.3039570000001,-2700.0144379999997,-405.112104,-89.343623,-24.658448,-90.884684
102,0.069609,-0.815581,0.992293,3.29136,1.79109,1.71952,-4.33265,-2.91503,1.28874,-1.28102,1.19524,-0.0544871,164.64355099999997,-2838.676319,-238.88392299999998,-80.261844,-21.133702,-85.640361
103,0.0212181,-0.608875,1.0647,3.02839,1.40616,1.61743,-4.32971,-2.61232,1.33998,-2.03689,1.35151,0.054487,282.8244319,-3015.7592250000002,-159.92579999999998,-103.95739,-30.245373999999998,-96.065059
104,0.0305402,-0.891675,1.16576,3.15648,1.36535,1.5787,-4.42816,-2.33683,0.358089,-1.37736,1.28485,0.0571921,174.33312980000002,-2753.652825,-59.115733,-105.91798,-20.545761,-96.190187
105,-0.0792117,-0.746416,1.03995,3.46811,1.53124,1.49017,-4.41523,-2.75029,1.23906,-1.67946,0.866319,0.0184179,321.56632169999995,-2853.854484,-186.75142,-95.72418599999999,1.7472452,-92.27752600000001
106,0.162549,-0.733554,0.807262,3.58757,1.40193,1.63488,-4.02666,-3.08849,1.64167,-2.00594,0.517677,0.198215,100.14491100000001,-2949.0230460000002,-417.773572,-102.38874799999999,0.7738935,-95.785266
107,-0.387058,-0.477439,1.12621,3.42164,1.44616,1.62943,-5.2153,-2.54128,1.15759,-1.88245,1.84736,-0.0696014,707.610528,-3001.062261,-98.109695,-100.496579,-8.6046738,-94.693625
108,0.0214642,-0.476,0.825105,3.06085,1.27286,1.57582,-4.08249,-2.77686,1.92819,-2.6357,1.05595,0.197725,327.05833579999995,-3140.9882,-396.879575,-111.92795,-25.206421000000002,-98.406644
109,0.31185,-0.594295,0.965516,3.65262,1.89121,1.65344,-3.66857,-2.83074,1.11406,-0.111099,0.287726,-1.14297,4.9219565,-3131.235505,-267.30589599999996,-77.771935,3.5044668999999997,-84.278333
110,-0.124832,-0.720029,0.721958,2.81752,1.22527,1.56635,-4.75644,-3.16154,1.77282,-2.10311,1.93097,-0.0149825,385.491102,-2858.7344709999998,-499.433988,-116.75572,-38.143506,-100.167729
111,-0.165692,-0.545869,1.11007,3.32388,1.54809,1.42358,-4.5282,-2.57098,1.33271,-1.929,1.05654,0.00779124,473.14219199999997,-3012.751131,-116.40512,-94.731398,-2.7108607,-91.910483
112,-0.247213,-0.658176,1.16169,2.83797,1.28066,1.48173,-4.96502,-2.412,0.778624,-1.81776,2.03009,-0.0527752,520.003273,-2876.215024,-60.478601,-111.77932,-32.886656,-96.752403
113,-0.0192421,-0.521359,1.08875,2.79984,1.62568,1.65334,-4.52247,-2.62174,1.43072,-1.89734,1.80478,-0.00674898,354.7305221,-3081.5565410000004,-139.13918,-89.031324,-45.94523,-90.247003
114,0.194982,-0.438714,0.748202,3.61734,1.88247,1.43169,-3.48035,-2.98753,1.6603,0.559063,0.402704,-2.26885,166.03225799999998,-3236.484886,-484.107762,-77.14306499999999,13.710516,-87.832823
115,-0.180083,-0.78034,1.10487,2.89206,1.74305,1.49303,-4.79745,-2.69962,1.00998,-1.27957,1.82671,0.000538916,414.351353,-2784.70876,-124.95659,-82.139252,-31.431569,-88.71450300000001
116,-0.26136,-0.431143,1.08043,2.89377,1.90667,1.69132,-5.22758,-2.75789,1.41176,-1.30025,2.40439,0.294507,613.57402,-3082.8211570000003,-151.12225,-68.774389,-41.273384,-80.904667
117,-0.126768,-0.553768,0.928257,3.24743,1.67833,1.50935,-4.50717,-2.89426,1.77579,-1.90815,1.19917,-0.0312346,436.937718,-3018.336532,-299.995077,-87.17164199999999,-12.042269000000001,-90.00739399999999
118,0.0803937,-0.835012,0.740633,3.18836,1.31734,1.6266,-4.3326,-3.17383,1.6359,-1.87459,1.21,0.084645,148.6823963,-2824.022788,-482.913613,-108.81422,-21.043746000000002,-97.930922
119,-0.308433,-0.459658,0.991225,3.01334,1.68831,1.58088,-5.22617,-2.84127,1.58069,-1.73487,2.21793,0.0727371,645.508633,-3043.229942,-236.58738499999998,-85.615583,-29.491621000000002,-89.17363999999999
120,-0.150125,-0.428389,1.0841,2.92038,1.24844,1.57601,-4.83525,-2.44691,1.31575,-2.34458,1.91264,-0.0437763,507.539325,-3125.782711,-137.33673000000002,-114.43808999999999,-32.972803,-99.350583
121,-0.0805601,-0.794217,0.926325,2.96025,1.43693,1.54767,-4.62484,-2.91233,1.38717,-1.74852,1.6417,0.0140021,316.3218001,-2806.251283,-298.538515,-101.787833,-30.323837,-94.623779
122,-0.395652,-0.575107,0.763111,3.27628,1.2805,1.66862,-5.19809,-3.10026,1.75605,-2.1135,1.9935,-0.174508,685.6257720000001,-2905.2109929999997,-458.00382099999996,-110.64209,-18.0805,-99.364716
123,0.0216599,-0.811433,1.16393,2.90722,1.4926,1.60437,-4.49514,-2.48507,0.73295,-1.46591,1.62122,0.0134519,215.0893401,-2824.6481670000003,-62.056796,-98.479424,-36.780921000000006,-93.939614
124,0.110728,-0.54983,0.969707,3.21833,1.79589,1.59791,-3.92938,-2.87909,1.69829,-1.6328,0.762903,-0.224174,216.27048200000002,-3103.35997,-261.052027,-79.91816899999999,-18.459571,-86.941466
125,0.337241,-0.789137,1.09462,3.18439,1.48834,1.43029,-3.91265,-2.60278,0.787347,-1.47452,0.59199,0.118572,-81.898798,-2956.484263,-132.8902,-98.146857,-10.9953927,-92.707667
126,0.246367,-0.706339,1.07364,3.7708,1.81463,1.6865,-3.87935,-2.6837,0.852054,-0.545894,0.285877,-0.598517,26.714963,-3002.872961,-158.15217,-82.489893,8.1316007,-85.624254
127,0.171545,-0.582398,0.958069,3.44667,1.57247,1.59831,-3.81178,-2.86384,1.59214,-1.86582,0.391686,-0.00431997,144.04825499999998,-3094.969302,-269.427999,-93.45020099999999,-5.7332499,-91.794578
128,0.137473,-0.885262,1.07797,3.42054,1.31877,1.44651,-4.19193,-2.54119,0.667082,-1.66078,0.676049,0.24088,69.443706,-2797.927238,-146.18625,-107.43005000000001,2.135884,-94.93906100000001
129,-0.243282,-0.511295,1.12214,3.56254,1.3502,1.62899,-4.73514,-2.47788,1.2179,-2.0952,1.22794,-0.0194705,557.4687220000001,-3018.890405,-100.789541,-105.13362,-0.07760960000000017,-96.802901
130,-0.149608,-0.847212,1.14422,2.89959,1.55668,1.49062,-4.73996,-2.52894,0.690904,-1.31762,1.75898,-4.75e-05,362.420118,-2733.097788,-82.62911,-94.064901,-30.911089,-91.99770400000001
131,-0.240221,-0.756132,1.02882,3.78422,1.37666,1.57321,-4.63814,-2.72604,1.14865,-1.76965,0.857192,0.0174487,466.82989100000003,-2788.365068,-195.57148,-103.148302,15.620757,-95.70563700000001
132,0.22277,-0.431825,0.771059,3.10103,1.61339,1.62124,-3.42987,-3.0504,2.10325,-2.07983,0.38068,-0.108998,153.80161,-3252.916675,-457.01419899999996,-90.534804,-26.858439,-90.853038
133,0.298731,-0.783576,1.037,3.45159,1.80296,1.68005,-3.9485,-2.80876,1.01491,-0.968,0.632233,-0.240104,-43.148204,-2948.1872240000002,-194.85097000000002,-80.810332,-9.7528469,-86.010048
134,0.218641,-0.885774,0.995204,3.43926,1.75494,1.66659,-4.12984,-2.85762,1.00106,-1.03754,0.795998,-0.121049,-2.9447752,-2825.375826,-235.454374,-83.38761600000001,-9.9006821,-87.283541
135,-0.172569,-0.861623,1.14,2.9734,1.34669,1.52185,-4.76099,-2.42012,0.510157,-1.45595,1.73784,-0.000729863,378.370029,-2711.3884770000004,-83.532798,-107.36869,-27.743862,-95.987335
136,-0.0455659,-0.710645,1.02376,2.89796,1.44912,1.69976,-4.62486,-2.74404,1.28919,-1.80986,1.85456,-0.00615055,314.4741759,-2894.911955,-201.57283,-102.175393,-42.546855,-96.317613
137,0.0860803,-0.847913,1.10289,3.57763,1.50013,1.5243,-4.21216,-2.59501,0.780601,-1.44268,0.589602,0.0653294,128.8686797,-2815.053487,-124.30768,-97.417149,6.0612941,-92.95118099999999
138,-0.084609,-0.763905,0.999822,2.86398,1.85113,1.54713,-4.66216,-2.9185,1.34118,-1.28896,1.77629,-0.0217679,331.341239,-2832.1036950000002,-231.603892,-74.460194,-35.709396,-85.722827
139,0.304985,-0.562575,0.930326,3.28643,1.42589,1.4746,-3.62306,-2.83684,1.55002,-2.40433,0.277415,0.510311,25.565852000000003,-3159.5906250000003,-295.09750599999995,-101.591326,-7.4624626,-93.81715799999999
140,-0.203143,-0.611639,0.850584,2.92456,1.74494,1.56387,-4.89729,-3.11004,1.77708,-1.62469,1.96186,0.0322642,495.254393,-2935.594961,-378.28109400000005,-81.624988,-33.538508,-87.896391
141,-0.0113074,-0.803757,1.12943,2.93221,1.4264,1.46069,-4.49038,-2.53861,0.856714,-1.60213,1.45068,0.0464093,246.0781774,-2821.377543,-95.744872,-102.121794,-26.956,-93.885589
142,-0.397738,-0.449614,0.844376,3.63931,1.67586,1.63626,-5.16642,-3.05113,1.87601,-1.87442,1.58933,0.0512562,724.296548,-3023.335986,-383.018466,-88.446241,3.1424025999999996,-89.363045
143,-0.234195,-0.402902,0.968057,3.49196,1.54694,1.68548,-4.8191,-2.6998,1.74284,-2.20718,1.44096,-0.00607902,588.713165,-3123.172998,-257.854787,-94.936435,-8.046471499999999,-92.55116699999999
144,0.313859,-0.544047,0.902634,2.99515,1.80675,1.45027,-3.62808,-3.03407,1.67996,-1.33815,0.5615,-0.423065,27.507883,-3178.6266530000003,-329.32775399999997,-78.802582,-23.121706,-88.542354
145,0.138919,-0.738074,0.873598,3.35017,1.54094,1.61979,-4.1114,-3.02912,1.58291,-1.73551,0.809636,0.0206559,123.243681,-2936.6073260000003,-353.744638,-95.188135,-12.454269,-92.522189
146,0.173673,-0.669966,0.97057,2.79865,1.40931,1.46315,-4.11392,-2.80452,1.46466,-1.96401,1.215,0.110662,119.44090700000001,-3010.243234,-254.67323000000002,-103.51163,-34.713868999999995,-94.506112
147,0.154696,-0.677951,0.81818,3.47644,1.37473,1.5182,-3.97192,-3.03397,1.69963,-2.2244,0.471377,0.309694,125.884204,-2998.343849,-406.53823,-104.16631,1.1542685000000001,-95.089979
148,0.0114813,-0.686794,0.87176,2.84537,1.28758,1.67878,-4.51762,-2.92322,1.60359,-2.09904,1.78297,0.0240306,269.3549687,-2936.1789059999996,-351.08833,-114.16675000000001,-43.103969,-101.589584
149,0.30321,-0.406678,0.96063,3.09022,1.34749,1.52166,-3.28845,-2.59163,1.5487,-3.0885,0.267944,0.98386,84.03413699999999,-3304.958422,-263.29749999999996,-106.70317,-20.97293,-95.81656199999999
150,-0.0488077,-0.473108,1.04155,3.61582,1.49142,1.44525,-3.95618,-2.58375,1.53965,-2.42056,0.223887,0.278315,383.2804977,-3121.3471919999997,-183.88379,-97.786504,12.97387,-92.785197
151,-0.0587564,-0.848305,1.0002,3.80589,1.29799,1.69963,-4.40415,-2.74426,1.06556,-1.78497,0.733922,0.071026,265.3522364,-2764.326495,-223.91971,-106.38352,10.195986,-99.147835
152,-0.27254,-0.498698,0.856593,3.20689,1.53986,1.58209,-5.00636,-2.97224,1.84576,-2.04702,1.80983,-0.0104592,595.3042,-3019.124202,-369.38942299999997,-95.247763,-18.488423,-92.494028
153,0.196007,-0.414979,1.17938,2.88523,1.23605,1.41479,-3.44133,-2.20631,1.00032,-2.63097,0.519284,0.713588,184.06147299999998,-3259.184021,-42.716237,-113.57373999999999,-26.295454,-95.750371
154,0.318306,-0.45024,0.719859,3.23145,1.35005,1.47301,-3.38553,-2.9358,1.92598,-3.46848,0.226132,1.30969,52.631633,-3269.5384599999998,-504.088759,-105.94369999999999,-10.2341474,-94.91220200000001
155,0.222712,-0.588604,0.736819,3.2758,1.50725,1.55681,-3.77705,-3.19335,1.96448,-2.04693,0.490111,0.109154,96.034234,-3106.257196,-489.958249,-97.074347,-13.05126,-93.058861
156,0.0814615,-0.482234,0.981663,3.0043,1.78249,1.63103,-3.97165,-2.78329,1.77046,-1.88556,1.0427,-0.154379,269.8334185,-3155.209466,-248.81552299999998,-79.222095,-32.640919000000004,-86.434843
157,-0.249402,-0.756405,1.01376,3.06677,1.74441,1.409,-4.83179,-2.86747,1.27322,-1.37426,1.60307,-0.00816089,484.693512,-2785.766795,-215.32113999999999,-82.94632200000001,-16.656368,-89.698828
158,0.177458,-0.724747,1.13601,3.09113,1.60761,1.63197,-4.12085,-2.60402,1.03076,-1.52705,1.09052,-0.0218638,94.829337,-2961.221753,-92.482928,-90.918586,-28.108786000000002,-90.95681599999999
159,0.366168,-0.58797,1.0189,3.24583,1.22771,1.74395,-3.67358,-2.63671,1.22367,-2.29407,0.674178,0.422029,-36.690553,-3154.87833,-204.03598,-114.58679,-23.342654000000003,-102.545
160,-0.109018,-0.43729,0.749643,3.06964,1.78095,1.49786,-4.46787,-3.07832,2.23138,-2.07903,1.33174,-0.0679262,462.709348,-3133.10161,-479.794033,-80.41593400000001,-21.48778,-88.316677
161,-0.251177,-0.535149,0.890356,2.79981,1.70909,1.70676,-5.13965,-3.03786,1.67186,-1.5661,2.46751,0.117256,570.086297,-2988.398651,-338.039906,-82.064138,-48.804963,-86.693476
162,-0.390655,-0.456828,0.78835,3.46189,1.32521,1.71928,-5.26431,-3.02825,1.86199,-2.22443,1.93058,-0.168956,719.5908850000001,-3018.3440720000003,-434.07133,-107.1535,-10.6684251,-98.712256
163,0.140556,-0.464974,0.837942,3.3661,1.33008,1.68551,-3.62411,-2.77319,1.89399,-2.85175,0.431497,0.490071,215.409504,-3194.327726,-385.221702,-107.23123,-14.293371,-98.26826399999999
164,-0.221618,-0.843544,0.926341,3.69394,1.60276,1.55727,-4.63705,-2.96197,1.27714,-1.4229,0.928909,-0.00435573,420.94701799999996,-2712.946856,-301.402221,-92.21079399999999,10.788267,-91.10045600000001
165,0.285461,-0.445244,0.893335,3.79376,1.3433,1.46178,-3.44374,-2.5525,1.08113,-4.4313,0.503168,2.66393,76.154942,-3261.511556,-331.756825,-105.00243,22.559158,-95.109451
166,-0.202266,-0.719918,1.1587,3.45004,1.47803,1.61111,-4.68337,-2.5089,0.906442,-1.63167,1.27283,-0.00189048,449.077646,-2836.8426820000004,-66.47497899999999,-98.63663,-6.06626,-93.820189
167,0.0139126,-0.7106,0.950918,3.51938,1.2343,1.62318,-4.25418,-2.77601,1.39804,-2.19893,0.815021,0.179092,247.1200574,-2918.9318000000003,-271.489638,-111.49783,-1.39128456,-99.369304
168,0.0955758,-0.553154,0.960059,3.73014,1.39027,1.63199,-3.84498,-2.71056,1.56518,-2.73201,0.224199,0.621449,220.87314419999998,-3095.8366459999997,-264.705949,-102.437944,9.180877,-96.062858
169,0.17918,-0.667804,1.09412,2.97752,1.44875,1.51286,-4.05007,-2.61167,1.17626,-1.84776,1.01954,0.0936084,113.08928,-3015.049796,-131.8599,-100.886845,-27.41654,-94.07291500000001
170,0.110325,-0.808999,0.821764,2.81826,1.31815,1.54206,-4.3636,-3.04584,1.53437,-1.86979,1.52662,0.0915861,132.899585,-2856.3669010000003,-402.13861399999996,-110.23128,-37.491048000000006,-97.53873
171,-0.230185,-0.707359,1.08891,2.92831,1.23092,1.44686,-4.87169,-2.54097,0.9571,-1.90057,1.81657,-0.0129364,485.482185,-2836.508641,-132.66011,-114.12261,-25.539538,-96.402501
172,0.196124,-0.634724,0.961873,3.05117,1.37856,1.58537,-3.97756,-2.79032,1.50097,-2.08755,0.955003,0.154187,108.929356,-3051.716476,-262.611783,-105.41723,-26.941253,-96.26916899999999
173,0.317644,-0.477944,0.817718,3.22939,1.73798,1.56272,-3.45262,-3.12527,1.78957,-1.13367,0.269684,-0.640103,45.910098,-3242.523956,-412.945718,-83.548874,-16.042778,-88.569165
174,-0.326005,-0.668279,1.17062,3.71482,1.6686,1.48926,-4.78865,-2.55278,0.936294,-1.42721,0.991503,-0.0014475,577.112695,-2841.873121,-57.251909,-88.859356,15.819495000000002,-90.060748
175,-0.228207,-0.760998,0.924211,3.27242,1.43297,1.601,-4.7893,-2.91327,1.4035,-1.76837,1.54505,-0.0154493,462.663407,-2788.245302,-300.23040100000003,-101.489995,-15.476923,-94.837942
176,0.300746,-0.642576,1.18591,3.47714,1.67168,1.74009,-3.7694,-2.51858,0.843668,-1.25467,0.468317,-0.157323,2.6148203,-3082.3609239999996,-43.968602,-88.103054,-12.11064,-89.12614699999999
177,0.238965,-0.705167,0.957766,3.1302,1.6662,1.65463,-4.00006,-2.93233,1.46389,-1.55637,0.95619,-0.0694936,44.403301,-3000.232833,-271.827136,-87.259544,-27.0645,-89.417725
178,0.291355,-0.633144,0.992144,2.89686,1.88557,1.50928,-3.86753,-2.92954,1.48184,-1.31719,0.955051,-0.30369,20.092036,-3084.936756,-241.051304,-72.94451600000001,-31.670233,-86.129774
179,0.0611835,-0.878311,1.0936,3.33468,1.86688,1.54542,-4.32478,-2.71975,0.86504,-0.936158,0.984776,-0.141933,146.9761365,-2776.806089,-139.15001,-76.76924100000001,-8.702009199999999,-86.41888800000001
180,0.227314,-0.830577,1.05265,3.03607,1.63859,1.39901,-4.10226,-2.75145,1.00778,-1.31148,0.895594,-0.0620258,9.3036377,-2879.3867229999996,-177.00354,-89.246634,-17.914741,-91.006845
181,0.255281,-0.663477,0.961364,3.62078,1.31026,1.45464,-3.81508,-2.66593,1.19086,-2.97521,0.238701,1.17783,31.933384,-3046.396023,-262.85650400000003,-107.21305,13.237733,-95.280368
182,0.22072,-0.437244,0.978454,3.09771,1.39484,1.46383,-3.42799,-2.60467,1.59978,-2.81328,0.283141,0.663645,150.42126,-3248.0665559999998,-245.968534,-103.63463,-17.508373,-94.259322
183,-0.374715,-0.843922,1.06364,3.43749,1.36958,1.63299,-4.95145,-2.6056,0.746107,-1.47457,1.56956,-0.0600994,570.136655,-2660.267578,-159.87304,-104.65449,-7.5321288,-96.437082
184,0.351719,-0.505867,1.06077,3.55368,1.43535,1.62164,-3.47399,-2.38902,0.913258,-3.49666,0.128253,1.77771,-1.28836719,-3228.881633,-165.46964,-100.670521,-0.5468706799999999,-94.907473
185,-0.276687,-0.854935,1.09224,3.69253,1.44701,1.52947,-4.71282,-2.59169,0.75006,-1.42722,0.978349,0.00531388,467.607167,-2683.0657650000003,-133.25438,-100.05656900000001,12.559835999999999,-93.89199500000001
186,0.293857,-0.829102,1.12732,3.20099,1.87289,1.73886,-4.06888,-2.65544,0.777678,-0.916306,1.05877,-0.15761,-50.510202,-2901.6788979999997,-106.12053999999999,-74.368279,-26.855781999999998,-82.730065
187,0.0458332,-0.545692,1.15348,2.91212,1.22176,1.45034,-4.1734,-2.35294,1.05548,-2.21273,1.17928,0.227739,279.38710679999997,-3083.618308,-68.48218,-114.78128,-26.613394,-96.817229
188,-0.153789,-0.884173,0.833542,2.82922,1.6738,1.56342,-4.7839,-3.12638,1.36756,-1.27735,1.94595,0.00624715,356.718349,-2695.596527,-394.557142,-86.01250800000001,-39.109584,-89.36275599999999
189,0.17056,-0.606402,0.833567,3.24779,1.44097,1.59632,-3.90806,-2.99886,1.80684,-2.15228,0.694153,0.141789,139.73895000000002,-3070.786298,-392.169177,-101.065322,-16.613955,-94.76689400000001
190,-0.335693,-0.665908,1.03163,3.69822,1.45046,1.74042,-4.90217,-2.73873,1.26209,-1.76933,1.37049,-0.0439075,591.844393,-2841.279892,-193.28402,-99.64689800000001,0.8736117000000001,-95.354139
191,-0.202819,-0.802526,0.763871,2.89842,1.63014,1.41737,-4.80532,-3.24383,1.64112,-1.48027,1.75262,-0.00449926,428.001869,-2756.910574,-464.08721099999997,-89.429637,-26.831196000000002,-90.928753
192,-0.333938,-0.828855,1.08454,3.82877,1.40079,1.66474,-4.79736,-2.60356,0.789311,-1.47793,1.05965,-0.0353511,530.692508,-2687.8738449999996,-140.22823,-101.68970900000001,12.834143,-96.112237
193,-0.284426,-0.617874,1.10039,3.2235,1.64011,1.55276,-4.93795,-2.67387,1.22823,-1.62646,1.69494,0.0134871,564.469586,-2903.716626,-127.22028,-89.280466,-15.939195,-90.42358
194,0.184541,-0.486193,1.10887,3.20505,1.70518,1.44701,-3.59466,-2.6283,1.32903,-1.36543,0.295985,-0.450988,165.549809,-3189.938507,-121.0924,-85.567439,-10.951613700000001,-90.01236800000001
195,-0.0961004,-0.430518,0.87016,3.3241,1.24972,1.71926,-4.36462,-2.67249,1.84955,-2.65804,1.19862,0.0664907,451.58758040000004,-3143.716082,-351.17675,-112.36392000000001,-17.794822,-101.065983
196,0.0544608,-0.838668,0.733804,3.14559,1.30006,1.50939,-4.35297,-3.17813,1.63835,-1.89751,1.16148,0.118572,170.6128592,-2811.925032,-489.464374,-109.45948,-16.92025,-96.336215
197,-0.314983,-0.771663,1.14417,3.74238,1.68824,1.56648,-4.77176,-2.58986,0.825087,-1.26375,1.02403,0.00680966,531.821043,-2747.907137,-84.422274,-88.16511799999999,12.987651999999999,-89.353284
198,-0.115705,-0.620678,1.10006,3.20186,1.72173,1.58733,-4.574,-2.68388,1.33884,-1.64331,1.38901,-0.0193508,405.264595,-2958.620822,-129.25584,-84.312213,-19.036505000000002,-88.60153799999999
199,0.19236,-0.676562,0.887487,3.37707,1.80872,1.41981,-3.92236,-3.07013,1.51735,-1.0308,0.447831,-0.45653,90.952285,-3012.433838,-344.00941700000004,-80.215264,0.5480172999999997,-88.955783
200,0.375368,-0.751814,0.784588,2.83108,1.66401,1.49448,-3.92279,-3.21888,1.60014,-1.41842,1.01818,-0.0842851,-97.60856199999999,-3002.0612859999997,-445.749028,-87.043951,-35.102503999999996,-90.190056
201,-0.111269,-0.530103,0.969028,3.05355,1.67331,1.46827,-4.53788,-2.81405,1.71725,-1.94091,1.38228,-0.0293792,432.837579,-3045.373197,-259.17981799999995,-87.030395,-20.817134,-90.24290500000001
202,0.189521,-0.898895,1.08246,3.3549,1.49616,1.56421,-4.16862,-2.60454,0.704468,-1.34269,0.808472,0.0530272,18.799666000000002,-2803.022205,-144.81619,-97.768879,-8.9005174,-93.260051
203,-0.332488,-0.833226,1.164,3.27357,1.70466,1.66463,-4.95302,-2.49953,0.537076,-1.04371,1.76945,0.0438484,536.991098,-2684.6500739999997,-64.504833,-85.446505,-19.370379,-88.380649
204,0.0214616,-0.702342,1.19474,3.35095,1.52836,1.64682,-4.28627,-2.45509,0.885801,-1.62127,1.0112,0.0162881,246.14934839999998,-2930.0765579999997,-31.756528,-95.916788,-13.939117,-92.880528
205,-0.375741,-0.496926,0.893733,3.38773,1.26041,1.40824,-5.07445,-2.83627,1.64498,-2.25141,1.51406,-0.0614279,687.3917909999999,-2986.2728740000002,-327.34968299999997,-110.73206,2.6755677999999996,-94.88839700000001
206,0.219727,-0.503844,0.718258,3.35758,1.45165,1.54623,-3.58804,-3.10345,2.07271,-2.63529,0.234127,0.485894,127.26830299999999,-3185.429356,-507.08583799999997,-100.074338,-7.5261838,-93.942697
207,-0.383434,-0.693134,0.981581,3.78601,1.83127,1.48524,-4.86376,-2.93015,1.34129,-1.30421,0.989321,0.0193991,622.2398539999999,-2797.754966,-248.244491,-81.04178300000001,20.336685,-87.433648
208,0.17401,-0.700038,1.02511,3.53289,1.87321,1.42748,-3.96154,-2.81233,1.09205,-0.596733,0.38422,-0.669181,97.57518300000001,-2983.427662,-207.25927000000001,-77.346723,9.151829,-88.090926
209,-0.060181,-0.643529,0.948923,3.25217,1.40456,1.72546,-4.49234,-2.81371,1.56131,-2.05686,1.39507,0.0102083,346.490921,-2955.876871,-275.179263,-103.64802,-23.531234,-96.950274
210,-0.330723,-0.753896,1.07462,3.28896,1.82253,1.67714,-4.9773,-2.77513,1.06113,-1.17311,1.78233,0.0916936,562.330323,-2759.1370039999997,-155.92051,-78.541375,-18.756422,-85.281787
211,0.00669551,-0.582377,0.998476,3.36313,1.34378,1.7196,-4.21812,-2.67162,1.50407,-2.23568,1.013,0.0890608,301.32074449000004,-3036.947123,-225.076516,-106.68965,-16.508841,-98.429529
212,0.379599,-0.802231,0.870013,3.35556,1.32243,1.47066,-3.87364,-2.93398,1.22174,-1.9843,0.47343,0.449246,-127.519499,-2958.717569,-354.97426299999995,-107.37492999999999,-2.8778912,-95.239885
213,0.234053,-0.469121,1.00652,3.25621,1.6188,1.58693,-3.49705,-2.76382,1.57923,-1.77088,0.260453,-0.17549,126.731657,-3222.549579,-222.03794,-90.566851,-15.927574,-90.85931
214,0.0257747,-0.403236,0.729582,2.82401,1.52364,1.50833,-3.93624,-2.87418,2.25082,-2.56987,1.05005,0.0396476,351.1219453,-3210.434764,-495.93303199999997,-96.150413,-36.157055,-92.791613
215,0.378517,-0.640476,1.00663,3.549,1.91505,1.56167,-3.68231,-2.73786,0.842158,0.0251111,0.330147,-1.11408,-74.110241,-3110.3648239999998,-227.46949,-75.588963,2.7552992000000005,-85.349542
216,0.0216138,-0.64926,0.754543,2.92235,1.2541,1.49537,-4.3648,-3.06222,1.87883,-2.27247,1.38622,0.12969,269.0869662,-2977.31454,-467.52072300000003,-113.16548999999999,-28.626224,-97.310851
217,-0.359789,-0.889568,0.939728,3.20124,1.61165,1.61398,-4.97673,-2.90878,1.04152,-1.23241,1.81758,0.0118958,544.2091889999999,-2622.119432,-287.387058,-90.91584399999999,-20.707133000000002,-90.855632
218,0.0827289,-0.724455,0.94273,3.0192,1.77596,1.41519,-4.23412,-2.9874,1.53726,-1.45924,1.0728,-0.138498,181.9456711,-2928.871345,-288.42183,-80.940076,-19.815035,-89.335613
219,-0.285689,-0.735346,1.19962,3.58436,1.25781,1.74266,-4.83002,-2.28534,0.467882,-1.61008,1.40411,-0.0899819,522.3029590000001,-2793.148554,-22.325333,-109.8861,-4.4593892,-100.77528
220,-0.216013,-0.610649,0.946916,3.1476,1.71229,1.58483,-4.83866,-2.93793,1.62758,-1.68867,1.70273,0.0189444,504.492373,-2933.346851,-281.973106,-84.656806,-22.037929,-88.750598
221,0.0983903,-0.523532,0.98053,2.8998,1.32172,1.43801,-3.97997,-2.64843,1.58257,-2.36921,0.974404,0.227823,238.8961597,-3122.808968,-242.68643999999998,-108.4897,-27.106492,-95.19222
222,0.180915,-0.526682,0.935337,3.01412,1.8941,1.48861,-3.79156,-2.96202,1.76645,-1.47073,0.759581,-0.400072,158.566665,-3148.287218,-297.531367,-73.355958,-23.781759,-86.634424
223,-0.187345,-0.537115,0.995325,3.12089,1.60404,1.72676,-4.87695,-2.79227,1.57841,-1.89256,1.911,0.0102802,505.059875,-3011.365485,-231.705935,-91.167772,-31.748061,-90.962709
224,0.228277,-0.561686,1.15325,3.08488,1.23269,1.60891,-3.8065,-2.37297,0.972936,-2.21188,0.819748,0.35266,102.233453,-3131.705314,-69.350981,-114.54705,-25.255279,-99.87698599999999
225,0.255499,-0.580656,0.881057,3.19092,1.73914,1.57266,-3.74631,-3.05206,1.72557,-1.50406,0.578047,-0.255399,69.11857,-3124.554244,-349.378647,-83.22392,-18.893463,-88.356531
226,1.49e-05,-0.666363,0.825987,3.80903,1.69568,1.47134,-4.14355,-3.13725,1.655,-1.25339,0.250333,-0.317812,269.6163451,-2955.5632370000003,-402.70009699999997,-87.724883,22.249556000000002,-89.736117
227,-0.211804,-0.427652,1.17042,3.6574,1.40203,1.56676,-4.49619,-2.35285,1.19223,-2.17897,0.837582,0.0486833,553.544124,-3107.839848,-53.667829,-102.26342199999999,8.631097,-95.075523
228,0.218165,-0.873995,0.789476,2.84366,1.81166,1.61464,-4.26252,-3.2381,1.48409,-1.15641,1.47282,-0.0956185,9.4554394,-2831.5638050000002,-442.83917599999995,-76.17564899999999,-40.75041100000001,-85.27135299999999
229,-0.0986953,-0.584824,0.851112,3.08903,1.8567,1.50724,-4.53634,-3.10277,1.90699,-1.65548,1.3927,-0.0689071,402.63400529999996,-2997.625576,-379.809912,-75.91910999999999,-20.622288,-86.95134999999999
230,0.313854,-0.535549,1.17831,3.05897,1.29806,1.63982,-3.64598,-2.3595,0.906058,-2.11591,0.704374,0.355999,31.216509000000002,-3186.030551,-45.546937,-110.91484,-28.992663,-99.130092
231,0.207817,-0.595322,0.782508,2.80483,1.62668,1.69084,-4.04301,-3.14925,1.94733,-1.88569,1.35803,-0.0305999,116.64846299999999,-3089.763978,-445.819428,-88.816554,-47.811021000000004,-90.093487
232,-0.218551,-0.492353,1.0943,2.96809,1.66936,1.41262,-4.89783,-2.63879,1.41908,-1.82291,1.77049,0.00187928,547.0554910000001,-3043.7674469999997,-133.68251,-87.185238,-22.579775,-90.515913
233,0.124879,-0.693053,0.749429,3.66699,1.54477,1.72573,-4.0327,-3.22804,1.82824,-1.78712,0.520076,0.025371,149.22570100000002,-2973.982047,-478.025079,-95.051571,-0.3573134,-92.659149
234,-0.0314828,-0.480325,0.987107,3.5914,1.30724,1.56512,-3.97311,-2.56629,1.5765,-2.75045,0.42906,0.43754,366.7767528,-3120.433675,-235.74538700000002,-107.274,5.4685958999999995,-96.89934
235,-0.335364,-0.892597,0.806323,2.8317,1.4097,1.50866,-5.00816,-3.06998,1.23287,-1.4836,2.11016,-0.0440992,524.143334,-2625.884903,-417.34427300000004,-103.62222,-35.403482000000004,-94.94516200000001
236,0.195245,-0.766216,0.86334,3.35031,1.52557,1.73411,-4.08923,-3.04622,1.54045,-1.6924,0.902214,0.0247965,62.584764,-2928.901084,-363.81158999999997,-96.184226,-18.949512,-93.32463
237,0.0635951,-0.854343,0.890881,3.50289,1.86845,1.69104,-4.30015,-3.08661,1.36674,-1.07308,0.931523,-0.106078,153.5495449,-2800.948157,-340.851901,-77.628062,-7.1095232,-84.217452
238,0.0977712,-0.706495,1.04192,2.99823,1.32637,1.67772,-4.29761,-2.66008,1.22461,-1.95101,1.41424,0.0734674,178.5657588,-2949.190905,-181.89711,-109.9715,-34.749903999999994,-99.38307499999999
239,0.144136,-0.784661,1.11056,3.72748,1.40889,1.42781,-4.06273,-2.52276,0.761599,-2.0142,0.228773,0.530312,93.283928,-2893.453839,-115.08224000000001,-102.064374,20.555736,-93.686917
240,0.126017,-0.576275,0.913851,3.82318,1.34746,1.69748,-3.83977,-2.76649,1.59219,-2.89912,0.215892,0.777216,184.031363,-3084.380025,-310.601511,-103.916,10.997043,-97.966561
241,0.361656,-0.520205,1.17712,3.14211,1.52747,1.70365,-3.54415,-2.48412,1.0182,-1.76089,0.535449,0.0723308,-7.6617969,-3217.1684950000003,-50.299941000000004,-96.13419,-29.134382000000002,-93.27727999999999
242,-0.257349,-0.869922,0.833804,3.69536,1.40086,1.54199,-4.68759,-3.0539,1.35925,-1.62301,0.963445,0.0102203,445.33000899999996,-2676.012478,-390.50325399999997,-102.27452899999999,12.179156,-94.82623099999999
243,0.134775,-0.431623,1.02408,3.30523,1.80088,1.7161,-3.53621,-2.7162,1.64877,-1.50699,0.432469,-0.486837,233.873185,-3223.189777,-206.97862,-79.712875,-20.095119999999998,-85.403161
244,0.0639724,-0.877817,1.15974,3.52488,1.35473,1.6835,-4.30502,-2.36372,0.410201,-1.44486,0.90008,0.0786615,143.56790759999998,-2778.999183,-65.197386,-105.19998,-5.292513899999999,-97.395474
245,0.287583,-0.475988,0.935162,3.09326,1.80273,1.6233,-3.51567,-2.94286,1.71976,-1.44257,0.52496,-0.431455,76.661935,-3232.805112,-296.579412,-78.573472,-27.040607,-86.287963
246,0.387942,-0.75178,1.15405,3.05698,1.33245,1.45375,-3.8533,-2.38132,0.496445,-1.62425,0.714728,0.30194,-114.976382,-3008.36102,-71.248272,-107.57591,-19.023728000000002,-95.115608
247,0.136019,-0.486472,0.750723,3.12574,1.4428,1.72125,-3.808,-2.98756,2.10717,-2.43345,0.839394,0.116957,217.100811,-3170.684428,-474.50359299999997,-101.72601499999999,-30.724575,-96.121004
248,-0.212447,-0.451691,1.18769,2.95371,1.63779,1.45417,-4.94032,-2.46009,1.19281,-1.80563,1.86872,0.00688157,556.048687,-3084.382409,-39.57461000000001,-88.969098,-25.753830999999998,-90.733637
249,-0.321965,-0.453639,1.01521,3.32404,1.9178,1.65756,-5.14128,-2.86116,1.61219,-1.53503,1.87296,0.175669,656.127265,-3045.202861,-215.86411999999999,-73.27295699999999,-15.088954,-83.436104
250,-0.115594,-0.40901,0.722495,3.06859,1.38545,1.46733,-4.43174,-2.88597,2.1968,-2.64644,1.26548,0.0715286,478.130324,-3157.6910900000003,-500.509775,-104.35142,-19.398991,-94.466899
251,-0.0573532,-0.447731,0.715317,3.34728,1.37722,1.51749,-4.04367,-2.90836,2.19544,-2.73993,0.66218,0.207407,406.4489332,-3142.281469,-507.726237,-104.29478,-6.1838406,-95.07887
252,-0.0313854,-0.671415,0.821953,3.24926,1.64835,1.68943,-4.42832,-3.11813,1.83077,-1.77396,1.29733,-0.0140131,309.5544754,-2940.155885,-405.857463,-88.64806200000001,-22.319913,-89.783035
253,0.0816243,-0.606054,0.847655,3.43753,1.24617,1.4095,-3.98381,-2.8602,1.69783,-2.70565,0.477222,0.569069,218.2199357,-3040.605446,-374.347445,-111.34786,5.5580292,-95.034776
254,-0.030348,-0.833721,1.16533,2.88938,1.66861,1.72009,-4.6265,-2.53099,0.698764,-1.20993,1.88513,0.00562472,258.287398,-2784.2124790000003,-63.422301,-85.788901,-44.553558,-88.401019
255,-0.328313,-0.556227,0.724369,2.91844,1.37343,1.49102,-5.16374,-3.18603,1.89383,-2.08078,2.15655,-0.086212,631.6232229999999,-2944.765573,-498.702529,-105.62501,-29.268518999999998,-95.206055
256,-0.0259766,-0.560966,1.06432,3.53754,1.30147,1.51485,-4.12248,-2.53766,1.32562,-2.40434,0.566444,0.302083,333.67883659999995,-3046.669434,-158.62899000000002,-107.89224999999999,5.0990211,-96.236052
257,0.0410417,-0.541877,1.16381,3.6791,1.45364,1.73229,-3.94584,-2.4411,1.15191,-2.09293,0.435469,0.157813,278.7963883,-3088.180923,-61.565281,-99.50622600000001,0.26571140000000004,-95.268618
258,0.307635,-0.502877,0.747597,3.6462,1.84079,1.65293,-3.5085,-3.08487,1.54658,0.259301,0.246012,-1.73873,41.447472000000005,-3215.319223,-484.285537,-80.197457,2.9567214,-85.48056799999999
259,0.194322,-0.536112,1.06546,3.47592,1.65025,1.7419,-3.70653,-2.70335,1.41445,-1.66175,0.406341,-0.150226,139.135568,-3146.2471880000003,-163.53741,-89.232048,-12.328061,-89.73075
260,0.237431,-0.548292,1.03886,3.67796,1.79675,1.70868,-3.65646,-2.72748,1.15993,-0.490733,0.219661,-0.95688,90.676748,-3149.443108,-192.61524,-82.702952,1.4442701,-85.935784
261,-0.306404,-0.754406,0.986539,3.67807,1.22356,1.63617,-4.79698,-2.74572,1.17462,-1.8929,1.17527,-0.0557788,532.2228140000001,-2767.293894,-235.62869899999998,-111.00294000000001,7.0041532,-99.812163
262,-0.251708,-0.623038,0.90177,2.91085,1.50136,1.65308,-5.0278,-2.96093,1.57243,-1.83663,2.19717,-0.034118,538.299638,-2906.6821619999996,-323.9245,-98.127411,-39.385107999999995,-94.11492100000001
263,-0.3395,-0.75746,0.964985,2.97141,1.29174,1.54172,-5.04344,-2.78877,1.13854,-1.79906,2.02961,-0.0922678,572.26576,-2751.82324,-256.938265,-110.94967000000001,-28.616773000000002,-97.44360499999999
264,0.324901,-0.47841,0.772241,3.45965,1.56784,1.66096,-3.43351,-3.16282,1.91381,-1.93702,0.0633718,0.0426035,36.530848000000006,-3245.44659,-455.561371,-93.712379,-8.593919099999999,-91.986686
265,0.101775,-0.753722,0.930853,3.11185,1.31813,1.49587,-4.22527,-2.85092,1.40921,-1.99092,1.05702,0.152775,154.208335,-2908.586278,-292.47515300000003,-108.43142,-18.284143,-95.901984
266,-0.240049,-0.772462,0.988276,3.60203,1.29204,1.59843,-4.69781,-2.76168,1.20051,-1.85749,1.12228,-0.00476247,464.037739,-2773.409238,-234.698396,-108.06693,4.2280292,-97.6317
267,-0.0317525,-0.756963,0.76655,3.69715,1.50033,1.58254,-4.30766,-3.19597,1.724,-1.77234,0.622923,0.0454996,271.8253325,-2859.7363370000003,-459.82742,-97.26745399999999,9.6319,-93.21231399999999
268,0.0796581,-0.662656,1.10936,2.92818,1.67238,1.71705,-4.34104,-2.66436,1.24426,-1.6223,1.55916,-0.0235155,212.03802190000002,-2983.386044,-119.70152,-85.724758,-42.182134,-88.449236
269,0.0369987,-0.624184,1.08109,3.51586,1.35346,1.4863,-4.07885,-2.57078,1.22355,-2.21932,0.508292,0.295034,252.7310813,-3008.6692160000002,-143.08503,-105.24863,5.2586195,-95.04663
270,-0.0407838,-0.492047,0.975247,3.74624,1.30609,1.63662,-4.00342,-2.60269,1.59531,-2.7666,0.372782,0.444697,370.3691538,-3106.045753,-247.832847,-106.43049,10.319191,-98.06065299999999
271,-0.243127,-0.739614,1.17183,3.60164,1.28721,1.41175,-4.64913,-2.38427,0.651779,-1.73579,0.897825,0.0781465,475.23836700000004,-2803.051486,-50.898465,-108.77926000000001,14.604296,-94.69993099999999
272,-0.118545,-0.622952,0.865218,3.30033,1.51351,1.65091,-4.56403,-2.97658,1.77678,-1.99984,1.34288,0.0032672,407.042555,-2955.2690479999997,-360.87155800000005,-96.86577100000001,-16.980936,-93.34781699999999
273,-0.385155,-0.89124,0.802093,3.66932,1.3244,1.69286,-4.90387,-3.06822,1.28379,-1.57497,1.34759,-0.0779904,561.625215,-2612.65626,-420.548493,-105.90615,2.5963836999999996,-98.241395
274,0.205011,-0.553345,0.900663,3.33543,1.48984,1.60222,-3.72963,-2.89776,1.72322,-2.15812,0.431221,0.157382,124.206169,-3133.697955,-325.469483,-98.063299,-12.163756,-93.66682300000001
275,0.221099,-0.483469,0.902959,3.13482,1.74099,1.58013,-3.58554,-2.95396,1.81594,-1.63385,0.487603,-0.331744,135.185991,-3203.9302310000003,-327.600149,-82.86161100000001,-22.491391,-88.318496
276,-0.387645,-0.430061,1.12376,3.79689,1.71916,1.72484,-5.12437,-2.61108,1.33063,-1.74336,1.47593,0.0788764,719.702385,-3045.438339,-104.06382,-87.029154,7.1907035,-87.733315
277,-0.397234,-0.867829,0.947704,3.14218,1.60519,1.71508,-5.07114,-2.88111,0.973858,-1.19528,2.07186,0.0181666,589.223384,-2629.1416710000003,-278.808974,-91.077687,-29.903937,-90.864835
278,-0.349286,-0.616092,1.16544,3.07273,1.50454,1.42347,-5.0755,-2.50527,0.922003,-1.62697,1.85426,-0.015581,626.561356,-2883.7031079999997,-59.542393999999994,-97.122072,-17.011619,-92.42312299999999
279,-0.306184,-0.819324,1.08562,3.3356,1.69631,1.45047,-4.83703,-2.70613,0.933981,-1.24383,1.38041,-0.000274483,512.8343540000001,-2707.146976,-143.14365,-86.42246,-3.6327534999999997,-89.979402
280,-0.313114,-0.671919,1.19418,3.33134,1.76839,1.65183,-4.96258,-2.54397,0.886281,-1.28832,1.70508,0.0635344,572.601524,-2842.8845810000003,-35.470858,-82.086124,-15.158145,-86.997063
281,-0.366979,-0.500763,1.03601,3.72328,1.75061,1.53049,-4.94677,-2.78006,1.50161,-1.70097,1.17992,0.0365605,674.198699,-2985.006737,-192.43630000000002,-84.861199,14.085335,-88.41449
282,0.264088,-0.519486,0.92444,3.13341,1.288,1.74468,-3.68393,-2.75445,1.6298,-2.43041,0.767486,0.307122,84.754935,-3183.548014,-298.85015,-111.93227,-30.375802,-101.33169600000001
283,-0.208901,-0.820842,0.982979,2.97029,1.51906,1.73522,-4.88273,-2.83722,1.12967,-1.49249,2.07557,-0.020284,430.48751100000004,-2736.055758,-242.602389,-96.94865200000001,-40.766815,-93.92597599999999
284,-0.260623,-0.814816,0.834176,2.96277,1.69988,1.4142,-4.87215,-3.14671,1.48399,-1.34987,1.75218,-0.000429932,477.198843,-2726.0047839999997,-394.281516,-85.360656,-22.960593,-90.12366399999999
285,0.315769,-0.536915,1.12493,3.386,1.65106,1.6083,-3.56482,-2.6263,1.10279,-1.2672,0.228245,-0.323808,24.204767,-3187.138885,-104.71090000000001,-89.04257199999999,-9.766847799999999,-90.241207
286,0.361014,-0.677461,0.884228,3.21156,1.75971,1.55801,-3.77456,-3.07842,1.47654,-1.18905,0.576199,-0.284936,-63.833605,-3069.618639,-347.075698,-82.188495,-16.84788,-88.190748
287,0.348237,-0.686548,0.995377,2.86342,1.53298,1.62403,-3.90321,-2.82806,1.32641,-1.68086,1.09256,0.028291,-48.735676,-3053.990852,-232.171437,-95.80875900000001,-40.56839,-93.05068100000001
288,0.303908,-0.589971,1.11144,2.94776,1.76811,1.57351,-3.77266,-2.69187,1.25029,-1.44067,0.847382,-0.212877,23.063386,-3130.676029,-119.96486,-80.22855700000001,-32.733850000000004,-87.386055
289,0.12552,-0.802332,0.846995,2.81908,1.63746,1.41881,-4.29062,-3.10974,1.56562,-1.53216,1.31984,-0.0382112,119.55585,-2869.817968,-381.175725,-88.790308,-31.483627000000002,-90.817612
290,-0.0090135,-0.403113,0.737029,2.90817,1.89056,1.48467,-4.04028,-3.04724,2.31641,-2.05757,1.08413,-0.247823,382.32888349999996,-3198.5290870000003,-494.302349,-72.83848499999999,-29.620063000000002,-86.49398199999999
291,-0.273588,-0.453341,1.04009,3.57664,1.89264,1.44025,-4.72211,-2.76578,1.61986,-1.65273,1.02097,-0.045523,602.554378,-3061.536359,-190.79038,-76.505537,10.951864,-87.56779800000001
292,-0.0789744,-0.479551,1.07304,3.02727,1.91228,1.58082,-4.49554,-2.70808,1.59796,-1.69126,1.48914,-0.0698527,420.8561744,-3102.119949,-159.07617,-71.52088,-27.853869,-84.361
293,0.185551,-0.805624,0.803024,3.804,1.38804,1.55338,-4.03707,-3.079,1.46203,-2.13879,0.251318,0.485128,49.072661000000004,-2888.055676,-422.286664,-102.52774600000001,17.895066,-95.359898
294,0.251836,-0.452438,1.02273,2.90645,1.86435,1.48037,-3.51061,-2.79372,1.60813,-1.42512,0.589063,-0.524984,119.122094,-3242.327462,-209.47903,-74.53935100000001,-29.614094,-86.99603099999999
295,-0.261302,-0.695394,0.817356,3.05164,1.58451,1.46354,-4.89429,-3.13395,1.69946,-1.6932,1.73461,0.000287621,518.173382,-2838.762806,-408.90758600000004,-92.34736400000001,-20.6569,-91.486744
296,0.000565231,-0.561173,0.743026,2.98195,1.51943,1.41269,-4.23906,-3.10652,2.08214,-2.17405,1.09907,0.0331255,317.200324769,-3055.120727,-482.82836599999996,-96.190735,-21.686945,-92.25171399999999
297,0.0653458,-0.508096,0.732925,3.61743,1.74511,1.50241,-3.80101,-3.20102,1.9396,-0.913968,0.188665,-0.878005,265.3168342,-3127.409404,-497.02042500000005,-84.663492,9.522886,-88.95808099999999
298,-0.209723,-0.617758,0.7996,3.71752,1.69176,1.43804,-4.52576,-3.16556,1.85919,-1.6733,0.677717,-0.0612963,485.185043,-2928.929942,-428.39637,-87.542367,18.954263,-90.030922
299,-0.300611,-0.476679,0.964446,3.16842,1.28741,1.4132,-5.02442,-2.70393,1.55161,-2.27456,1.69148,-0.044051,626.813951,-3030.277321,-257.372536,-109.77896,-10.2926074,-94.768928
300,0.0413449,-0.60261,1.06309,3.46036,1.76325,1.44953,-4.04273,-2.75442,1.37821,-1.36694,0.487639,-0.29548,256.5553251,-3030.18859,-167.34984999999998,-83.05823199999999,3.5796266,-89.274125
301,-0.0401104,-0.541387,1.108,3.33258,1.57426,1.59372,-4.23244,-2.56709,1.37533,-1.9455,0.921738,-0.00284797,357.9311704,-3060.112913,-119.12297000000001,-93.291462,-12.044521000000001,-91.796372
302,0.25583,-0.528599,0.765083,2.81241,1.65883,1.67671,-3.81613,-3.15543,2.0385,-1.93174,1.11151,-0.0705107,94.15330999999999,-3169.8481009999996,-463.881193,-86.34698,-46.565679,-88.969316
303,-0.289066,-0.524831,1.02504,3.49159,1.29803,1.65602,-4.91212,-2.63702,1.39964,-2.16086,1.49512,-0.0767577,598.126106,-2989.558169,-197.18749,-108.31891,-5.2421024,-98.435223
304,0.172873,-0.569517,0.869464,3.25568,1.43026,1.43626,-3.79485,-2.91527,1.75845,-2.32909,0.424944,0.298696,147.43597699999998,-3107.284083,-355.669874,-101.376663,-7.0875342,-93.486464
305,0.391247,-0.729189,0.848845,2.91738,1.47348,1.71873,-3.91815,-3.05422,1.50845,-1.69982,1.15064,0.0633554,-103.18894700000001,-3027.619811,-378.126825,-100.478433,-42.634457000000005,-95.66180899999999
306,0.338127,-0.650361,1.03706,3.39229,1.3382,1.66973,-3.74971,-2.6646,1.15272,-2.11528,0.498931,0.374346,-34.944529,-3087.687039,-187.7517,-106.66292,-11.997345000000001,-97.818178
307,-0.146493,-0.458536,0.92219,3.47929,1.44877,1.65565,-4.43885,-2.7256,1.80358,-2.35265,1.04485,0.0256698,485.91470300000003,-3101.281964,-302.2987,-100.211363,-6.865638499999999,-94.851238
308,-0.15978,-0.848658,0.844478,3.15926,1.58899,1.67928,-4.73378,-3.09717,1.45193,-1.47776,1.68197,0.00149653,371.16436,-2728.8526420000003,-382.192778,-92.143747,-26.893352,-91.400586
309,0.324077,-0.64244,0.776207,3.00489,1.66459,1.57534,-3.81252,-3.22352,1.80606,-1.59639,0.816017,-0.101243,-13.492502,-3088.56156,-453.730097,-87.18414700000001,-29.751532,-89.81301599999999
310,-0.298737,-0.621499,0.706151,3.63103,1.3123,1.45879,-4.75842,-3.19574,1.93058,-2.14482,1.01689,0.0190044,568.9623369999999,-2894.5924010000003,-516.604301,-107.20282999999999,13.524211,-95.20804199999999
311,0.067297,-0.676689,0.731033,2.82237,1.29324,1.53145,-4.34824,-3.13992,1.88851,-2.15422,1.49978,0.107275,218.958963,-2966.241711,-491.711783,-111.64043000000001,-36.501182,-97.77682300000001
312,0.217262,-0.463579,0.853683,3.31419,1.80845,1.67645,-3.52003,-3.04034,1.86953,-1.30069,0.382852,-0.593046,145.031078,-3221.250721,-377.670073,-79.53808099999999,-17.35905,-85.86158
313,0.22479,-0.829658,1.15267,2.86577,1.56444,1.54685,-4.19196,-2.52146,0.705439,-1.33219,1.30141,0.00254964,16.189506,-2877.9809419999997,-75.394132,-93.62259999999999,-36.119613,-92.05127200000001
314,0.304588,-0.702006,1.17326,2.82724,1.63975,1.59903,-3.98506,-2.53919,0.890042,-1.42177,1.18681,-0.0485747,-13.280914000000001,-3023.689394,-56.151435,-88.287998,-41.230655999999996,-90.129194
315,0.0369374,-0.537323,0.768937,3.37736,1.58899,1.48968,-3.9594,-3.09756,2.05057,-2.05766,0.500636,-0.0289605,286.7836926,-3091.039977,-458.162057,-92.395006,-3.4726671,-91.391944
316,0.190089,-0.844908,1.05712,3.62995,1.31855,1.68133,-4.10078,-2.61374,0.828117,-1.75415,0.604625,0.211547,34.037918,-2853.441492,-167.72505,-106.51422,1.0059139,-98.370735
317,-0.250439,-0.444869,1.04475,3.31017,1.50686,1.58124,-4.91694,-2.62598,1.5148,-2.09354,1.61592,-0.0144084,590.919939,-3078.1910310000003,-180.35402,-97.113899,-12.412479,-93.13295199999999
318,-0.162416,-0.805299,1.0353,3.0044,1.40279,1.45264,-4.71654,-2.71028,1.08291,-1.68066,1.59466,0.0181786,386.88867600000003,-2768.3801009999997,-189.17241,-103.43032000000001,-22.305919,-94.050452
319,0.106987,-0.82996,0.978741,3.40017,1.34267,1.45081,-4.19421,-2.78124,1.13981,-1.84753,0.696924,0.210518,117.707583,-2839.34994,-245.537291,-106.14818,0.6464235999999999,-94.722853
320,-0.271094,-0.5403,1.14081,3.10565,1.41572,1.53857,-4.99936,-2.49753,1.10866,-1.91437,1.85744,-0.0412625,579.9508239999999,-2980.8819,-83.056225,-102.772046,-21.423367,-94.749277
321,0.0532945,-0.892258,0.958928,3.08663,1.79082,1.62544,-4.42988,-2.95776,1.20765,-1.16858,1.40257,-0.0508006,155.0278455,-2759.871142,-272.647798,-79.340099,-27.595394,-86.448938
322,-0.321985,-0.898943,0.983401,3.6167,1.5683,1.73668,-4.84597,-2.82681,0.984267,-1.30143,1.39451,-0.00159103,500.846425,-2627.269657,-243.102251,-93.893429,-3.8806702,-91.96572900000001
323,-0.146444,-0.503295,0.782308,3.82668,1.91689,1.54425,-4.28261,-3.17284,2.00433,-1.36165,0.474798,-0.33385,464.05389399999996,-3057.870705,-448.481238,-77.445866,19.595268,-85.125093
324,-0.280768,-0.585265,0.982021,3.53239,1.36815,1.65362,-4.84703,-2.75528,1.4778,-2.05429,1.39255,-0.0448526,568.956498,-2935.599735,-241.428391,-104.38511000000001,-3.2542241,-96.72591200000001
325,0.290223,-0.714568,0.928335,3.57205,1.68939,1.65267,-3.85404,-2.98018,1.32892,-1.19279,0.375458,-0.22877,-14.209085,-3010.862232,-302.105965,-87.53363900000001,-1.653319555,-89.07881
326,-0.27835,-0.781755,1.07501,3.49406,1.5829,1.59355,-4.79415,-2.70293,1.03716,-1.46423,1.3219,0.000538916,498.73564,-2752.051845,-151.96778,-92.96210500000001,-2.7598217,-91.504537
327,-0.138834,-0.59257,0.983651,3.72795,1.5023,1.41851,-4.34212,-2.79331,1.53709,-2.01318,0.463337,0.0756092,425.417224,-2976.93253,-241.982461,-97.28800899999999,20.806144000000003,-92.425823
328,0.294779,-0.540584,1.12857,2.82718,1.71488,1.69397,-3.78075,-2.62491,1.28494,-1.64646,1.08383,-0.118572,51.837719,-3172.042116,-101.63421,-82.03452,-46.579441,-86.823347
329,-0.0343581,-0.472291,0.941175,2.81462,1.61404,1.63785,-4.52084,-2.7929,1.79488,-2.10172,1.77235,-0.00630647,385.71714810000003,-3122.890709,-286.01338499999997,-89.917286,-44.221739,-90.679099
330,0.206691,-0.68764,0.731473,3.01771,1.33979,1.65207,-4.07011,-3.16771,1.85128,-2.07691,1.14847,0.133017,82.909022,-3004.71686,-492.377593,-108.59494,-32.332233,-98.40738599999999
331,-0.188166,-0.741226,0.750754,3.66389,1.3689,1.57198,-4.57703,-3.17535,1.75136,-1.93842,0.916773,0.033042,425.55338600000005,-2820.579474,-473.208444,-103.93634999999999,8.864022,-95.761866
332,0.316662,-0.86036,0.811112,3.58104,1.30018,1.72041,-3.9904,-3.0371,1.29938,-1.85302,0.59097,0.262063,-87.20620799999999,-2881.9772399999997,-413.597722,-107.73875,-3.7713209999999995,-99.394912
333,0.0846803,-0.615288,1.09201,2.88489,1.63399,1.51703,-4.20681,-2.65933,1.34843,-1.76683,1.26861,-0.0359138,220.9044197,-3031.672712,-136.31976999999998,-88.978893,-33.36502,-90.603604
334,0.224226,-0.725559,1.08534,3.67555,1.61542,1.72431,-3.93662,-2.69311,1.0284,-1.38156,0.415174,-0.0653175,43.502641,-2977.686541,-143.60196,-91.610448,0.1704452999999999,-90.775999
335,0.0608384,-0.643255,0.830481,3.36362,1.3705,1.48425,-4.09603,-2.9845,1.76837,-2.24495,0.665611,0.208878,226.4428816,-2998.707445,-393.881731,-104.68003999999999,-3.4114134,-94.827074
336,0.109524,-0.797095,1.12984,3.69221,1.89109,1.73558,-4.16319,-2.65049,0.83842,-0.878473,0.661772,-0.193932,125.47743600000001,-2870.544105,-102.52081,-78.28237,1.2412113999999999,-83.046149
337,0.230186,-0.617685,0.970741,3.39127,1.67749,1.44234,-3.78298,-2.90207,1.41716,-1.27428,0.280488,-0.342922,75.1276,-3081.6992149999996,-258.86801099999997,-87.58680000000001,-0.007259899999999986,-90.41054700000001
338,0.334174,-0.683443,0.940441,3.51342,1.41465,1.4119,-3.76126,-2.78645,1.25385,-2.65975,0.167607,0.986422,-47.916731999999996,-3055.349357,-285.426511,-101.984225,9.109078,-93.387236
339,0.102553,-0.473804,0.979143,3.72365,1.49941,1.66553,-3.64764,-2.54139,1.52332,-3.42289,0.0619187,1.2586,241.693617,-3173.7353959999996,-246.880053,-97.170834,6.4011857999999995,-93.693567
340,-0.287035,-0.685124,0.824634,3.53688,1.61496,1.59148,-4.80939,-3.1276,1.71592,-1.68761,1.29203,0.00454764,540.063555,-2840.3952759999997,-401.995804,-91.26498099999999,-0.21179759999999992,-90.84603
341,-0.007029,-0.799916,1.08253,3.15999,1.26313,1.64893,-4.46964,-2.56245,0.924111,-1.81615,1.3947,0.049605,242.461539,-2826.4438840000003,-140.04439,-112.45203,-23.46262,-99.704091
342,-0.141632,-0.476485,0.844234,3.69777,1.5141,1.72484,-4.34248,-2.88015,1.96677,-2.29535,0.798325,0.0162521,473.632772,-3086.581315,-381.10941399999996,-96.502936,1.5585706,-93.502478
343,0.397153,-0.731749,0.887207,3.29238,1.23912,1.62342,-3.81439,-2.88588,1.29686,-2.11819,0.644231,0.416787,-116.48407300000001,-3030.705851,-335.84013699999997,-112.73088999999999,-14.367045,-99.42212599999999
344,0.017695,-0.573454,0.951574,2.87673,1.60029,1.71074,-4.43914,-2.84863,1.68205,-1.94631,1.70162,-0.00479824,301.978885,-3046.028546,-275.694864,-90.93914699999999,-44.884071,-91.017447
345,0.281429,-0.558273,0.865323,2.89835,1.49698,1.7083,-3.80954,-2.96342,1.78558,-2.04635,1.04997,0.0580538,57.882144,-3151.158927,-361.604653,-98.74908599999999,-43.288307,-94.82209399999999
346,0.128242,-0.457263,0.747039,3.23796,1.38675,1.4498,-3.58942,-2.88675,2.08157,-3.02343,0.291579,0.646539,229.211218,-3197.7064370000003,-476.704439,-103.81119,-8.6777625,-94.077417
347,-0.0968272,-0.689891,1.07785,3.58146,1.84833,1.66874,-4.43993,-2.77268,1.29807,-1.36052,0.962857,-0.0587352,358.2338572,-2900.521809,-153.27975,-79.360671,-1.5465952,-85.074409
348,-0.0766914,-0.69017,0.916844,3.74263,1.57084,1.73693,-4.36757,-2.95355,1.59497,-1.78281,0.790312,-0.000873391,338.3138614,-2907.32323,-310.413964,-93.833748,3.315059,-91.938654
349,0.246543,-0.724074,1.02969,2.9379,1.53792,1.41499,-3.99764,-2.77141,1.24375,-1.65519,0.903366,0.031223,30.090006000000002,-2985.4829259999997,-197.96153999999999,-95.140081,-24.289963,-92.076114
350,-0.373812,-0.843396,1.16956,2.92532,1.59772,1.45752,-5.04314,-2.31218,0.134031,-0.934384,2.00367,0.00555282,574.537502,-2660.2847039999997,-57.187945,-91.449547,-27.542557,-91.24173400000001
351,-0.17585,-0.556117,1.06742,3.08636,1.3093,1.45163,-4.71174,-2.55914,1.30634,-2.15042,1.50962,0.030134,483.50815,-2998.534483,-155.05978,-108.8101,-17.154808,-95.20985999999999
352,0.159827,-0.6478,0.989413,3.2695,1.40169,1.56255,-3.9771,-2.75943,1.43064,-2.07073,0.713408,0.174197,134.902593,-3028.2277999999997,-235.56010300000003,-103.21179799999999,-13.253853,-95.185604
353,-0.211143,-0.569043,1.14801,3.4939,1.61911,1.53453,-4.63495,-2.55424,1.2162,-1.75301,1.10396,-0.00696403,507.141003,-2975.457957,-79.233682,-90.96988,0.6041452999999999,-90.8606
354,0.116554,-0.711311,1.07397,3.11201,1.58211,1.46637,-4.14397,-2.70507,1.22473,-1.64721,0.926582,-0.00966913,153.92978599999998,-2953.971389,-153.98872,-92.607687,-17.397918999999998,-91.562217
355,-0.113018,-0.625531,0.857027,3.10443,1.69349,1.69388,-4.66723,-3.06746,1.80678,-1.7575,1.68432,0.00868856,404.547028,-2953.891769,-371.422607,-85.23419899999999,-30.761064,-88.31130300000001
356,-0.0213242,-0.422031,0.970194,3.01053,1.38686,1.62868,-4.19384,-2.5745,1.70576,-2.46509,1.24818,0.0848127,386.7232242,-3176.706269,-253.519514,-105.37421,-31.803324999999997,-96.818892
357,-0.106574,-0.431843,0.785111,3.78277,1.49525,1.54566,-4.00799,-2.88466,2.10116,-2.65666,0.20708,0.246493,452.14164400000004,-3140.197357,-439.97750099999996,-97.384811,16.793051000000002,-93.251868
358,-0.0624203,-0.586069,0.744957,3.12554,1.42951,1.62634,-4.4792,-3.0987,2.01683,-2.20286,1.41021,0.0244373,369.4446903,-3009.392931,-479.275107,-102.115283,-25.304356000000002,-95.376154
359,0.171273,-0.428343,0.718244,3.27637,1.39514,1.58919,-3.4406,-2.88802,2.13895,-3.16982,0.249721,0.736943,200.29163699999998,-3239.419557,-505.536894,-103.50421,-14.333669,-95.56429
360,0.130304,-0.596439,0.750815,3.81557,1.85352,1.66762,-3.86928,-3.22226,1.72382,-0.598711,0.25451,-0.851328,173.38952600000002,-3066.052561,-480.721565,-80.96117199999999,11.856713000000001,-84.767608
361,0.263646,-0.710842,1.06666,3.17993,1.63118,1.7348,-3.98118,-2.73932,1.19366,-1.52269,0.965327,-0.0403174,19.420251,-3003.259258,-162.54845,-89.484467,-28.823796,-90.118471
362,-0.371386,-0.423363,1.15308,3.00824,1.84927,1.50027,-5.36885,-2.6373,1.20302,-1.34619,2.26156,0.197581,715.911866,-3055.5506370000003,-77.40738400000001,-75.97084,-24.85076,-87.045271
363,0.10719,-0.739572,1.16291,3.55059,1.66774,1.47426,-4.08809,-2.55323,0.820282,-1.20181,0.446907,-0.149233,146.17157,-2924.026728,-66.519643,-88.519948,7.281972399999999,-90.315837
364,0.280963,-0.757823,0.85278,3.40464,1.67852,1.70765,-3.95107,-3.11103,1.49896,-1.36526,0.687507,-0.100047,-15.834433,-2966.245677,-376.84197,-87.483537,-14.338949000000001,-89.066575
365,0.0434971,-0.554967,1.12266,3.2748,1.8473,1.65604,-4.09915,-2.65356,1.39308,-1.53764,0.932458,-0.172869,276.59044289999997,-3075.288833,-108.78640999999999,-77.000895,-18.291985,-84.98799600000001
366,0.206793,-0.634978,0.732532,3.50913,1.39902,1.64198,-3.85259,-3.17158,1.88998,-2.24581,0.437534,0.289218,92.81771599999999,-3057.142822,-492.461382,-102.77785,-4.1125345,-95.976707
367,-0.0082753,-0.885673,0.874856,3.32862,1.29327,1.67709,-4.4605,-2.94456,1.30378,-1.7891,1.24328,0.0412156,212.60277530000002,-2746.0515269999996,-348.494726,-109.63028,-15.686811,-99.05788000000001
368,-0.0486619,-0.423159,0.744432,3.57241,1.59747,1.65568,-3.85566,-2.95445,2.22141,-2.34147,0.367969,-0.0523928,404.6007419,-3168.867541,-482.26955200000003,-92.238738,-1.8150930399999998,-91.305541
369,0.109426,-0.853712,0.916615,3.29739,1.60788,1.51121,-4.2389,-2.9829,1.31451,-1.42581,0.881611,-0.0252031,110.188854,-2817.605388,-312.266415,-91.35773599999999,-9.365922,-91.15329600000001
370,-0.218949,-0.744199,1.12966,3.09766,1.91701,1.4358,-4.78017,-2.71138,1.05115,-1.13552,1.55078,-0.0237425,459.168969,-2806.0986009999997,-102.74344,-72.82193000000001,-16.056781,-87.359792
371,0.396239,-0.448169,1.07512,2.84716,1.90462,1.67785,-3.44972,-2.76674,1.42717,-1.33986,0.780153,-0.441162,-12.73096,-3293.4390310000003,-158.41442,-68.542502,-43.275152,-81.09513700000001
372,0.339215,-0.666088,1.11767,3.07918,1.90573,1.72363,-3.86289,-2.72727,1.10979,-1.11795,0.979153,-0.25778,-36.442224,-3070.145712,-116.23663,-70.93310799999999,-32.642205,-81.477785
373,-0.337407,-0.690538,1.14575,2.96752,1.33598,1.54626,-5.08028,-2.45479,0.721927,-1.67395,2.07708,-0.0904124,593.109977,-2815.927162,-76.740482,-108.21345,-29.368097,-96.655784
374,0.328214,-0.49978,0.961145,3.15224,1.41899,1.42258,-3.48651,-2.74245,1.52245,-2.61539,0.238845,0.676837,26.252849,-3226.0572199999997,-264.422085,-102.060602,-12.098658,-93.54996
375,0.138226,-0.645569,0.893502,3.34975,1.7804,1.52993,-3.98124,-3.05258,1.66606,-1.3952,0.61618,-0.254597,154.723524,-3023.1472310000004,-337.312232,-81.661382,-7.253491400000001,-88.149744
376,0.116308,-0.502231,0.843289,3.20682,1.81354,1.48868,-3.7721,-3.05411,1.9456,-1.54206,0.533613,-0.415824,225.513062,-3150.616469,-387.647689,-79.121381,-13.076261,-87.999613
377,0.380387,-0.838153,0.765622,3.70044,1.42475,1.4992,-3.88149,-3.09172,1.30031,-2.22587,0.16128,0.790385,-144.62808700000002,-2925.0095469999997,-460.55634200000003,-101.099622,14.846596000000002,-94.123464
378,0.315518,-0.791327,1.14337,3.08721,1.74495,1.63607,-4.00587,-2.6047,0.787179,-1.11637,0.993745,-0.124831,-57.576046,-2944.824273,-88.193166,-82.222546,-28.302457999999998,-87.53206200000001
379,0.131453,-0.702579,0.941263,3.7883,1.77357,1.51154,-3.99861,-2.9113,1.198,-0.567629,0.213527,-0.726764,134.596987,-2966.140621,-289.334363,-84.00691,18.906957000000002,-88.156217
380,0.128421,-0.897045,0.835551,3.62167,1.83113,1.5924,-4.20068,-3.12627,1.25395,-0.868247,0.624111,-0.209765,73.900318,-2783.4891549999998,-395.663771,-80.45952399999999,4.8579136,-86.37162
381,-0.330663,-0.815195,1.08148,2.98313,1.91191,1.50361,-4.99079,-2.7493,0.870264,-0.90252,1.92693,0.0740299,543.3418829999999,-2699.956005,-150.6813,-71.980943,-26.237955,-85.81035899999999
382,0.04792,-0.458498,0.962439,3.26026,1.33651,1.49202,-3.77269,-2.57965,1.66106,-2.74059,0.485023,0.437253,303.39789,-3168.691002,-260.672769,-106.79902,-9.600038600000001,-95.379283
383,-0.29309,-0.485639,1.03459,3.43777,1.766,1.55671,-4.92371,-2.768,1.5703,-1.75615,1.46729,0.0372661,614.67161,-3025.227761,-194.54279,-82.831136,-3.697987,-88.066063
384,0.357114,-0.402374,0.926202,2.84315,1.88039,1.5648,-3.31499,-2.96119,1.75838,-1.35491,0.556604,-0.605591,38.469857,-3324.7645260000004,-306.739332,-72.05637999999999,-37.774733999999995,-84.76102300000001
385,-0.243397,-0.598008,0.94437,3.28142,1.49802,1.5225,-4.81381,-2.85736,1.59951,-1.95607,1.48309,-0.00473863,531.573627,-2937.065392,-280.66028,-97.591391,-10.6860265,-93.00053
386,-0.376994,-0.658787,0.965627,3.62162,1.6856,1.57773,-4.94998,-2.92291,1.44103,-1.55498,1.33324,0.0276806,632.000864,-2833.7979130000003,-262.12404699999996,-87.791256,5.4625487,-89.398657
387,-0.320594,-0.787831,0.901432,3.44612,1.69017,1.59428,-4.87618,-3.03486,1.40157,-1.39373,1.45119,0.0215533,538.081444,-2731.6511689999998,-327.008242,-87.070291,-5.4883757,-89.260904
388,0.318777,-0.497688,0.897995,3.38697,1.5155,1.45756,-3.47757,-2.6583,1.40327,-3.87589,0.0585448,1.97551,33.035969,-3225.227412,-329.094585,-96.47772400000001,-0.95270624,-92.504537
389,-0.378173,-0.71641,0.785429,3.29485,1.51182,1.43617,-4.99183,-3.1699,1.64544,-1.6755,1.56124,-0.00928623,616.8706629999999,-2779.66569,-439.663739,-96.732446,-5.0290593999999995,-92.337191
390,0.370014,-0.59436,1.05915,3.26508,1.27628,1.43608,-3.62913,-2.53306,1.01924,-2.56477,0.36558,0.865548,-47.427367,-3151.71124,-164.50824,-110.13508999999999,-5.9445611,-95.30723400000001
391,0.250321,-0.846554,0.99824,3.15293,1.84908,1.48734,-4.08821,-2.89121,1.08053,-0.967784,0.883722,-0.233713,-17.616034,-2871.994046,-234.19284000000002,-76.866354,-15.957929,-87.44987400000001
392,0.291213,-0.401063,0.942628,3.072,1.65598,1.4508,-3.25989,-2.84248,1.57489,-0.97041,0.108527,-0.907785,97.190861,-3306.4007370000004,-286.539178,-88.094763,-18.859694,-90.556125
393,0.267319,-0.639759,1.18043,3.03353,1.28326,1.52949,-3.87169,-2.36131,0.775486,-1.94446,0.839022,0.297715,38.019932,-3071.711641,-43.454484,-111.13718,-24.284236,-97.34141299999999
394,-0.0754049,-0.842293,1.07442,3.39634,1.63719,1.45364,-4.46279,-2.71513,0.992855,-1.34035,0.949451,-0.0299295,285.8178449,-2764.852407,-154.13284000000002,-89.87894999999999,-0.3765805,-90.79915600000001
395,0.152733,-0.62119,1.08782,3.22106,1.22793,1.69429,-4.01951,-2.50896,1.1418,-2.19593,0.959751,0.222246,153.083567,-3049.71031,-134.2445,-114.41678999999999,-22.043511000000002,-101.48954599999999
396,0.018617,-0.489111,1.18033,2.91793,1.33757,1.69621,-4.31393,-2.32975,1.08805,-2.12768,1.52751,0.0616914,328.284363,-3125.623989,-43.060834,-110.09826,-40.400266,-99.909347
397,-0.095464,-0.885025,1.12858,3.69932,1.42896,1.56353,-4.46441,-2.48741,0.574182,-1.40324,0.760385,0.0510408,287.364354,-2717.882575,-96.581187,-100.865701,11.130586,-94.497657
398,-0.108244,-0.516569,0.801598,2.91142,1.46151,1.67492,-4.74269,-3.00172,1.95511,-2.20877,1.93361,-0.0164426,439.549934,-3055.842931,-423.538888,-101.10978200000001,-40.455805999999995,-95.622868
399,-0.177686,-0.88281,0.877958,2.84859,1.53142,1.5236,-4.80213,-3.01381,1.27855,-1.44636,1.90554,-0.00260812,378.81800599999997,-2688.78959,-348.652678,-95.710971,-35.630317,-92.621971
400,0.325848,-0.416566,0.793286,3.70147,1.2822,1.51931,-3.34637,-2.7091,1.36872,-4.40227,0.487387,2.49652,50.252199,-3303.1604340000004,-430.87324600000005,-108.12296,14.338708,-96.818261
401,0.18181,-0.666355,0.891228,3.40453,1.45436,1.63338,-3.9507,-2.95167,1.60944,-1.99494,0.615508,0.129283,106.77583,-3018.612145,-335.02301800000004,-100.05896899999999,-9.850449399999999,-94.642177
402,-0.349127,-0.722306,1.10513,2.85875,1.458,1.45609,-5.08713,-2.59143,0.858128,-1.53494,2.11105,-0.0345371,593.7784469999999,-2781.531494,-119.59193,-100.186352,-31.043532,-93.448409
403,-0.27918,-0.54844,1.16912,3.16347,1.79186,1.4946,-4.96335,-2.59204,1.17856,-1.50482,1.71865,0.037781,583.07855,-2970.54916,-60.715578,-80.20391000000001,-15.885092,-88.17259
404,-0.277986,-0.852728,0.858046,3.32496,1.32511,1.66144,-4.85287,-2.9824,1.31352,-1.71427,1.61102,-0.0565932,478.680916,-2684.455272,-365.084506,-107.75719000000001,-15.235940000000001,-98.03135
405,0.298582,-0.872307,1.06328,2.85515,1.86636,1.68012,-4.1765,-2.76805,0.88888,-0.97704,1.44709,-0.122497,-66.04504899999999,-2860.785993,-169.71108999999998,-71.314886,-43.296623,-82.124138
406,-0.070155,-0.574687,0.840233,3.6248,1.38582,1.61048,-4.24441,-2.93045,1.84661,-2.32348,0.668935,0.122509,371.194025,-3018.2720130000002,-383.866913,-103.11117399999999,4.3250511000000005,-95.90200899999999
407,-0.0207602,-0.750681,1.18454,3.09026,1.47437,1.5036,-4.44178,-2.44904,0.802742,-1.59582,1.2851,0.0324795,270.88318019999997,-2869.154519,-41.080687999999995,-99.11579,-20.553028,-93.358592
408,0.201151,-0.699347,0.762638,3.29308,1.54364,1.41324,-3.94449,-3.21153,1.76247,-1.74922,0.493867,0.045021,76.13369300000001,-2994.2702529999997,-464.962408,-94.944665,-3.8669702,-91.94107
409,-0.167062,-0.463294,1.04963,3.39115,1.6882,1.7224,-4.64703,-2.66141,1.5922,-1.95729,1.40605,0.0093829,506.521002,-3089.258206,-178.68797,-86.83688699999999,-15.952611000000001,-88.65101
410,-0.251742,-0.828887,0.816475,2.95421,1.51951,1.6039,-4.91241,-3.11751,1.44055,-1.51995,1.9899,-0.0137017,467.101902,-2714.914113,-408.69403500000004,-96.52900600000001,-34.154337999999996,-93.175555
411,-0.0304881,-0.458879,0.753869,3.28733,1.41455,1.73656,-4.16716,-2.90284,2.13148,-2.5487,1.04976,0.0655331,381.0016081,-3140.218421,-470.066489,-102.923106,-22.275682999999997,-96.751914
412,-0.16018,-0.424075,1.19725,3.02457,1.88049,1.57868,-4.79946,-2.50239,1.30016,-1.62518,1.77728,0.0286498,516.54847,-3127.384425,-33.930392999999995,-73.448069,-28.120914999999997,-84.975746
413,-0.16682,-0.55248,1.16195,3.22895,1.34253,1.53065,-4.64831,-2.4064,1.06842,-2.03515,1.38128,0.0230614,475.16949999999997,-3005.6724200000003,-60.949689,-106.70835,-13.563479,-95.792124
414,-0.0276885,-0.667896,0.829207,2.96495,1.24676,1.7197,-4.55866,-2.96212,1.69508,-2.19836,1.74179,0.000802194,311.6892285,-2940.6829040000002,-393.163037,-116.36964,-38.053429,-103.07000000000001
415,-0.320827,-0.789415,0.734407,3.14011,1.48392,1.56917,-4.96383,-3.24325,1.61831,-1.6063,1.82049,-0.0230368,542.419747,-2729.277885,-490.949927,-98.605414,-21.443875000000002,-93.613232
416,0.341399,-0.481273,0.888798,2.82864,1.43812,1.62448,-3.54959,-2.88212,1.7589,-2.19762,0.784543,0.167579,28.434521,-3244.421427,-336.910888,-102.664848,-42.150881,-96.035173
417,-0.392518,-0.595132,1.00282,2.79657,1.8021,1.58798,-5.28901,-2.88813,1.23586,-1.12796,2.48541,0.210853,681.210648,-2884.949868,-226.418,-76.610871,-41.945602,-85.773221
418,0.0211602,-0.838601,0.822139,3.26413,1.59841,1.54193,-4.37375,-3.13911,1.54711,-1.51855,1.07995,-0.0121101,200.4825098,-2801.534999,-405.229579,-91.75746,-13.019720999999999,-91.21318199999999
419,0.268277,-0.897531,1.14076,2.89071,1.34013,1.71649,-4.22877,-2.32783,0.250271,-1.28804,1.49127,0.0752864,-46.515637,-2826.453569,-84.790396,-110.67497,-43.081509000000004,-100.576893
420,-0.383722,-0.765721,0.76927,2.8859,1.64094,1.57572,-5.13291,-3.22402,1.47789,-1.3082,2.24994,0.0363568,613.7913920000001,-2727.6892789999997,-458.56382,-88.44151600000001,-36.539115,-90.110546
421,0.0676125,-0.636388,0.875779,3.80005,1.61388,1.62718,-4.01331,-3.03273,1.66671,-1.64773,0.270188,-0.0974615,218.9970075,-3007.411212,-352.26873900000004,-91.83590099999999,12.923277,-90.835433
422,0.0927194,-0.614468,0.835627,3.02452,1.6231,1.43207,-4.08537,-3.05947,1.86521,-1.88209,0.922254,-0.0462893,211.3290206,-3036.389432,-392.48357699999997,-90.06300399999999,-20.4543,-91.09879
423,0.216619,-0.849312,0.812688,2.80829,1.6069,1.66327,-4.27056,-3.15338,1.49263,-1.447,1.55404,-0.0131992,20.721259,-2854.1925880000003,-415.693448,-90.417369,-46.062125,-90.824649
424,-0.054109,-0.706466,1.08493,3.12123,1.55741,1.72419,-4.56184,-2.67506,1.20721,-1.68718,1.59318,-0.000765626,321.29492899999997,-2897.694834,-142.02767,-94.23938,-31.510822,-92.443333
425,-0.214997,-0.649413,0.804006,3.17977,1.63386,1.67848,-4.85213,-3.15663,1.81125,-1.7318,1.77877,0.0149593,491.608347,-2897.157887,-423.20952600000004,-89.37402300000001,-25.63655,-90.17883099999999
426,0.307117,-0.812575,0.867856,3.03909,1.31735,1.70952,-4.07218,-2.96519,1.35647,-1.80518,1.18747,0.129487,-54.589335999999996,-2921.008825,-356.848976,-110.57466000000001,-34.061921,-100.143823
427,0.317577,-0.523569,0.934244,2.96869,1.90199,1.41142,-3.59086,-2.9974,1.61949,-1.12379,0.566324,-0.620339,30.618735,-3198.640931,-299.33151399999997,-73.153515,-22.271509000000002,-87.974485
428,-0.183358,-0.527414,0.772396,3.31212,1.75247,1.63939,-4.7079,-3.16393,2.06739,-1.86499,1.46233,0.0107708,500.740688,-3023.639586,-456.797816,-82.85457500000001,-15.606296,-87.52969700000001
429,0.376334,-0.531138,0.73279,2.97938,1.29679,1.62522,-3.58923,-3.10691,1.91201,-2.36652,0.714116,0.369679,-23.231708,-3210.616962,-490.61637,-111.38201000000001,-32.685179,-99.140783
430,0.389534,-0.404293,1.11538,3.13038,1.38011,1.73406,-3.26629,-2.4696,1.18892,-2.44178,0.352677,0.553173,6.2941725,-3335.8292069999998,-109.533,-105.85676000000001,-30.767964,-98.161523
431,-0.223957,-0.838081,1.06029,3.51357,1.42563,1.63886,-4.71152,-2.66647,0.942283,-1.55925,1.26455,-0.0109852,428.513287,-2717.921819,-164.27715,-101.350933,-3.8263841,-95.16994899999999
432,0.185566,-0.618567,0.920078,3.71066,1.26295,1.46621,-3.83263,-2.65433,1.2914,-3.37092,0.258016,1.42239,111.864734,-3064.216333,-303.26903799999997,-109.27987,17.929565,-96.221371
433,0.0586085,-0.739927,0.896483,3.48037,1.46685,1.71023,-4.23145,-2.96296,1.54833,-1.85316,0.891805,0.0439559,196.7918515,-2906.962473,-329.78306299999997,-99.33969099999999,-9.986482299999999,-94.810566
434,-0.223003,-0.739237,1.01858,3.09289,1.57077,1.65621,-4.8664,-2.80305,1.2418,-1.58063,1.85809,-0.000860993,468.939643,-2809.7124630000003,-207.78235,-93.24722799999999,-29.292752,-91.906499
435,0.354191,-0.656563,1.06805,3.60254,1.78687,1.7324,-3.72319,-2.72566,0.958023,-0.744241,0.332163,-0.506155,-54.557788,-3087.531937,-163.91217,-82.687833,-4.1902221,-85.960059
436,-0.274559,-0.674972,1.17086,3.41766,1.44988,1.39653,-4.75866,-2.47195,0.885394,-1.68165,1.16663,0.0159765,529.538109,-2854.226928,-53.622505,-100.203654,4.3910898,-92.75835599999999
437,0.23787,-0.449967,0.860456,2.99181,1.61052,1.63084,-3.51652,-2.92489,1.9354,-2.08099,0.585151,-0.0659874,134.29505,-3239.994133,-367.553366,-90.52555100000001,-33.682013,-90.931363
438,-0.328209,-0.510924,1.19677,3.55374,1.26709,1.56853,-4.94273,-2.32674,0.87714,-1.97494,1.37638,-0.0697449,636.893039,-2989.250176,-25.191688,-109.63578000000001,3.3133307000000003,-97.63099799999999
439,-0.0227371,-0.896142,1.19019,3.01,1.76712,1.67198,-4.57572,-2.449,0.445886,-0.943171,1.66656,-0.00785047,227.5757471,-2729.304458,-40.314675,-79.987846,-34.611625,-86.147405
440,-0.263498,-0.638776,1.10972,3.0621,1.90888,1.5839,-4.95792,-2.74659,1.2102,-1.2493,1.89291,0.0886896,540.288088,-2889.2091240000004,-122.21842,-72.026411,-26.056853,-84.388643
441,0.109026,-0.829467,1.1938,3.39781,1.73697,1.50601,-4.20031,-2.46485,0.548894,-0.988249,0.747837,-0.133879,116.740764,-2840.792033,-36.550921,-84.331641,-3.2232215,-89.03353
442,0.0630191,-0.63232,0.807231,3.73468,1.72834,1.66552,-4.03207,-3.16698,1.80295,-1.44199,0.406041,-0.2222,226.3592609,-3009.7978799999996,-422.090241,-86.233989,7.0176252,-87.94831
443,0.0573665,-0.492299,0.974759,3.38446,1.60033,1.61076,-3.83706,-2.74767,1.71553,-2.04857,0.492379,-0.0472224,282.7986235,-3140.311001,-252.758359,-91.820279,-10.0543193,-91.245092
444,-0.352993,-0.893059,1.01111,2.83351,1.3764,1.53709,-5.03447,-2.66119,0.681605,-1.38552,2.16014,-0.0668848,540.421423,-2618.802741,-212.56192000000001,-106.15353,-36.720274999999994,-96.048275
445,0.263212,-0.70391,1.16294,3.47158,1.67524,1.71396,-3.8955,-2.56306,0.860404,-1.25597,0.572492,-0.121109,16.436095,-3011.33299,-67.12912100000001,-87.92105000000001,-10.9457808,-89.173466
446,-0.00961939,-0.678668,0.862296,3.52812,1.46074,1.41381,-4.20536,-2.99866,1.67422,-2.02079,0.526365,0.134201,276.67740939000004,-2941.264232,-363.499866,-99.55087,9.638167000000001,-92.904742
447,-0.0209564,-0.44297,1.13283,2.81695,1.55636,1.53867,-4.34255,-2.45502,1.37554,-2.07597,1.49253,0.00490717,381.2822064,-3156.65273,-93.529231,-94.012208,-38.33911,-92.197788
448,0.110255,-0.630963,0.91092,3.06483,1.6247,1.62085,-4.13618,-2.95083,1.71064,-1.84193,1.12151,-0.0308273,190.62689500000002,-3025.974037,-317.56689,-89.834299,-28.980186,-90.621638
449,0.130769,-0.696888,0.717785,3.40968,1.2599,1.63543,-4.07634,-3.15368,1.84679,-2.27339,0.767318,0.239683,145.015161,-2971.964512,-504.683985,-110.79581999999999,-8.463520299999999,-99.092327
450,-0.000414848,-0.779669,1.18553,3.36921,1.51093,1.68772,-4.38812,-2.45686,0.753787,-1.50304,1.13518,0.0128894,240.628994848,-2849.526431,-40.664416,-96.94118499999999,-15.168821,-93.465621
451,-0.128064,-0.448892,0.838807,3.4884,1.64386,1.61267,-4.30536,-2.89602,2.03592,-2.19073,0.859291,-0.0351833,471.936134,-3117.371208,-388.612087,-89.596323,-4.177477,-90.246416
452,0.171813,-0.860771,0.967013,3.40034,1.29279,1.40092,-4.13079,-2.76456,1.03674,-1.8987,0.605801,0.334313,45.160351,-2832.2749289999997,-257.072803,-108.98717,3.5985933,-94.53190599999999
453,0.390705,-0.5302,0.975707,3.22211,1.9196,1.44116,-3.51586,-2.87178,1.22403,-0.332944,0.380319,-1.1046,-42.923430999999994,-3217.6807,-258.167257,-73.269995,-9.26389,-87.374911
454,0.0642912,-0.57874,0.773321,3.691,1.43608,1.65851,-3.9524,-3.06733,1.95117,-2.35459,0.361955,0.237325,243.93775879999998,-3060.97466,-451.728361,-100.341256,5.224895200000001,-95.228896
455,-0.0176456,-0.889101,1.11488,2.80506,1.64216,1.72143,-4.63825,-2.59583,0.69221,-1.16451,1.98286,0.00506221,228.3303856,-2735.241399,-113.7555,-87.43070999999999,-49.506339999999994,-89.186494
456,-0.379753,-0.604699,1.03557,3.39647,1.22231,1.6304,-5.08502,-2.63571,1.16995,-2.01643,1.72282,-0.146001,657.0653030000001,-2883.094101,-185.28966,-113.00219999999999,-8.702736999999999,-99.729334
457,0.164278,-0.872781,0.866929,3.04406,1.322,1.60092,-4.27197,-2.96695,1.3239,-1.75799,1.26995,0.102201,57.605298999999995,-2816.469019,-357.345459,-109.18213,-27.918684,-97.780922
458,0.263774,-0.441011,0.8691,3.48357,1.68487,1.61994,-3.38715,-2.79946,1.4019,0.263861,0.118432,-1.97262,105.413206,-3259.7141890000003,-360.4195,-87.364894,-4.9392297,-89.308388
459,0.323461,-0.778121,0.841661,2.8459,1.29276,1.60234,-4.04605,-3.00429,1.45161,-1.86904,1.25403,0.171361,-57.09574,-2958.000579,-382.960751,-112.6091,-38.973356,-99.530567
460,0.241809,-0.610161,1.00608,3.45437,1.63478,1.47109,-3.75291,-2.83433,1.33383,-1.33982,0.206708,-0.276067,66.253232,-3093.000039,-222.87603,-90.07028199999999,1.9712353000000002,-90.842017
461,0.0508404,-0.591522,1.10249,3.03829,1.35694,1.67754,-4.26538,-2.52276,1.23419,-2.07161,1.34062,0.0720552,261.29232959999996,-3042.070778,-121.18186,-107.56343,-32.746895,-98.27837099999999
462,0.324361,-0.450487,1.13012,3.04313,1.31893,1.39761,-3.39294,-2.3598,1.03203,-2.77767,0.306956,0.965635,47.535393,-3271.1915129999998,-93.729275,-108.00239,-16.665737999999997,-94.277506
463,0.260477,-0.415531,1.16092,2.96405,1.66074,1.60055,-3.37049,-2.49787,1.28858,-1.72528,0.444327,-0.204081,124.41795300000001,-3280.7320689999997,-68.166375,-87.185743,-33.528349999999996,-89.660438
464,0.243677,-0.633417,1.11449,2.88459,1.62953,1.72115,-4.01162,-2.64095,1.21225,-1.65356,1.27723,-0.0329574,68.348159,-3066.904783,-114.29341000000001,-88.723333,-44.967175000000005,-89.92187899999999
465,0.142617,-0.706803,0.955201,3.09666,1.23458,1.43189,-4.10506,-2.76413,1.36988,-2.17522,0.917613,0.284993,130.944773,-2966.273497,-267.277691,-113.11827,-15.137865,-95.87463299999999
466,0.00383669,-0.60902,1.0595,3.11692,1.79186,1.71485,-4.37764,-2.76358,1.47654,-1.63073,1.40859,-0.0428785,298.92798331,-3009.10198,-171.17041,-78.82932,-30.839919,-85.211195
467,-0.307544,-0.538951,1.10585,3.81439,1.89292,1.7282,-4.82467,-2.7028,1.36099,-1.52603,1.15541,0.0914423,606.186774,-2969.754749,-124.35827,-79.258803,8.678087,-82.867488
468,-0.0106135,-0.522303,0.740937,3.12315,1.81047,1.62874,-4.26754,-3.19903,2.17406,-1.86041,1.21284,-0.0965284,341.6207535,-3086.1776969999996,-489.78040699999997,-78.308275,-25.610553999999997,-86.07685
469,0.287116,-0.741599,1.02638,3.3977,1.65916,1.56012,-3.90013,-2.80942,1.12237,-1.27458,0.497,-0.137026,-19.186363,-2984.289101,-203.28279999999998,-88.638461,-6.3842901,-90.159582
470,-0.00753528,-0.528928,0.795755,3.10908,1.72295,1.44964,-4.16334,-3.07949,2.06373,-1.93713,0.941296,-0.117603,334.15195528000004,-3083.0116719999996,-433.454305,-84.192153,-16.638845,-89.672186
471,-0.197424,-0.551192,1.16996,2.97378,1.63999,1.70718,-4.95386,-2.53806,1.11412,-1.63811,2.11439,0.028997,511.04857400000003,-2993.571508,-57.642659,-88.30992400000001,-39.074393,-89.67141
472,0.177437,-0.857074,1.02306,3.63413,1.50208,1.5671,-4.10512,-2.74371,0.934353,-1.46633,0.469313,0.0862962,40.524853,-2837.881726,-204.33533,-97.24665,6.919093299999999,-93.093238
473,-0.0242594,-0.575991,0.705503,3.33924,1.50438,1.68355,-4.27976,-3.17779,2.12195,-2.16053,1.05323,0.0232524,334.0709394,-3032.638509,-520.201033,-97.33564,-16.669905,-93.699024
474,0.172052,-0.733881,0.954265,3.74189,1.66471,1.47532,-3.98035,-2.90116,1.16426,-0.897413,0.160128,-0.449133,85.785938,-2950.826419,-274.930295,-89.113815,18.218311,-90.269542
475,-0.352406,-0.456126,1.16205,3.83911,1.2642,1.5789,-4.89669,-2.39845,1.06989,-2.08169,1.05683,-0.0670403,674.080326,-3031.801574,-60.262414,-108.15057,18.983762000000002,-98.226327
476,-0.379467,-0.87201,1.02933,2.83093,1.62529,1.41844,-5.05103,-2.72566,0.762318,-1.11932,2.06644,0.010615,571.0799069999999,-2630.26429,-198.31548999999998,-89.676875,-30.763927,-90.933873
477,0.21271,-0.834173,0.950589,3.0799,1.24842,1.44363,-4.13382,-2.79245,1.14782,-1.8911,0.967186,0.251471,21.900216999999998,-2870.7656269999998,-272.37199899999996,-112.45098,-16.83208,-95.996401
478,0.000718206,-0.851139,0.711727,3.23758,1.28954,1.42569,-4.39144,-3.20988,1.64446,-1.90468,1.02862,0.145355,213.81341179400002,-2782.0911610000003,-511.579497,-109.53944,-7.049732799999999,-94.97706600000001
479,0.0543367,-0.625414,0.954602,3.0298,1.63073,1.42672,-4.17794,-2.87916,1.64007,-1.83214,1.00448,-0.0451763,243.1841133,-3013.5466859999997,-273.357572,-89.559089,-19.907853,-90.943771
480,-0.167917,-0.677234,0.829098,3.43905,1.53242,1.63181,-4.62119,-3.07564,1.76343,-1.86815,1.24234,0.000443042,432.767177,-2888.2590659999996,-396.826888,-95.695347,-7.9936861,-92.742008
481,0.229061,-0.79454,1.10322,3.0936,1.56056,1.69111,-4.13128,-2.64068,0.951614,-1.46366,1.15699,0.00414092,23.359313,-2912.92736,-124.73146999999999,-93.996883,-31.287916,-92.289493
482,-0.0614325,-0.406882,1.17119,3.26027,1.50882,1.41006,-3.86705,-2.31489,1.28208,-2.25088,0.449307,0.119936,422.5324825,-3180.2974179999997,-54.409092,-96.867742,-5.5081108,-92.336274
483,-0.0419492,-0.899337,0.765421,3.5316,1.65367,1.59728,-4.43847,-3.23447,1.49674,-1.30841,0.93355,-0.0259927,235.37838920000002,-2722.229963,-463.80643100000003,-89.33604199999999,-0.8653626799999999,-90.096146
484,-0.0955644,-0.697481,1.0934,2.98833,1.70522,1.49126,-4.60327,-2.71139,1.24066,-1.53803,1.53629,-0.0259684,361.8706944,-2892.5432189999997,-135.72924,-84.794188,-25.821121,-89.500928
485,-0.37468,-0.842124,0.829184,3.81254,1.61437,1.63,-4.84946,-3.11567,1.37061,-1.35808,1.09532,0.00870055,565.37166,-2662.1250760000003,-397.431494,-91.883844,13.388727,-90.726591
486,-0.389153,-0.853317,0.71452,2.83477,1.56468,1.7264,-5.13081,-3.24571,1.31807,-1.22325,2.45073,-0.00601894,591.5045729999999,-2641.824383,-512.12424,-93.63633300000001,-48.076754,-92.29648
487,0.0725062,-0.72883,0.915201,3.51519,1.71227,1.4457,-4.13009,-3.01354,1.47754,-1.32936,0.501548,-0.192472,182.8081038,-2922.14577,-314.806871,-86.012343,6.822741199999999,-89.890853
488,-0.334302,-0.781744,0.78335,3.70246,1.51739,1.6962,-4.851,-3.17858,1.58812,-1.59851,1.27273,-0.0154374,550.792642,-2732.9667560000003,-442.25201999999996,-96.376721,3.4229003000000002,-93.25856900000001
489,-0.287159,-0.672428,1.1875,3.2108,1.52136,1.58385,-4.93649,-2.46441,0.82608,-1.55347,1.73751,-0.012637,548.899279,-2851.6034720000002,-37.908902,-96.28688500000001,-18.329025,-92.840129
490,-0.344786,-0.67863,1.01539,2.89521,1.55899,1.43885,-5.09206,-2.80431,1.23047,-1.58073,2.064,-0.00411636,604.036416,-2825.2447700000002,-210.41271,-93.76365000000001,-28.194739000000002,-91.847291
491,-0.364946,-0.863142,0.932177,3.28913,1.75497,1.45456,-4.92496,-2.9777,1.15945,-1.141,1.51724,0.0168742,554.367746,-2645.2206579999997,-297.695647,-82.987262,-6.4621885,-89.16485
492,0.0926734,-0.830392,0.858603,3.58713,1.67235,1.45671,-4.17959,-3.08742,1.37244,-1.22865,0.483726,-0.132514,128.8242066,-2834.044408,-370.340083,-88.31016,10.309269,-90.258766
493,0.0163612,-0.536207,0.904843,3.51211,1.63817,1.6871,-4.02875,-2.8983,1.8269,-1.96436,0.633877,-0.0619667,306.5246588,-3084.630793,-322.993483,-89.993361,-7.0740332,-90.219465
494,0.0371141,-0.531222,0.844163,3.33852,1.31736,1.64672,-4.03315,-2.83566,1.86165,-2.51906,0.794631,0.199688,290.90843590000003,-3095.718278,-378.514893,-108.00531000000001,-13.548878,-98.069595
495,-0.352966,-0.797004,0.780124,3.51464,1.434,1.62083,-4.90982,-3.15481,1.53853,-1.65364,1.44227,-0.0344656,565.065326,-2712.211596,-443.941704,-100.917478,-2.7315439,-94.853966
496,0.249264,-0.726066,1.05852,3.08148,1.79566,1.56411,-4.00375,-2.80347,1.21076,-1.26893,0.935337,-0.183532,26.990927,-2984.1664339999998,-173.08122999999998,-79.342106,-24.422301,-87.212747
497,-0.0456554,-0.681036,1.01004,3.58854,1.35907,1.48895,-4.27958,-2.7218,1.34197,-2.09106,0.625683,0.176554,310.1444954,-2926.462564,-214.11094,-104.76316999999999,9.207,-94.989813
498,0.346649,-0.541415,1.19656,3.15171,1.504,1.60208,-3.57819,-2.43639,0.916085,-1.77187,0.461344,0.133496,-2.6763684000000003,-3192.895485,-30.515388,-97.42387799999999,-22.703673000000002,-93.424315
499,-0.259057,-0.424643,0.863592,3.27896,1.55132,1.55829,-4.96929,-2.89469,1.9157,-2.18196,1.67693,-0.00556404,606.436337,-3094.414757,-361.99666199999996,-94.53607099999999,-13.021911000000001,-92.181066
500,-0.254389,-0.634554,1.03508,3.15094,1.37564,1.73632,-4.96917,-2.69091,1.25642,-1.91975,1.97413,-0.0872296,534.3452689999999,-2896.5349459999998,-188.53195,-106.14201,-29.71302,-98.29168800000001
501,0.388475,-0.883981,0.861035,3.52833,1.43673,1.44658,-3.92001,-2.9509,1.03367,-1.67079,0.290715,0.378272,-166.588975,-2884.4450190000002,-366.206795,-100.817768,8.0095417,-93.449289
502,-0.2532,-0.524549,0.991042,3.63403,1.5785,1.66812,-4.74642,-2.77282,1.60673,-1.96832,1.20906,0.000215716,562.06757,-3002.6837509999996,-235.42501199999998,-93.34819,1.0041647999999999,-91.680943
503,-0.344709,-0.677825,0.947986,2.8577,1.7714,1.71053,-5.16802,-2.97241,1.28619,-1.15739,2.43242,0.171576,608.6438089999999,-2822.2622749999996,-281.677636,-77.81567199999999,-45.398943,-84.63920200000001
504,-0.0454313,-0.594977,1.127,2.91124,1.88657,1.42225,-4.45499,-2.67894,1.351,-1.50248,1.41398,-0.125238,349.0954813,-3005.767723,-104.80789999999999,-73.69771100000001,-26.099031999999998,-87.77599000000001
505,-0.329948,-0.43105,0.753248,3.2215,1.66891,1.54094,-5.19779,-3.17953,2.06195,-1.91896,1.94312,0.0454876,672.261548,-3064.05505,-474.416818,-87.58840000000001,-15.345098,-89.93271200000001
506,0.0430326,-0.487979,0.782684,2.93481,1.65989,1.63237,-4.1573,-3.0244,2.11652,-2.14284,1.28516,-0.0446976,305.3068374,-3136.251121,-445.656104,-87.040412,-37.069742999999995,-89.517924
507,-0.151244,-0.694582,1.13582,2.96212,1.49392,1.50087,-4.73079,-2.55964,1.02686,-1.68519,1.69809,0.00311178,415.206054,-2876.159918,-89.88407099999999,-98.012844,-27.799543,-93.12844700000001
508,-0.0119532,-0.483451,1.15485,3.14759,1.88249,1.69716,-4.24199,-2.56709,1.4108,-1.65495,1.23711,-0.110506,355.3293332,-3122.047849,-77.022835,-73.474645,-27.541622,-83.04029
509,-0.0691876,-0.882987,1.09996,3.33708,1.53146,1.55001,-4.50909,-2.6136,0.806804,-1.37723,1.15075,0.00872452,268.7361576,-2728.059213,-127.23340999999999,-95.811355,-9.1351642,-92.525562
510,0.347583,-0.401274,0.83225,2.89709,1.31481,1.70767,-3.33553,-2.84815,1.87745,-2.60278,0.627422,0.41936,49.983778,-3321.9200260000002,-391.33905999999996,-112.06921000000001,-42.007989,-101.142455
511,0.221003,-0.875998,0.994423,3.73187,1.54193,1.51767,-4.05818,-2.77737,0.861722,-1.31502,0.273321,0.0689557,-8.6875061,-2834.190102,-233.735693,-95.272312,15.357645999999999,-92.252415
512,0.244092,-0.5152,1.07933,3.50121,1.87208,1.44811,-3.59341,-2.54119,0.860237,0.270827,0.284917,-1.62983,94.466136,-3182.2295000000004,-153.36629,-77.32343,6.090805400000001,-87.800862
513,0.198505,-0.815409,1.18106,3.36644,1.70288,1.53791,-4.08369,-2.48279,0.573595,-1.03002,0.691742,-0.128074,39.069215,-2884.559091,-48.934229,-86.101316,-6.843353199999999,-89.38335
514,0.390805,-0.588164,0.901619,3.05747,1.72684,1.58356,-3.64276,-3.03841,1.58033,-1.4119,0.615568,-0.237351,-58.980843,-3163.431536,-329.32644899999997,-83.39322999999999,-27.198551,-88.43388300000001
515,-0.283902,-0.650113,0.992284,3.56114,1.49874,1.41135,-4.73249,-2.80932,1.41734,-1.8273,1.01147,0.0109862,544.927542,-2873.752787,-232.942114,-97.499772,11.621036,-92.372128
516,-0.334574,-0.799051,1.10641,3.67263,1.83514,1.6561,-4.84278,-2.69746,0.905843,-1.11053,1.24782,0.0581134,544.043814,-2715.992349,-123.93751999999999,-80.69492699999999,4.3527236,-85.423484
517,0.391178,-0.472474,0.780491,3.80895,1.73916,1.71623,-3.40142,-2.88023,1.28686,1.13156,0.299562,-2.59352,-28.487507,-3273.272826,-450.024271,-86.16189899999999,8.264244,-87.28819899999999
518,0.318967,-0.655351,0.742916,3.69399,1.2478,1.6668,-3.74878,-3.0439,1.65436,3.38184,0.300258,-5.3261,-22.378248,-3076.269749,-480.612486,-109.46587,6.0182115000000005,-99.849184
519,-0.186704,-0.887073,0.899349,3.494,1.41641,1.43893,-4.61197,-2.94401,1.23586,4.67596,0.988398,-6.24159,374.521504,-2684.0817270000002,-325.56303899999995,-101.968351,6.4609767,-93.502889
520,-0.234863,-0.688009,1.011,3.62085,1.332,1.40282,-4.61802,-2.72573,1.28286,4.29832,0.837367,-6.20136,485.05251300000003,-2854.217391,-212.40694,-106.39132000000001,16.049170999999998,-94.12904200000001
521,0.267369,-0.780134,0.810336,3.4701,1.2777,1.43093,-3.94741,-3.01121,1.43614,3.98642,0.422291,-5.69645,-16.626019999999997,-2940.268266,-413.718006,-109.54447,6.1088264,-95.136078
522,-0.0868758,-0.865431,1.17718,3.37098,1.24948,1.63905,-4.54768,-2.21473,0.183807,4.84218,1.24909,-6.25197,292.82895579999996,-2738.853169,-44.733436,-111.70819,-10.7789116,-99.26401
523,-0.00674343,-0.616305,0.874277,3.53839,1.37143,1.54592,-4.16181,-2.90155,1.72445,3.99668,0.615208,-6.09609,297.39193343,-3001.273895,-349.643657,-104.16098000000001,3.0461687,-95.486001
524,0.249248,-0.597086,0.948929,3.5946,1.33218,1.58392,-3.72935,-2.72143,1.40703,3.44143,0.252926,-5.39015,62.420083999999996,-3107.524814,-275.345969,-105.89366,4.4190553,-96.700536
525,-0.0308302,-0.586375,0.938031,3.46933,1.34887,1.49238,-4.18127,-2.77021,1.62258,3.94004,0.654609,-6.07541,330.2971802,-3021.133925,-285.54834100000005,-105.57982,2.2079705,-95.19366699999999
526,0.29478,-0.643996,0.870631,2.91453,1.3897,1.42315,-3.83809,-2.96193,1.62138,4.23352,0.794079,-6.06682,12.270071000000002,-3077.451704,-354.853961,-104.21235,-25.740241,-94.103603
